( Made using CamBam - http://www.cambam.co.uk )
( coleracing 12/12/2011 7:07:48 PM )
( T3 : 0.125 )
G20 G90
G0 Z0.125
( T3 : 0.125 )
T3 M6
( Profile1 )
G17
M3 S1000
G0 X10.1787 Y2.0278
G1 F10.0 Z-0.125
G2 F30.0 X10.1675 Y1.9776 I-1.6161 J0.3347
G3 X10.1674 Y1.9773 I0.0608 J-0.0146
G2 X10.1377 Y1.8577 I-4.2778 J0.9974
G3 Y1.8576 I0.0604 J-0.0159
G1 X9.7977 Y0.5556
G1 X9.7869
G1 X10.1097 Y1.7938
G3 Y1.794 I-0.0605 J0.0158
G2 X10.1468 Y1.9292 I4.1082 J-1.0526
G3 X10.1474 Y1.9314 I-0.06 J0.0175
G2 X10.1787 Y2.0278 I0.7367 J-0.1862
G0 Z0.125
G0 X11.2906 Y1.7364
G1 F10.0 Z-0.125
G1 F30.0 X11.3356 Y1.9081
G3 X11.3359 Y1.9092 I-0.0605 J0.0158
G2 X11.3589 Y1.9895 I1.0059 J-0.2455
G3 X11.3598 Y1.9924 I-0.0593 J0.0197
G2 X11.3733 Y2.0293 I0.2445 J-0.068
G2 X11.372 Y2.0247 I-0.2613 J0.0683
G3 X11.3711 Y2.0211 I0.0602 J-0.0169
G2 X11.3514 Y1.9403 I-1.6261 J0.3533
G3 X11.3513 Y1.9398 I0.0603 J-0.0163
G1 X11.1933 Y1.3367
G3 X11.1931 Y1.336 I0.0605 J-0.0158
G2 X11.1638 Y1.2302 I-2.211 J0.5554
G3 X11.1631 Y1.2278 I0.0598 J-0.0181
G2 X11.1439 Y1.1694 I-0.4637 J0.1203
G3 X11.1447 Y1.1728 I-0.0603 J0.0163
G2 X11.1639 Y1.2533 I1.4716 J-0.3093
G3 X11.164 Y1.2536 I-0.0604 J0.0162
G1 X11.2906 Y1.7364
G0 Z0.125
G0 X11.0361 Y0.7045
G1 F10.0 Z-0.125
G2 F30.0 X11.0171 Y0.6412 I-1.032 J0.2742
G3 X11.0162 Y0.6381 I0.0593 J-0.0198
G2 X10.9906 Y0.5782 I-0.2366 J0.0655
G2 X10.9751 Y0.5675 I-0.0316 J0.0292
G2 X10.9822 Y0.6112 I0.1372 J0.0001
G3 X10.9674 Y0.675 I-0.0593 J0.0199
G3 X11.0137 Y0.6928 I-0.1492 J0.4595
G3 X11.017 Y0.6944 I-0.0253 J0.0571
G3 X11.0361 Y0.7045 I-0.3596 J0.698
G0 Z0.125
G0 X7.1508 Y1.8565
G1 F10.0 Z-0.125
G2 F30.0 X7.1399 Y1.822 I-0.949 J0.2814
G3 X7.139 Y1.819 I0.0592 J-0.0199
G2 X7.1144 Y1.7618 I-0.2284 J0.0642
G2 X7.1103 Y1.7577 I-0.0567 J0.0537
G1 X7.1406 Y1.8745
G3 X7.1407 Y1.8747 I-0.0605 J0.0157
G2 X7.1685 Y1.9748 I2.5647 J-0.6596
G3 X7.1692 Y1.9773 I-0.0599 J0.0179
G2 X7.1947 Y2.0509 I0.4556 J-0.1164
G2 X7.1937 Y2.045 I-0.1097 J0.0155
G3 X7.1931 Y2.0412 I0.0613 J-0.012
G2 X7.1853 Y1.9963 I-0.5591 J0.0739
G3 X7.1851 Y1.9955 I0.0611 J-0.0132
G2 X7.1632 Y1.9021 I-1.4501 J0.2914
G3 X7.1628 Y1.9008 I0.0603 J-0.0163
G2 X7.1508 Y1.8565 I-0.961 J0.2371
G0 Z0.125
G0 X6.9829 Y1.2126
G1 F10.0 Z-0.125
G1 F30.0 X6.9362 Y1.0343
G3 X6.936 Y1.0338 I0.0605 J-0.0158
G2 X6.9107 Y0.9436 I-1.7351 J0.4392
G3 X6.9098 Y0.9406 I0.0597 J-0.0185
G2 X6.8866 Y0.8776 I-0.3147 J0.0804
G2 X6.8878 Y0.8842 I0.1299 J-0.0203
G3 X6.8884 Y0.8876 I-0.0612 J0.0128
G2 X6.8968 Y0.9323 I0.6486 J-0.0986
G3 X6.8969 Y0.933 I-0.061 J0.0137
G2 X6.9192 Y1.0257 I1.6789 J-0.3552
G3 X6.92 Y1.029 I-0.0603 J0.0163
G2 X6.9829 Y1.2126 I0.7876 J-0.167
G0 Z0.125
G0 X6.8724 Y0.4306
G1 F10.0 Z-0.125
G1 F30.0 X7.3161
G0 Z0.125
G0 X5.7231 Y0.8451
G1 F10.0 Z-0.125
G1 F30.0 X5.6478 Y0.5556
G1 X5.6325
G1 X5.8785 Y1.4968
G2 X5.881 Y1.4959 I-0.0255 J-0.0788
G2 X5.879 Y1.4715 I-0.0901 J-0.0048
G3 X5.878 Y1.466 I0.061 J-0.0136
G2 X5.8685 Y1.412 I-0.6103 J0.0795
G3 X5.8683 Y1.4111 I0.061 J-0.0136
G2 X5.8413 Y1.2994 I-1.6745 J0.3452
G3 X5.8411 Y1.2984 I0.0602 J-0.0167
G1 X5.7231 Y0.8451
G0 Z0.125
G0 X6.0141 Y2.0177
G1 F10.0 Z-0.125
G1 F30.0 X6.1131 Y2.3945
G2 X6.1167 Y2.3925 I-0.0103 J-0.0225
G3 X6.1168 Y2.3874 I0.0625 J-0.0018
G2 X6.1154 Y2.3621 I-0.1208 J-0.0063
G3 X6.1151 Y2.3598 I0.0617 J-0.0098
G2 X6.1023 Y2.2964 I-0.4036 J0.0486
G3 X6.1018 Y2.2948 I0.0601 J-0.0172
G1 X6.068 Y2.1642
G3 X6.0674 Y2.162 I0.0605 J-0.0157
G2 X6.0206 Y2.0288 I-0.5682 J0.1251
G3 X6.0199 Y2.0273 I0.056 J-0.0277
G2 X6.0141 Y2.0177 I-0.0477 J0.0221
G0 Z0.125
G0 X4.1538 Y2.0091
G1 F10.0 Z-0.125
G2 F30.0 X4.1526 Y2.0044 I-0.3492 J0.091
G3 X4.1518 Y2.0012 I0.0603 J-0.0166
G2 X4.129 Y1.908 I-1.9696 J0.4308
G3 X4.1289 Y1.9075 I0.0604 J-0.0162
G1 X4.1039 Y1.8119
G1 X4.0999
G1 X4.1166 Y1.8759
G3 X4.1167 Y1.8763 I-0.0605 J0.0158
G2 X4.1444 Y1.9764 I2.4829 J-0.632
G3 X4.1451 Y1.9791 I-0.0599 J0.0179
G2 X4.1538 Y2.0091 I0.4269 J-0.1072
G0 Z0.125
G0 X2.3384 Y2.0055
G1 F10.0 Z-0.125
G2 F30.0 X2.3172 Y1.9198 I-1.9744 J0.4444
G3 X2.317 Y1.9193 I0.0603 J-0.0164
G1 X2.0822 Y1.0211
G3 X2.082 Y1.0204 I0.0605 J-0.0158
G2 X2.0591 Y0.9397 I-1.2619 J0.3147
G3 X2.0583 Y0.9369 I0.0595 J-0.019
G2 X2.0566 Y0.9308 I-0.2754 J0.0739
G2 X2.0754 Y1.008 I1.5612 J-0.3401
G3 X2.0756 Y1.0086 I-0.0603 J0.0163
G1 X2.3047 Y1.8877
G3 X2.3048 Y1.888 I-0.0605 J0.0158
G2 X2.3313 Y1.9812 I1.7962 J-0.4593
G3 X2.3321 Y1.984 I-0.0597 J0.0186
G2 X2.3384 Y2.0055 I0.3419 J-0.0892
G0 Z0.125
G0 X2.0242 Y2.3894
G1 F10.0 Z-0.125
G2 F30.0 X2.0867 Y2.4355 I0.486 J-0.5937
G2 X2.0907 Y2.4379 I0.0345 J-0.0521
G2 X2.4436 Y2.5382 I0.3875 J-0.6919
G2 X2.4473 Y2.5383 I0.0027 J-0.0624
G2 X2.5836 Y2.5251 I-0.0131 J-0.8462
G2 X2.5868 Y2.5244 I-0.011 J-0.0615
G2 X2.7248 Y2.4698 I-0.1162 J-0.4947
G2 X2.7267 Y2.4686 I-0.0313 J-0.0541
G2 X2.8147 Y2.3955 I-0.2254 J-0.361
G2 X2.8817 Y2.2842 I-0.2371 J-0.2184
G2 X2.9162 Y2.0602 I-0.4197 J-0.1794
G2 X2.8923 Y1.895 I-0.8976 J0.0458
G2 X2.8556 Y1.7406 I-2.438 J0.4979
G1 X2.7315 Y1.2641
G2 X2.6759 Y1.0659 I-4.1825 J1.0673
G2 X2.6067 Y0.8695 I-1.608 J0.4561
G2 X2.4485 Y0.6227 I-0.7802 J0.3259
G2 X2.3792 Y0.5556 I-0.543 J0.4917
G1 X2.5674
G1 X3.1761 Y2.8849
G2 X3.2366 Y2.9316 I0.0605 J-0.0158
G1 X3.7062
G2 X3.7667 Y2.8533 I0.0 J-0.0625
G1 X3.1662 Y0.5556
G1 X3.3755
G2 X3.33 Y0.6366 I0.2528 J0.195
G2 X3.294 Y0.8744 I0.4158 J0.1847
G2 X3.3199 Y1.0502 I1.0463 J-0.0645
G2 X3.3591 Y1.2165 I2.619 J-0.529
G1 X3.5079 Y1.7838
G2 X3.5756 Y1.9999 I1.7155 J-0.4185
G2 X3.6734 Y2.2034 I0.9678 J-0.3398
G2 X3.928 Y2.4508 I0.611 J-0.3742
G2 X3.9311 Y2.4525 I0.0311 J-0.0542
G2 X4.2548 Y2.5382 I0.3685 J-0.7374
G2 X4.2593 Y2.5383 I0.0034 J-0.0624
G2 X4.4235 Y2.5182 I-0.0141 J-0.7947
G2 X4.4274 Y2.5171 I-0.014 J-0.0609
G2 X4.5901 Y2.4279 I-0.1268 J-0.4242
G2 X4.7216 Y2.13 I-0.2403 J-0.284
G2 X4.7032 Y1.8946 I-0.8696 J-0.0506
G2 X4.655 Y1.6744 I-2.0975 J0.3438
G1 X4.5874 Y1.4165
G2 X4.5269 Y1.3699 I-0.0605 J0.0159
G1 X3.9847
G1 X3.8863 Y0.9953
G2 Y0.9951 I-0.0604 J0.0159
G3 X3.8676 Y0.9151 I1.2984 J-0.3457
G2 X3.8674 Y0.9143 I-0.0613 J0.0124
G3 X3.8607 Y0.8763 I0.491 J-0.1058
G2 X3.8602 Y0.8729 I-0.0619 J0.0084
G3 X3.8716 Y0.8848 I-0.0249 J0.0353
G3 X3.9049 Y0.9646 I-0.3061 J0.1745
G2 X3.9057 Y0.9672 I0.0602 J-0.0168
G3 X3.9334 Y1.0642 I-1.2481 J0.409
G2 X3.9336 Y1.0653 I0.0607 J-0.0149
G1 X4.0014 Y1.3221
G2 X4.0618 Y1.3686 I0.0604 J-0.0159
G1 X4.4942
G2 X4.5546 Y1.29 I0.0 J-0.0625
G1 X4.5165 Y1.1475
G2 X4.4241 Y0.8604 I-1.6054 J0.3585
G2 X4.4238 Y0.8597 I-0.0575 J0.0245
G2 X4.3557 Y0.7392 I-0.641 J0.2827
G2 X4.2776 Y0.6375 I-0.9567 J0.6539
G2 X4.1968 Y0.5556 I-0.577 J0.4885
G1 X5.0281
G1 X5.6368 Y2.8849
G2 X5.6972 Y2.9316 I0.0605 J-0.0158
G1 X6.0337
G2 X6.0338 I0.0 J-0.0625
G2 X6.2597 Y2.9267 I-0.0155 J-5.8543
G2 X6.2606 Y2.9266 I-0.0026 J-0.0624
G2 X6.375 Y2.9178 I-0.1422 J-2.5812
G2 X6.3758 Y2.9177 I-0.0062 J-0.0622
G2 X6.4949 Y2.8959 I-0.101 J-0.8905
G2 X6.4998 Y2.8945 I-0.0153 J-0.0606
G2 X6.6894 Y2.6769 I-0.0931 J-0.2725
G2 X6.7043 Y2.5487 I-0.3673 J-0.1075
G2 X6.6864 Y2.3712 I-0.8487 J-0.0042
G2 X6.6496 Y2.2047 I-1.6734 J0.2828
G2 X6.587 Y2.0025 I-1.7918 J0.4438
G2 X6.5453 Y1.9038 I-0.8698 J0.3095
G2 X6.4867 Y1.8088 I-0.4236 J0.1954
G2 X6.4849 Y1.8066 I-0.0489 J0.0389
G2 X6.361 Y1.7126 I-0.2887 J0.2521
G2 X6.3713 Y1.7024 I-0.2031 J-0.2175
G2 X6.4141 Y1.6359 I-0.1375 J-0.1354
G2 X6.4423 Y1.4636 I-0.2842 J-0.1351
G2 X6.4257 Y1.3672 I-0.7128 J0.0734
G2 X6.3616 Y1.1038 I-5.6247 J1.2289
G1 X6.2184 Y0.5556
G1 X6.3202
G2 X6.3028 Y0.6292 I0.1889 J0.0835
G2 X6.3087 Y0.7944 I0.491 J0.0652
G2 X6.3402 Y0.9439 I1.1503 J-0.1643
G1 X6.3817 Y1.1027
G2 X6.4351 Y1.2689 I1.1564 J-0.2798
G2 X6.526 Y1.4263 I0.4557 J-0.1583
G2 X6.529 Y1.4295 I0.0473 J-0.0409
G2 X6.6116 Y1.4971 I0.3717 J-0.3701
G2 X6.6133 Y1.4982 I0.0344 J-0.0522
G2 X6.8512 Y1.6237 I1.0703 J-1.7394
G1 X6.5992
G2 X6.5387 Y1.7019 I0.0 J0.0625
G1 X6.5725 Y1.8321
G2 X6.629 Y2.018 I1.7086 J-0.4181
G2 X6.7102 Y2.1964 I0.8721 J-0.2892
G2 X6.8207 Y2.3348 I0.5412 J-0.3188
G2 X6.8209 Y2.335 I0.0429 J-0.0455
G2 X6.9479 Y2.4343 I0.6308 J-0.676
G2 X6.9496 Y2.4353 I0.0341 J-0.0524
G2 X7.1296 Y2.5144 I0.3906 J-0.6449
G2 X7.1333 Y2.5154 I0.0175 J-0.06
G2 X7.3192 Y2.5383 I0.2075 J-0.9171
G2 X7.3215 I0.0014 J-0.0625
G2 X7.5006 Y2.5186 I-0.013 J-0.944
G2 X7.5043 Y2.5177 I-0.0127 J-0.0612
G2 X7.597 Y2.4825 I-0.1333 J-0.4894
G2 X7.5991 Y2.4813 I-0.0278 J-0.056
G2 X7.6869 Y2.4114 I-0.1565 J-0.2864
G2 X7.7751 Y2.0965 I-0.2394 J-0.2369
G2 X7.747 Y1.9319 I-1.4711 J0.1664
G2 X7.6316 Y1.4544 I-8.1114 J1.708
G1 X7.397 Y0.5556
G1 X7.5837
G2 X7.5188 Y0.7848 I0.2886 J0.2055
G2 X7.5405 Y1.0197 I0.9284 J0.0328
G2 X7.5899 Y1.2402 I2.2507 J-0.3887
G1 X7.7342 Y1.7926
G2 X7.7929 Y1.9903 I2.1093 J-0.5192
G2 X7.8756 Y2.1819 I0.9798 J-0.3094
G2 X7.8761 Y2.1827 I0.0546 J-0.0305
G2 X7.9892 Y2.3259 I0.5439 J-0.3134
G2 X7.9893 Y2.326 I0.0429 J-0.0455
G2 X8.1195 Y2.4283 I0.6539 J-0.6982
G2 X8.1221 Y2.4299 I0.0342 J-0.0523
G2 X8.4811 Y2.5382 I0.4029 J-0.6862
G2 X8.4858 Y2.5383 I0.0034 J-0.0624
G2 X8.6457 Y2.5162 I-0.0147 J-0.6946
G2 X8.6499 Y2.5149 I-0.0157 J-0.0605
G2 X8.8053 Y2.4238 I-0.1405 J-0.4177
G2 X8.8062 Y2.4229 I-0.042 J-0.0463
G2 X8.8949 Y2.2952 I-0.2585 J-0.2742
G2 X8.9286 Y2.1288 I-0.3208 J-0.1515
G2 X8.9058 Y1.9015 I-0.9346 J-0.0212
G2 X8.8574 Y1.6886 I-2.2713 J0.4046
G2 X8.7972 Y1.6428 I-0.0602 J0.0167
G1 X8.3671
G2 X8.3066 Y1.7211 I0.0 J0.0625
G1 X8.3653 Y1.9457
G2 X8.3655 Y1.9462 I0.0605 J-0.0158
G3 X8.3827 Y2.0199 I-1.0474 J0.2837
G2 X8.3836 Y2.0238 I0.0613 J-0.0121
G3 X8.3845 Y2.0274 I-0.2022 J0.0537
G3 X8.375 Y1.9981 I0.2802 J-0.1075
G2 X8.3742 Y1.9953 I-0.0603 J0.0163
G3 X8.3509 Y1.9144 I1.3663 J-0.4367
G2 X8.3508 Y1.914 I-0.0605 J0.0155
G1 X8.1103 Y0.9953
G2 X8.1101 Y0.9944 I-0.0605 J0.0158
G3 X8.0951 Y0.9246 I0.57 J-0.159
G2 X8.0943 Y0.9204 I-0.0618 J0.0094
G3 X8.0904 Y0.8759 I0.165 J-0.037
G3 X8.0966 Y0.8848 I-0.0264 J0.0251
G2 X8.0973 Y0.8862 I0.056 J-0.0277
G3 X8.1322 Y0.9738 I-0.3917 J0.2067
G2 X8.1329 Y0.9761 I0.0602 J-0.0168
G3 X8.162 Y1.0778 I-1.562 J0.5019
G2 X8.1622 Y1.0784 I0.0606 J-0.0152
G1 X8.2231 Y1.3103
G2 X8.2836 Y1.3569 I0.0604 J-0.0159
G1 X8.69
G2 X8.7506 Y1.2794 I0.0 J-0.0625
G2 X8.6439 Y0.9229 I-3.7078 J0.9156
G2 X8.5775 Y0.7839 I-0.6741 J0.2367
G2 X8.4963 Y0.6657 I-0.9242 J0.548
G2 X8.3911 Y0.5556 I-0.623 J0.4898
G1 X8.5683
G1 X9.0641 Y2.4564
G2 X9.1246 Y2.5031 I0.0605 J-0.0158
G1 X9.1292
G2 X9.0958 Y2.5753 I0.027 J0.0564
G1 X9.177 Y2.885
G2 X9.2375 Y2.9316 I0.0605 J-0.0159
G1 X9.7071
G2 X9.7676 Y2.8532 I0.0 J-0.0625
G1 X9.6863 Y2.5436
G2 X9.6258 Y2.497 I-0.0605 J0.0159
G1 X9.6212
G2 X9.6547 Y2.4248 I-0.027 J-0.0564
G1 X9.1671 Y0.5556
G1 X9.2016
G1 X9.6974 Y2.4564
G2 X9.7579 Y2.5031 I0.0605 J-0.0158
G1 X10.2219
G2 X10.2806 Y2.4622 I0.0 J-0.0625
G2 X10.2962 Y2.4731 I0.4126 J-0.5712
G2 X10.3002 Y2.4756 I0.0352 J-0.0516
G2 X10.5069 Y2.5382 I0.2372 J-0.4112
G2 X10.5122 Y2.5383 I0.004 J-0.0624
G2 X10.6201 Y2.5217 I-0.0088 J-0.4172
G2 X10.6246 Y2.5202 I-0.0175 J-0.06
G2 X10.7314 Y2.4442 I-0.0895 J-0.2387
G2 X10.7942 Y2.2138 I-0.2106 J-0.1812
G2 X10.7631 Y2.0234 I-1.142 J0.0889
G2 X10.7192 Y1.8419 I-3.6517 J0.7878
G1 X10.383 Y0.5556
G1 X10.4006
G2 X10.4202 Y0.6476 I0.7937 J-0.1209
G2 X10.4804 Y0.6936 I0.0603 J-0.0166
G1 X10.6693
G2 X10.6151 Y0.7335 I0.1487 J0.2584
G2 X10.615 Y0.7336 I0.0425 J0.0458
G2 X10.5308 Y0.95 I0.1828 J0.1958
G2 X10.5472 Y1.1126 I0.6831 J0.0128
G2 X10.5815 Y1.2637 I1.6312 J-0.2903
G1 X10.7663 Y1.9699
G2 X10.8398 Y2.1927 I1.3269 J-0.3141
G2 X10.9603 Y2.3948 I0.6327 J-0.2402
G2 X10.9631 Y2.3978 I0.0473 J-0.0408
G2 X11.27 Y2.5382 I0.3374 J-0.3322
G2 X11.2764 Y2.5383 I0.004 J-0.0624
G2 X11.4534 Y2.4807 I-0.0128 J-0.3404
G2 X11.4576 Y2.4777 I-0.0348 J-0.0519
G2 X11.5049 Y2.431 I-0.202 J-0.2527
G1 X11.5225 Y2.4676
G2 X11.5788 Y2.5031 I0.0563 J-0.027
G1 X12.0033
G2 X12.0638 Y2.4248 I0.0 J-0.0625
G1 X11.6721 Y0.925
G2 X11.6189 Y0.7262 I-9.9262 J2.5503
G2 X11.5576 Y0.5265 I-2.2975 J0.5956
G2 X11.5571 Y0.5251 I-0.0589 J0.0209
G2 X11.4937 Y0.4095 I-0.4555 J0.1744
G2 X11.4189 Y0.3182 I-0.7024 J0.4995
G2 X11.4182 Y0.3175 I-0.0455 J0.0428
G2 X11.1749 Y0.1521 I-0.5222 J0.5067
G2 X11.1728 Y0.1513 I-0.024 J0.0577
G2 X11.0099 Y0.107 I-0.3255 J0.8752
G2 X11.0074 Y0.1066 I-0.0109 J0.0615
G2 X10.8448 Y0.0945 I-0.1808 J1.3352
G2 X10.8436 I-0.0008 J0.0625
G2 X10.7297 Y0.1019 I0.0057 J0.9762
G1 X0.1806
G2 X0.1181 Y0.1644 I0.0 J0.0625
G1 Y0.4931
G2 X0.1806 Y0.5556 I0.0625 J0.0
G1 X0.2878
G2 X0.2175 Y0.8174 I0.2845 J0.2167
G2 X0.2293 Y0.9565 I0.9345 J-0.0095
G2 X0.3134 Y1.3535 I2.8123 J-0.3879
G1 X0.4949 Y2.0467
G2 X0.5482 Y2.2424 I5.7532 J-1.4627
G2 X0.6107 Y2.437 I2.3219 J-0.6382
G2 X0.7677 Y2.7045 I0.7863 J-0.2818
G2 X1.0212 Y2.9056 I0.6377 J-0.5435
G2 X1.0244 Y2.9071 I0.0287 J-0.0555
G2 X1.3383 Y2.9814 I0.3537 J-0.7937
G2 X1.3423 Y2.9815 I0.0029 J-0.0624
G2 X1.5209 Y2.9593 I-0.0154 J-0.8533
G2 X1.5248 Y2.9583 I-0.0142 J-0.0609
G2 X1.7008 Y2.8603 I-0.1376 J-0.4542
G2 X1.702 Y2.8591 I-0.0413 J-0.0469
G2 X1.7968 Y2.7251 I-0.2721 J-0.2928
G2 X1.8327 Y2.5481 I-0.3267 J-0.1584
G2 X1.8234 Y2.4146 I-0.7705 J-0.0137
G2 X1.7457 Y2.0424 I-2.506 J0.3289
G1 X1.6872 Y1.8187
G2 X1.6268 Y1.772 I-0.0605 J0.0158
G1 X1.1515
G2 X1.091 Y1.8504 I0.0 J0.0625
G1 X1.1994 Y2.2627
G1 Y2.2628
G3 X1.2253 Y2.3707 I-2.3983 J0.6322
G2 X1.2254 Y2.3713 I0.0611 J-0.0132
G3 X1.2358 Y2.424 I-0.9052 J0.2049
G2 X1.2364 Y2.4274 I0.0617 J-0.0102
G3 X1.2401 Y2.4527 I-0.1593 J0.0358
G3 X1.2132 Y2.4326 I0.0131 J-0.0456
G3 X1.1756 Y2.3317 I0.5059 J-0.2457
G2 X1.175 Y2.3294 I-0.0604 J0.0161
G3 X1.1421 Y2.2123 I2.383 J-0.7332
G2 X1.142 Y2.212 I-0.0606 J0.0154
G1 X0.8541 Y1.1084
G2 X0.854 Y1.1079 I-0.0605 J0.0158
G3 X0.8277 Y0.9996 I2.1824 J-0.5867
G2 X0.8269 Y0.9964 I-0.0611 J0.0132
G3 X0.8127 Y0.9097 I0.4143 J-0.1126
G3 X0.8358 Y0.9281 I-0.0133 J0.0405
G3 X0.8761 Y1.035 I-0.4787 J0.2415
G2 X0.8768 Y1.0375 I0.0605 J-0.0157
G3 X0.9114 Y1.1615 I-2.489 J0.7612
G2 X0.9115 Y1.1619 I0.0606 J-0.0153
G1 X0.9894 Y1.4613
G2 X1.0499 Y1.5081 I0.0605 J-0.0157
G1 X1.5252
G2 X1.5858 Y1.4303 I0.0 J-0.0625
G1 X1.562 Y1.3363
G2 X1.4839 Y1.0656 I-4.2148 J1.0699
G2 X1.38 Y0.8011 I-1.486 J0.4309
G2 X1.3798 Y0.8005 I-0.0558 J0.0281
G2 X1.2573 Y0.6309 I-0.6269 J0.3234
G2 X1.175 Y0.5556 I-0.7187 J0.7036
G1 X1.5324
G2 X1.5057 Y0.6075 I0.2323 J0.1525
G2 X1.4731 Y0.8488 I0.4185 J0.1793
G2 X1.5035 Y1.0451 I1.1643 J-0.0796
G2 X1.5483 Y1.2313 I3.0957 J-0.6472
G1 X1.6779 Y1.7295
G2 X1.7458 Y1.9536 I2.2469 J-0.5577
G2 X1.8397 Y2.1686 I1.1747 J-0.3851
G2 X2.0242 Y2.3894 I0.6705 J-0.373
G0 Z0.125
G0 X2.3384 Y2.0055
G1 F10.0 Z-0.25
G2 F30.0 X2.3172 Y1.9198 I-1.9744 J0.4444
G3 X2.317 Y1.9193 I0.0603 J-0.0164
G1 X2.0822 Y1.0211
G3 X2.082 Y1.0204 I0.0605 J-0.0158
G2 X2.0591 Y0.9397 I-1.2619 J0.3147
G3 X2.0583 Y0.9369 I0.0595 J-0.019
G2 X2.0566 Y0.9308 I-0.2754 J0.0739
G2 X2.0754 Y1.008 I1.5612 J-0.3401
G3 X2.0756 Y1.0086 I-0.0603 J0.0163
G1 X2.3047 Y1.8877
G3 X2.3048 Y1.888 I-0.0605 J0.0158
G2 X2.3313 Y1.9812 I1.7962 J-0.4593
G3 X2.3321 Y1.984 I-0.0597 J0.0186
G2 X2.3384 Y2.0055 I0.3419 J-0.0892
G0 Z0.125
G0 X4.0999 Y1.8119
G1 F10.0 Z-0.25
G1 F30.0 X4.1166 Y1.8759
G3 X4.1167 Y1.8763 I-0.0605 J0.0158
G2 X4.1444 Y1.9764 I2.4829 J-0.632
G3 X4.1451 Y1.9791 I-0.0599 J0.0179
G2 X4.1538 Y2.0091 I0.4269 J-0.1072
G2 X4.1526 Y2.0044 I-0.3492 J0.091
G3 X4.1518 Y2.0012 I0.0603 J-0.0166
G2 X4.129 Y1.908 I-1.9696 J0.4308
G3 X4.1289 Y1.9075 I0.0604 J-0.0162
G1 X4.1039 Y1.8119
G1 X4.0999
G0 Z0.125
G0 X5.8419 Y1.3566
G1 F10.0 Z-0.25
G1 F30.0 X5.8785 Y1.4968
G2 X5.881 Y1.4959 I-0.0255 J-0.0788
G2 X5.879 Y1.4715 I-0.0901 J-0.0048
G3 X5.878 Y1.466 I0.061 J-0.0136
G2 X5.8685 Y1.412 I-0.6103 J0.0795
G3 X5.8683 Y1.4111 I0.061 J-0.0136
G2 X5.8413 Y1.2994 I-1.6745 J0.3452
G3 X5.8411 Y1.2984 I0.0602 J-0.0167
G1 X5.6478 Y0.5556
G1 X5.6325
G1 X5.8419 Y1.3566
G0 Z0.125
G0 X6.0141 Y2.0177
G1 F10.0 Z-0.25
G1 F30.0 X6.1131 Y2.3945
G2 X6.1167 Y2.3925 I-0.0103 J-0.0225
G3 X6.1168 Y2.3874 I0.0625 J-0.0018
G2 X6.1154 Y2.3621 I-0.1208 J-0.0063
G3 X6.1151 Y2.3598 I0.0617 J-0.0098
G2 X6.1023 Y2.2964 I-0.4036 J0.0486
G3 X6.1018 Y2.2948 I0.0601 J-0.0172
G1 X6.068 Y2.1642
G3 X6.0674 Y2.162 I0.0605 J-0.0157
G2 X6.0206 Y2.0288 I-0.5682 J0.1251
G3 X6.0199 Y2.0273 I0.056 J-0.0277
G2 X6.0141 Y2.0177 I-0.0477 J0.0221
G0 Z0.125
G0 X7.1103 Y1.7577
G1 F10.0 Z-0.25
G1 F30.0 X7.1406 Y1.8745
G3 X7.1407 Y1.8747 I-0.0605 J0.0157
G2 X7.1685 Y1.9748 I2.5647 J-0.6596
G3 X7.1692 Y1.9773 I-0.0599 J0.0179
G2 X7.1947 Y2.0509 I0.4556 J-0.1164
G2 X7.1937 Y2.045 I-0.1097 J0.0155
G3 X7.1931 Y2.0412 I0.0613 J-0.012
G2 X7.1853 Y1.9963 I-0.5591 J0.0739
G3 X7.1851 Y1.9955 I0.0611 J-0.0132
G2 X7.1632 Y1.9021 I-1.4501 J0.2914
G3 X7.1628 Y1.9008 I0.0603 J-0.0163
G2 X7.1399 Y1.822 I-0.961 J0.2371
G3 X7.139 Y1.819 I0.0592 J-0.0199
G2 X7.1144 Y1.7618 I-0.2284 J0.0642
G2 X7.1103 Y1.7577 I-0.0567 J0.0537
G0 Z0.125
G0 X6.9829 Y1.2126
G1 F10.0 Z-0.25
G1 F30.0 X6.9362 Y1.0343
G3 X6.936 Y1.0338 I0.0605 J-0.0158
G2 X6.9107 Y0.9436 I-1.7351 J0.4392
G3 X6.9098 Y0.9406 I0.0597 J-0.0185
G2 X6.8866 Y0.8776 I-0.3147 J0.0804
G2 X6.8878 Y0.8842 I0.1299 J-0.0203
G3 X6.8884 Y0.8876 I-0.0612 J0.0128
G2 X6.8968 Y0.9323 I0.6486 J-0.0986
G3 X6.8969 Y0.933 I-0.061 J0.0137
G2 X6.9192 Y1.0257 I1.6789 J-0.3552
G3 X6.92 Y1.029 I-0.0603 J0.0163
G2 X6.9829 Y1.2126 I0.7876 J-0.167
G0 Z0.125
G0 X6.8724 Y0.4306
G1 F10.0 Z-0.25
G1 F30.0 X7.3161
G0 Z0.125
G0 X9.7869 Y0.5556
G1 F10.0 Z-0.25
G1 F30.0 X10.1097 Y1.7938
G3 Y1.794 I-0.0605 J0.0158
G2 X10.1468 Y1.9292 I4.1082 J-1.0526
G3 X10.1474 Y1.9314 I-0.06 J0.0175
G2 X10.1787 Y2.0278 I0.7367 J-0.1862
G2 X10.1675 Y1.9776 I-1.6161 J0.3347
G3 X10.1674 Y1.9773 I0.0608 J-0.0146
G2 X10.1377 Y1.8577 I-4.2778 J0.9974
G3 Y1.8576 I0.0604 J-0.0159
G1 X9.7977 Y0.5556
G1 X9.7869
G0 Z0.125
G0 X10.9674 Y0.675
G1 F10.0 Z-0.25
G3 F30.0 X11.0137 Y0.6928 I-0.1492 J0.4595
G3 X11.017 Y0.6944 I-0.0253 J0.0571
G3 X11.0361 Y0.7045 I-0.3596 J0.698
G2 X11.0171 Y0.6412 I-1.032 J0.2742
G3 X11.0162 Y0.6381 I0.0593 J-0.0198
G2 X10.9906 Y0.5782 I-0.2366 J0.0655
G2 X10.9751 Y0.5675 I-0.0316 J0.0292
G2 X10.9822 Y0.6112 I0.1372 J0.0001
G3 X10.9674 Y0.675 I-0.0593 J0.0199
G0 Z0.125
G0 X11.1439 Y1.1694
G1 F10.0 Z-0.25
G3 F30.0 X11.1447 Y1.1728 I-0.0603 J0.0163
G2 X11.1639 Y1.2533 I1.4716 J-0.3093
G3 X11.164 Y1.2536 I-0.0604 J0.0162
G1 X11.3356 Y1.9081
G3 X11.3359 Y1.9092 I-0.0605 J0.0158
G2 X11.3589 Y1.9895 I1.0059 J-0.2455
G3 X11.3598 Y1.9924 I-0.0593 J0.0197
G2 X11.3733 Y2.0293 I0.2445 J-0.068
G2 X11.372 Y2.0247 I-0.2613 J0.0683
G3 X11.3711 Y2.0211 I0.0602 J-0.0169
G2 X11.3514 Y1.9403 I-1.6261 J0.3533
G3 X11.3513 Y1.9398 I0.0603 J-0.0163
G1 X11.1933 Y1.3367
G3 X11.1931 Y1.336 I0.0605 J-0.0158
G2 X11.1638 Y1.2302 I-2.211 J0.5554
G3 X11.1631 Y1.2278 I0.0598 J-0.0181
G2 X11.1439 Y1.1694 I-0.4637 J0.1203
G0 Z0.125
G0 X10.5945 Y1.3132
G1 F10.0 Z-0.25
G1 F30.0 X10.7663 Y1.9699
G2 X10.8398 Y2.1927 I1.3269 J-0.3141
G2 X10.9603 Y2.3948 I0.6327 J-0.2402
G2 X10.9631 Y2.3978 I0.0473 J-0.0408
G2 X11.27 Y2.5382 I0.3374 J-0.3322
G2 X11.2764 Y2.5383 I0.004 J-0.0624
G2 X11.4534 Y2.4807 I-0.0128 J-0.3404
G2 X11.4576 Y2.4777 I-0.0348 J-0.0519
G2 X11.5049 Y2.431 I-0.202 J-0.2527
G1 X11.5225 Y2.4676
G2 X11.5788 Y2.5031 I0.0563 J-0.027
G1 X12.0033
G2 X12.0638 Y2.4248 I0.0 J-0.0625
G1 X11.6721 Y0.925
G2 X11.6189 Y0.7262 I-9.9262 J2.5503
G2 X11.5576 Y0.5265 I-2.2975 J0.5956
G2 X11.5571 Y0.5251 I-0.0589 J0.0209
G2 X11.4937 Y0.4095 I-0.4555 J0.1744
G2 X11.4189 Y0.3182 I-0.7024 J0.4995
G2 X11.4182 Y0.3175 I-0.0455 J0.0428
G2 X11.1749 Y0.1521 I-0.5222 J0.5067
G2 X11.1728 Y0.1513 I-0.024 J0.0577
G2 X11.0099 Y0.107 I-0.3255 J0.8752
G2 X11.0074 Y0.1066 I-0.0109 J0.0615
G2 X10.8448 Y0.0945 I-0.1808 J1.3352
G2 X10.8436 I-0.0008 J0.0625
G2 X10.7297 Y0.1019 I0.0057 J0.9762
G1 X0.1806
G2 X0.1181 Y0.1644 I0.0 J0.0625
G1 Y0.4931
G2 X0.1806 Y0.5556 I0.0625 J0.0
G1 X0.2878
G2 X0.2175 Y0.8174 I0.2845 J0.2167
G2 X0.2293 Y0.9565 I0.9345 J-0.0095
G2 X0.3134 Y1.3535 I2.8123 J-0.3879
G1 X0.4949 Y2.0467
G2 X0.5482 Y2.2424 I5.7532 J-1.4627
G2 X0.6107 Y2.437 I2.3219 J-0.6382
G2 X0.7677 Y2.7045 I0.7863 J-0.2818
G2 X1.0212 Y2.9056 I0.6377 J-0.5435
G2 X1.0244 Y2.9071 I0.0287 J-0.0555
G2 X1.3383 Y2.9814 I0.3537 J-0.7937
G2 X1.3423 Y2.9815 I0.0029 J-0.0624
G2 X1.5209 Y2.9593 I-0.0154 J-0.8533
G2 X1.5248 Y2.9583 I-0.0142 J-0.0609
G2 X1.7008 Y2.8603 I-0.1376 J-0.4542
G2 X1.702 Y2.8591 I-0.0413 J-0.0469
G2 X1.7968 Y2.7251 I-0.2721 J-0.2928
G2 X1.8327 Y2.5481 I-0.3267 J-0.1584
G2 X1.8234 Y2.4146 I-0.7705 J-0.0137
G2 X1.7457 Y2.0424 I-2.506 J0.3289
G1 X1.6872 Y1.8187
G2 X1.6268 Y1.772 I-0.0605 J0.0158
G1 X1.1515
G2 X1.091 Y1.8504 I0.0 J0.0625
G1 X1.1994 Y2.2627
G1 Y2.2628
G3 X1.2253 Y2.3707 I-2.3983 J0.6322
G2 X1.2254 Y2.3713 I0.0611 J-0.0132
G3 X1.2358 Y2.424 I-0.9052 J0.2049
G2 X1.2364 Y2.4274 I0.0617 J-0.0102
G3 X1.2401 Y2.4527 I-0.1593 J0.0358
G3 X1.2132 Y2.4326 I0.0131 J-0.0456
G3 X1.1756 Y2.3317 I0.5059 J-0.2457
G2 X1.175 Y2.3294 I-0.0604 J0.0161
G3 X1.1421 Y2.2123 I2.383 J-0.7332
G2 X1.142 Y2.212 I-0.0606 J0.0154
G1 X0.8541 Y1.1084
G2 X0.854 Y1.1079 I-0.0605 J0.0158
G3 X0.8277 Y0.9996 I2.1824 J-0.5867
G2 X0.8269 Y0.9964 I-0.0611 J0.0132
G3 X0.8127 Y0.9097 I0.4143 J-0.1126
G3 X0.8358 Y0.9281 I-0.0133 J0.0405
G3 X0.8761 Y1.035 I-0.4787 J0.2415
G2 X0.8768 Y1.0375 I0.0605 J-0.0157
G3 X0.9114 Y1.1615 I-2.489 J0.7612
G2 X0.9115 Y1.1619 I0.0606 J-0.0153
G1 X0.9894 Y1.4613
G2 X1.0499 Y1.5081 I0.0605 J-0.0157
G1 X1.5252
G2 X1.5858 Y1.4303 I0.0 J-0.0625
G1 X1.562 Y1.3363
G2 X1.4839 Y1.0656 I-4.2148 J1.0699
G2 X1.38 Y0.8011 I-1.486 J0.4309
G2 X1.3798 Y0.8005 I-0.0558 J0.0281
G2 X1.2573 Y0.6309 I-0.6269 J0.3234
G2 X1.175 Y0.5556 I-0.7187 J0.7036
G1 X1.5324
G2 X1.5057 Y0.6075 I0.2323 J0.1525
G2 X1.4731 Y0.8488 I0.4185 J0.1793
G2 X1.5035 Y1.0451 I1.1643 J-0.0796
G2 X1.5483 Y1.2313 I3.0957 J-0.6472
G1 X1.6779 Y1.7295
G2 X1.7458 Y1.9536 I2.2469 J-0.5577
G2 X1.8397 Y2.1686 I1.1747 J-0.3851
G2 X2.0867 Y2.4355 I0.6705 J-0.373
G2 X2.0907 Y2.4379 I0.0345 J-0.0521
G2 X2.4436 Y2.5382 I0.3875 J-0.6919
G2 X2.4473 Y2.5383 I0.0027 J-0.0624
G2 X2.5836 Y2.5251 I-0.0131 J-0.8462
G2 X2.5868 Y2.5244 I-0.011 J-0.0615
G2 X2.7248 Y2.4698 I-0.1162 J-0.4947
G2 X2.7267 Y2.4686 I-0.0313 J-0.0541
G2 X2.8147 Y2.3955 I-0.2254 J-0.361
G2 X2.8817 Y2.2842 I-0.2371 J-0.2184
G2 X2.9162 Y2.0602 I-0.4197 J-0.1794
G2 X2.8923 Y1.895 I-0.8976 J0.0458
G2 X2.8556 Y1.7406 I-2.438 J0.4979
G1 X2.7315 Y1.2641
G2 X2.6759 Y1.0659 I-4.1825 J1.0673
G2 X2.6067 Y0.8695 I-1.608 J0.4561
G2 X2.4485 Y0.6227 I-0.7802 J0.3259
G2 X2.3792 Y0.5556 I-0.543 J0.4917
G1 X2.5674
G1 X3.1761 Y2.8849
G2 X3.2366 Y2.9316 I0.0605 J-0.0158
G1 X3.7062
G2 X3.7667 Y2.8533 I0.0 J-0.0625
G1 X3.1662 Y0.5556
G1 X3.3755
G2 X3.33 Y0.6366 I0.2528 J0.195
G2 X3.294 Y0.8744 I0.4158 J0.1847
G2 X3.3199 Y1.0502 I1.0463 J-0.0645
G2 X3.3591 Y1.2165 I2.619 J-0.529
G1 X3.5079 Y1.7838
G2 X3.5756 Y1.9999 I1.7155 J-0.4185
G2 X3.6734 Y2.2034 I0.9678 J-0.3398
G2 X3.928 Y2.4508 I0.611 J-0.3742
G2 X3.9311 Y2.4525 I0.0311 J-0.0542
G2 X4.2548 Y2.5382 I0.3685 J-0.7374
G2 X4.2593 Y2.5383 I0.0034 J-0.0624
G2 X4.4235 Y2.5182 I-0.0141 J-0.7947
G2 X4.4274 Y2.5171 I-0.014 J-0.0609
G2 X4.5901 Y2.4279 I-0.1268 J-0.4242
G2 X4.7216 Y2.13 I-0.2403 J-0.284
G2 X4.7032 Y1.8946 I-0.8696 J-0.0506
G2 X4.655 Y1.6744 I-2.0975 J0.3438
G1 X4.5874 Y1.4165
G2 X4.5269 Y1.3699 I-0.0605 J0.0159
G1 X3.9847
G1 X3.8863 Y0.9953
G2 Y0.9951 I-0.0604 J0.0159
G3 X3.8676 Y0.9151 I1.2984 J-0.3457
G2 X3.8674 Y0.9143 I-0.0613 J0.0124
G3 X3.8607 Y0.8763 I0.491 J-0.1058
G2 X3.8602 Y0.8729 I-0.0619 J0.0084
G3 X3.8716 Y0.8848 I-0.0249 J0.0353
G3 X3.9049 Y0.9646 I-0.3061 J0.1745
G2 X3.9057 Y0.9672 I0.0602 J-0.0168
G3 X3.9334 Y1.0642 I-1.2481 J0.409
G2 X3.9336 Y1.0653 I0.0607 J-0.0149
G1 X4.0014 Y1.3221
G2 X4.0618 Y1.3686 I0.0604 J-0.0159
G1 X4.4942
G2 X4.5546 Y1.29 I0.0 J-0.0625
G1 X4.5165 Y1.1475
G2 X4.4241 Y0.8604 I-1.6054 J0.3585
G2 X4.4238 Y0.8597 I-0.0575 J0.0245
G2 X4.3557 Y0.7392 I-0.641 J0.2827
G2 X4.2776 Y0.6375 I-0.9567 J0.6539
G2 X4.1968 Y0.5556 I-0.577 J0.4885
G1 X5.0281
G1 X5.6368 Y2.8849
G2 X5.6972 Y2.9316 I0.0605 J-0.0158
G1 X6.0337
G2 X6.0338 I0.0 J-0.0625
G2 X6.2597 Y2.9267 I-0.0155 J-5.8543
G2 X6.2606 Y2.9266 I-0.0026 J-0.0624
G2 X6.375 Y2.9178 I-0.1422 J-2.5812
G2 X6.3758 Y2.9177 I-0.0062 J-0.0622
G2 X6.4949 Y2.8959 I-0.101 J-0.8905
G2 X6.4998 Y2.8945 I-0.0153 J-0.0606
G2 X6.6894 Y2.6769 I-0.0931 J-0.2725
G2 X6.7043 Y2.5487 I-0.3673 J-0.1075
G2 X6.6864 Y2.3712 I-0.8487 J-0.0042
G2 X6.6496 Y2.2047 I-1.6734 J0.2828
G2 X6.587 Y2.0025 I-1.7918 J0.4438
G2 X6.5453 Y1.9038 I-0.8698 J0.3095
G2 X6.4867 Y1.8088 I-0.4236 J0.1954
G2 X6.4849 Y1.8066 I-0.0489 J0.0389
G2 X6.361 Y1.7126 I-0.2887 J0.2521
G2 X6.3713 Y1.7024 I-0.2031 J-0.2175
G2 X6.4141 Y1.6359 I-0.1375 J-0.1354
G2 X6.4423 Y1.4636 I-0.2842 J-0.1351
G2 X6.4257 Y1.3672 I-0.7128 J0.0734
G2 X6.3616 Y1.1038 I-5.6247 J1.2289
G1 X6.2184 Y0.5556
G1 X6.3202
G2 X6.3028 Y0.6292 I0.1889 J0.0835
G2 X6.3087 Y0.7944 I0.491 J0.0652
G2 X6.3402 Y0.9439 I1.1503 J-0.1643
G1 X6.3817 Y1.1027
G2 X6.4351 Y1.2689 I1.1564 J-0.2798
G2 X6.526 Y1.4263 I0.4557 J-0.1583
G2 X6.529 Y1.4295 I0.0473 J-0.0409
G2 X6.6116 Y1.4971 I0.3717 J-0.3701
G2 X6.6133 Y1.4982 I0.0344 J-0.0522
G2 X6.8512 Y1.6237 I1.0703 J-1.7394
G1 X6.5992
G2 X6.5387 Y1.7019 I0.0 J0.0625
G1 X6.5725 Y1.8321
G2 X6.629 Y2.018 I1.7086 J-0.4181
G2 X6.7102 Y2.1964 I0.8721 J-0.2892
G2 X6.8207 Y2.3348 I0.5412 J-0.3188
G2 X6.8209 Y2.335 I0.0429 J-0.0455
G2 X6.9479 Y2.4343 I0.6308 J-0.676
G2 X6.9496 Y2.4353 I0.0341 J-0.0524
G2 X7.1296 Y2.5144 I0.3906 J-0.6449
G2 X7.1333 Y2.5154 I0.0175 J-0.06
G2 X7.3192 Y2.5383 I0.2075 J-0.9171
G2 X7.3215 I0.0014 J-0.0625
G2 X7.5006 Y2.5186 I-0.013 J-0.944
G2 X7.5043 Y2.5177 I-0.0127 J-0.0612
G2 X7.597 Y2.4825 I-0.1333 J-0.4894
G2 X7.5991 Y2.4813 I-0.0278 J-0.056
G2 X7.6869 Y2.4114 I-0.1565 J-0.2864
G2 X7.7751 Y2.0965 I-0.2394 J-0.2369
G2 X7.747 Y1.9319 I-1.4711 J0.1664
G2 X7.6316 Y1.4544 I-8.1114 J1.708
G1 X7.397 Y0.5556
G1 X7.5837
G2 X7.5188 Y0.7848 I0.2886 J0.2055
G2 X7.5405 Y1.0197 I0.9284 J0.0328
G2 X7.5899 Y1.2402 I2.2507 J-0.3887
G1 X7.7342 Y1.7926
G2 X7.7929 Y1.9903 I2.1093 J-0.5192
G2 X7.8756 Y2.1819 I0.9798 J-0.3094
G2 X7.8761 Y2.1827 I0.0546 J-0.0305
G2 X7.9892 Y2.3259 I0.5439 J-0.3134
G2 X7.9893 Y2.326 I0.0429 J-0.0455
G2 X8.1195 Y2.4283 I0.6539 J-0.6982
G2 X8.1221 Y2.4299 I0.0342 J-0.0523
G2 X8.4811 Y2.5382 I0.4029 J-0.6862
G2 X8.4858 Y2.5383 I0.0034 J-0.0624
G2 X8.6457 Y2.5162 I-0.0147 J-0.6946
G2 X8.6499 Y2.5149 I-0.0157 J-0.0605
G2 X8.8053 Y2.4238 I-0.1405 J-0.4177
G2 X8.8062 Y2.4229 I-0.042 J-0.0463
G2 X8.8949 Y2.2952 I-0.2585 J-0.2742
G2 X8.9286 Y2.1288 I-0.3208 J-0.1515
G2 X8.9058 Y1.9015 I-0.9346 J-0.0212
G2 X8.8574 Y1.6886 I-2.2713 J0.4046
G2 X8.7972 Y1.6428 I-0.0602 J0.0167
G1 X8.3671
G2 X8.3066 Y1.7211 I0.0 J0.0625
G1 X8.3653 Y1.9457
G2 X8.3655 Y1.9462 I0.0605 J-0.0158
G3 X8.3827 Y2.0199 I-1.0474 J0.2837
G2 X8.3836 Y2.0238 I0.0613 J-0.0121
G3 X8.3845 Y2.0274 I-0.2022 J0.0537
G3 X8.375 Y1.9981 I0.2802 J-0.1075
G2 X8.3742 Y1.9953 I-0.0603 J0.0163
G3 X8.3509 Y1.9144 I1.3663 J-0.4367
G2 X8.3508 Y1.914 I-0.0605 J0.0155
G1 X8.1103 Y0.9953
G2 X8.1101 Y0.9944 I-0.0605 J0.0158
G3 X8.0951 Y0.9246 I0.57 J-0.159
G2 X8.0943 Y0.9204 I-0.0618 J0.0094
G3 X8.0904 Y0.8759 I0.165 J-0.037
G3 X8.0966 Y0.8848 I-0.0264 J0.0251
G2 X8.0973 Y0.8862 I0.056 J-0.0277
G3 X8.1322 Y0.9738 I-0.3917 J0.2067
G2 X8.1329 Y0.9761 I0.0602 J-0.0168
G3 X8.162 Y1.0778 I-1.562 J0.5019
G2 X8.1622 Y1.0784 I0.0606 J-0.0152
G1 X8.2231 Y1.3103
G2 X8.2836 Y1.3569 I0.0604 J-0.0159
G1 X8.69
G2 X8.7506 Y1.2794 I0.0 J-0.0625
G2 X8.6439 Y0.9229 I-3.7078 J0.9156
G2 X8.5775 Y0.7839 I-0.6741 J0.2367
G2 X8.4963 Y0.6657 I-0.9242 J0.548
G2 X8.3911 Y0.5556 I-0.623 J0.4898
G1 X8.5683
G1 X9.0641 Y2.4564
G2 X9.1246 Y2.5031 I0.0605 J-0.0158
G1 X9.1292
G2 X9.0958 Y2.5753 I0.027 J0.0564
G1 X9.177 Y2.885
G2 X9.2375 Y2.9316 I0.0605 J-0.0159
G1 X9.7071
G2 X9.7676 Y2.8532 I0.0 J-0.0625
G1 X9.6863 Y2.5436
G2 X9.6258 Y2.497 I-0.0605 J0.0159
G1 X9.6212
G2 X9.6547 Y2.4248 I-0.027 J-0.0564
G1 X9.1671 Y0.5556
G1 X9.2016
G1 X9.6974 Y2.4564
G2 X9.7579 Y2.5031 I0.0605 J-0.0158
G1 X10.2219
G2 X10.2806 Y2.4622 I0.0 J-0.0625
G2 X10.2962 Y2.4731 I0.4126 J-0.5712
G2 X10.3002 Y2.4756 I0.0352 J-0.0516
G2 X10.5069 Y2.5382 I0.2372 J-0.4112
G2 X10.5122 Y2.5383 I0.004 J-0.0624
G2 X10.6201 Y2.5217 I-0.0088 J-0.4172
G2 X10.6246 Y2.5202 I-0.0175 J-0.06
G2 X10.7314 Y2.4442 I-0.0895 J-0.2387
G2 X10.7942 Y2.2138 I-0.2106 J-0.1812
G2 X10.7631 Y2.0234 I-1.142 J0.0889
G2 X10.7192 Y1.8419 I-3.6517 J0.7878
G1 X10.383 Y0.5556
G1 X10.4006
G2 X10.4202 Y0.6476 I0.7937 J-0.1209
G2 X10.4804 Y0.6936 I0.0603 J-0.0166
G1 X10.6693
G2 X10.6151 Y0.7335 I0.1487 J0.2584
G2 X10.615 Y0.7336 I0.0425 J0.0458
G2 X10.5308 Y0.95 I0.1828 J0.1958
G2 X10.5472 Y1.1126 I0.6831 J0.0128
G2 X10.5815 Y1.2637 I1.6312 J-0.2903
G1 X10.5945 Y1.3132
G0 Z0.125
G0 X11.1484 Y1.19
G1 F10.0 Z-0.375
G2 F30.0 X11.1639 Y1.2533 I1.4679 J-0.3264
G3 X11.164 Y1.2536 I-0.0604 J0.0162
G1 X11.3356 Y1.9081
G3 X11.3359 Y1.9092 I-0.0605 J0.0158
G2 X11.3589 Y1.9895 I1.0059 J-0.2455
G3 X11.3598 Y1.9924 I-0.0593 J0.0197
G2 X11.3733 Y2.0293 I0.2445 J-0.068
G2 X11.372 Y2.0247 I-0.2613 J0.0683
G3 X11.3711 Y2.0211 I0.0602 J-0.0169
G2 X11.3514 Y1.9403 I-1.6261 J0.3533
G3 X11.3513 Y1.9398 I0.0603 J-0.0163
G1 X11.1933 Y1.3367
G3 X11.1931 Y1.336 I0.0605 J-0.0158
G2 X11.1638 Y1.2302 I-2.211 J0.5554
G3 X11.1631 Y1.2278 I0.0598 J-0.0181
G2 X11.1439 Y1.1694 I-0.4637 J0.1203
G3 X11.1447 Y1.1728 I-0.0603 J0.0163
G2 X11.1484 Y1.19 I1.4716 J-0.3093
G0 Z0.125
G0 X11.0361 Y0.7045
G1 F10.0 Z-0.375
G2 F30.0 X11.0171 Y0.6412 I-1.032 J0.2742
G3 X11.0162 Y0.6381 I0.0593 J-0.0198
G2 X10.9906 Y0.5782 I-0.2366 J0.0655
G2 X10.9751 Y0.5675 I-0.0316 J0.0292
G2 X10.9822 Y0.6112 I0.1372 J0.0001
G3 X10.9674 Y0.675 I-0.0593 J0.0199
G3 X11.0137 Y0.6928 I-0.1492 J0.4595
G3 X11.017 Y0.6944 I-0.0253 J0.0571
G3 X11.0361 Y0.7045 I-0.3596 J0.698
G0 Z0.125
G0 X9.9132 Y0.9977
G1 F10.0 Z-0.375
G1 F30.0 X9.7977 Y0.5556
G1 X9.7869
G1 X10.1097 Y1.7938
G3 Y1.794 I-0.0605 J0.0158
G2 X10.1468 Y1.9292 I4.1082 J-1.0526
G3 X10.1474 Y1.9314 I-0.06 J0.0175
G2 X10.1787 Y2.0278 I0.7367 J-0.1862
G2 X10.1675 Y1.9776 I-1.6161 J0.3347
G3 X10.1674 Y1.9773 I0.0608 J-0.0146
G2 X10.1377 Y1.8577 I-4.2778 J0.9974
G3 Y1.8576 I0.0604 J-0.0159
G1 X9.9132 Y0.9977
G0 Z0.125
G0 X7.148 Y1.8472
G1 F10.0 Z-0.375
G2 F30.0 X7.1399 Y1.822 I-0.9462 J0.2907
G3 X7.139 Y1.819 I0.0592 J-0.0199
G2 X7.1144 Y1.7618 I-0.2284 J0.0642
G2 X7.1103 Y1.7577 I-0.0567 J0.0537
G1 X7.1406 Y1.8745
G3 X7.1407 Y1.8747 I-0.0605 J0.0157
G2 X7.1685 Y1.9748 I2.5647 J-0.6596
G3 X7.1692 Y1.9773 I-0.0599 J0.0179
G2 X7.1947 Y2.0509 I0.4556 J-0.1164
G2 X7.1937 Y2.045 I-0.1097 J0.0155
G3 X7.1931 Y2.0412 I0.0613 J-0.012
G2 X7.1853 Y1.9963 I-0.5591 J0.0739
G3 X7.1851 Y1.9955 I0.0611 J-0.0132
G2 X7.1632 Y1.9021 I-1.4501 J0.2914
G3 X7.1628 Y1.9008 I0.0603 J-0.0163
G2 X7.148 Y1.8472 I-0.961 J0.2371
G0 Z0.125
G0 X6.9829 Y1.2126
G1 F10.0 Z-0.375
G1 F30.0 X6.9362 Y1.0343
G3 X6.936 Y1.0338 I0.0605 J-0.0158
G2 X6.9107 Y0.9436 I-1.7351 J0.4392
G3 X6.9098 Y0.9406 I0.0597 J-0.0185
G2 X6.8866 Y0.8776 I-0.3147 J0.0804
G2 X6.8878 Y0.8842 I0.1299 J-0.0203
G3 X6.8884 Y0.8876 I-0.0612 J0.0128
G2 X6.8968 Y0.9323 I0.6486 J-0.0986
G3 X6.8969 Y0.933 I-0.061 J0.0137
G2 X6.9192 Y1.0257 I1.6789 J-0.3552
G3 X6.92 Y1.029 I-0.0603 J0.0163
G2 X6.9829 Y1.2126 I0.7876 J-0.167
G0 Z0.125
G0 X6.8724 Y0.4306
G1 F10.0 Z-0.375
G1 F30.0 X7.3161
G0 Z0.125
G0 X5.7231 Y0.8451
G1 F10.0 Z-0.375
G1 F30.0 X5.6478 Y0.5556
G1 X5.6325
G1 X5.8785 Y1.4968
G2 X5.881 Y1.4959 I-0.0255 J-0.0788
G2 X5.879 Y1.4715 I-0.0901 J-0.0048
G3 X5.878 Y1.466 I0.061 J-0.0136
G2 X5.8685 Y1.412 I-0.6103 J0.0795
G3 X5.8683 Y1.4111 I0.061 J-0.0136
G2 X5.8413 Y1.2994 I-1.6745 J0.3452
G3 X5.8411 Y1.2984 I0.0602 J-0.0167
G1 X5.7231 Y0.8451
G0 Z0.125
G0 X6.0141 Y2.0177
G1 F10.0 Z-0.375
G1 F30.0 X6.1131 Y2.3945
G2 X6.1167 Y2.3925 I-0.0103 J-0.0225
G3 X6.1168 Y2.3874 I0.0625 J-0.0018
G2 X6.1154 Y2.3621 I-0.1208 J-0.0063
G3 X6.1151 Y2.3598 I0.0617 J-0.0098
G2 X6.1023 Y2.2964 I-0.4036 J0.0486
G3 X6.1018 Y2.2948 I0.0601 J-0.0172
G1 X6.068 Y2.1642
G3 X6.0674 Y2.162 I0.0605 J-0.0157
G2 X6.0206 Y2.0288 I-0.5682 J0.1251
G3 X6.0199 Y2.0273 I0.056 J-0.0277
G2 X6.0141 Y2.0177 I-0.0477 J0.0221
G0 Z0.125
G0 X4.1538 Y2.0091
G1 F10.0 Z-0.375
G2 F30.0 X4.1526 Y2.0044 I-0.3492 J0.091
G3 X4.1518 Y2.0012 I0.0603 J-0.0166
G2 X4.129 Y1.908 I-1.9696 J0.4308
G3 X4.1289 Y1.9075 I0.0604 J-0.0162
G1 X4.1039 Y1.8119
G1 X4.0999
G1 X4.1166 Y1.8759
G3 X4.1167 Y1.8763 I-0.0605 J0.0158
G2 X4.1444 Y1.9764 I2.4829 J-0.632
G3 X4.1451 Y1.9791 I-0.0599 J0.0179
G2 X4.1538 Y2.0091 I0.4269 J-0.1072
G0 Z0.125
G0 X2.3384 Y2.0055
G1 F10.0 Z-0.375
G2 F30.0 X2.3172 Y1.9198 I-1.9744 J0.4444
G3 X2.317 Y1.9193 I0.0603 J-0.0164
G1 X2.0822 Y1.0211
G3 X2.082 Y1.0204 I0.0605 J-0.0158
G2 X2.0591 Y0.9397 I-1.2619 J0.3147
G3 X2.0583 Y0.9369 I0.0595 J-0.019
G2 X2.0566 Y0.9308 I-0.2754 J0.0739
G2 X2.0754 Y1.008 I1.5612 J-0.3401
G3 X2.0756 Y1.0086 I-0.0603 J0.0163
G1 X2.3047 Y1.8877
G3 X2.3048 Y1.888 I-0.0605 J0.0158
G2 X2.3313 Y1.9812 I1.7962 J-0.4593
G3 X2.3321 Y1.984 I-0.0597 J0.0186
G2 X2.3384 Y2.0055 I0.3419 J-0.0892
G0 Z0.125
G0 X2.0242 Y2.3894
G1 F10.0 Z-0.375
G2 F30.0 X2.0867 Y2.4355 I0.486 J-0.5937
G2 X2.0907 Y2.4379 I0.0345 J-0.0521
G2 X2.4436 Y2.5382 I0.3875 J-0.6919
G2 X2.4473 Y2.5383 I0.0027 J-0.0624
G2 X2.5836 Y2.5251 I-0.0131 J-0.8462
G2 X2.5868 Y2.5244 I-0.011 J-0.0615
G2 X2.7248 Y2.4698 I-0.1162 J-0.4947
G2 X2.7267 Y2.4686 I-0.0313 J-0.0541
G2 X2.8147 Y2.3955 I-0.2254 J-0.361
G2 X2.8817 Y2.2842 I-0.2371 J-0.2184
G2 X2.9162 Y2.0602 I-0.4197 J-0.1794
G2 X2.8923 Y1.895 I-0.8976 J0.0458
G2 X2.8556 Y1.7406 I-2.438 J0.4979
G1 X2.7315 Y1.2641
G2 X2.6759 Y1.0659 I-4.1825 J1.0673
G2 X2.6067 Y0.8695 I-1.608 J0.4561
G2 X2.4485 Y0.6227 I-0.7802 J0.3259
G2 X2.3792 Y0.5556 I-0.543 J0.4917
G1 X2.5674
G1 X3.1761 Y2.8849
G2 X3.2366 Y2.9316 I0.0605 J-0.0158
G1 X3.7062
G2 X3.7667 Y2.8533 I0.0 J-0.0625
G1 X3.1662 Y0.5556
G1 X3.3755
G2 X3.33 Y0.6366 I0.2528 J0.195
G2 X3.294 Y0.8744 I0.4158 J0.1847
G2 X3.3199 Y1.0502 I1.0463 J-0.0645
G2 X3.3591 Y1.2165 I2.619 J-0.529
G1 X3.5079 Y1.7838
G2 X3.5756 Y1.9999 I1.7155 J-0.4185
G2 X3.6734 Y2.2034 I0.9678 J-0.3398
G2 X3.928 Y2.4508 I0.611 J-0.3742
G2 X3.9311 Y2.4525 I0.0311 J-0.0542
G2 X4.2548 Y2.5382 I0.3685 J-0.7374
G2 X4.2593 Y2.5383 I0.0034 J-0.0624
G2 X4.4235 Y2.5182 I-0.0141 J-0.7947
G2 X4.4274 Y2.5171 I-0.014 J-0.0609
G2 X4.5901 Y2.4279 I-0.1268 J-0.4242
G2 X4.7216 Y2.13 I-0.2403 J-0.284
G2 X4.7032 Y1.8946 I-0.8696 J-0.0506
G2 X4.655 Y1.6744 I-2.0975 J0.3438
G1 X4.5874 Y1.4165
G2 X4.5269 Y1.3699 I-0.0605 J0.0159
G1 X3.9847
G1 X3.8863 Y0.9953
G2 Y0.9951 I-0.0604 J0.0159
G3 X3.8676 Y0.9151 I1.2984 J-0.3457
G2 X3.8674 Y0.9143 I-0.0613 J0.0124
G3 X3.8607 Y0.8763 I0.491 J-0.1058
G2 X3.8602 Y0.8729 I-0.0619 J0.0084
G3 X3.8716 Y0.8848 I-0.0249 J0.0353
G3 X3.9049 Y0.9646 I-0.3061 J0.1745
G2 X3.9057 Y0.9672 I0.0602 J-0.0168
G3 X3.9334 Y1.0642 I-1.2481 J0.409
G2 X3.9336 Y1.0653 I0.0607 J-0.0149
G1 X4.0014 Y1.3221
G2 X4.0618 Y1.3686 I0.0604 J-0.0159
G1 X4.4942
G2 X4.5546 Y1.29 I0.0 J-0.0625
G1 X4.5165 Y1.1475
G2 X4.4241 Y0.8604 I-1.6054 J0.3585
G2 X4.4238 Y0.8597 I-0.0575 J0.0245
G2 X4.3557 Y0.7392 I-0.641 J0.2827
G2 X4.2776 Y0.6375 I-0.9567 J0.6539
G2 X4.1968 Y0.5556 I-0.577 J0.4885
G1 X5.0281
G1 X5.6368 Y2.8849
G2 X5.6972 Y2.9316 I0.0605 J-0.0158
G1 X6.0337
G2 X6.0338 I0.0 J-0.0625
G2 X6.2597 Y2.9267 I-0.0155 J-5.8543
G2 X6.2606 Y2.9266 I-0.0026 J-0.0624
G2 X6.375 Y2.9178 I-0.1422 J-2.5812
G2 X6.3758 Y2.9177 I-0.0062 J-0.0622
G2 X6.4949 Y2.8959 I-0.101 J-0.8905
G2 X6.4998 Y2.8945 I-0.0153 J-0.0606
G2 X6.6894 Y2.6769 I-0.0931 J-0.2725
G2 X6.7043 Y2.5487 I-0.3673 J-0.1075
G2 X6.6864 Y2.3712 I-0.8487 J-0.0042
G2 X6.6496 Y2.2047 I-1.6734 J0.2828
G2 X6.587 Y2.0025 I-1.7918 J0.4438
G2 X6.5453 Y1.9038 I-0.8698 J0.3095
G2 X6.4867 Y1.8088 I-0.4236 J0.1954
G2 X6.4849 Y1.8066 I-0.0489 J0.0389
G2 X6.361 Y1.7126 I-0.2887 J0.2521
G2 X6.3713 Y1.7024 I-0.2031 J-0.2175
G2 X6.4141 Y1.6359 I-0.1375 J-0.1354
G2 X6.4423 Y1.4636 I-0.2842 J-0.1351
G2 X6.4257 Y1.3672 I-0.7128 J0.0734
G2 X6.3616 Y1.1038 I-5.6247 J1.2289
G1 X6.2184 Y0.5556
G1 X6.3202
G2 X6.3028 Y0.6292 I0.1889 J0.0835
G2 X6.3087 Y0.7944 I0.491 J0.0652
G2 X6.3402 Y0.9439 I1.1503 J-0.1643
G1 X6.3817 Y1.1027
G2 X6.4351 Y1.2689 I1.1564 J-0.2798
G2 X6.526 Y1.4263 I0.4557 J-0.1583
G2 X6.529 Y1.4295 I0.0473 J-0.0409
G2 X6.6116 Y1.4971 I0.3717 J-0.3701
G2 X6.6133 Y1.4982 I0.0344 J-0.0522
G2 X6.8512 Y1.6237 I1.0703 J-1.7394
G1 X6.5992
G2 X6.5387 Y1.7019 I0.0 J0.0625
G1 X6.5725 Y1.8321
G2 X6.629 Y2.018 I1.7086 J-0.4181
G2 X6.7102 Y2.1964 I0.8721 J-0.2892
G2 X6.8207 Y2.3348 I0.5412 J-0.3188
G2 X6.8209 Y2.335 I0.0429 J-0.0455
G2 X6.9479 Y2.4343 I0.6308 J-0.676
G2 X6.9496 Y2.4353 I0.0341 J-0.0524
G2 X7.1296 Y2.5144 I0.3906 J-0.6449
G2 X7.1333 Y2.5154 I0.0175 J-0.06
G2 X7.3192 Y2.5383 I0.2075 J-0.9171
G2 X7.3215 I0.0014 J-0.0625
G2 X7.5006 Y2.5186 I-0.013 J-0.944
G2 X7.5043 Y2.5177 I-0.0127 J-0.0612
G2 X7.597 Y2.4825 I-0.1333 J-0.4894
G2 X7.5991 Y2.4813 I-0.0278 J-0.056
G2 X7.6869 Y2.4114 I-0.1565 J-0.2864
G2 X7.7751 Y2.0965 I-0.2394 J-0.2369
G2 X7.747 Y1.9319 I-1.4711 J0.1664
G2 X7.6316 Y1.4544 I-8.1114 J1.708
G1 X7.397 Y0.5556
G1 X7.5837
G2 X7.5188 Y0.7848 I0.2886 J0.2055
G2 X7.5405 Y1.0197 I0.9284 J0.0328
G2 X7.5899 Y1.2402 I2.2507 J-0.3887
G1 X7.7342 Y1.7926
G2 X7.7929 Y1.9903 I2.1093 J-0.5192
G2 X7.8756 Y2.1819 I0.9798 J-0.3094
G2 X7.8761 Y2.1827 I0.0546 J-0.0305
G2 X7.9892 Y2.3259 I0.5439 J-0.3134
G2 X7.9893 Y2.326 I0.0429 J-0.0455
G2 X8.1195 Y2.4283 I0.6539 J-0.6982
G2 X8.1221 Y2.4299 I0.0342 J-0.0523
G2 X8.4811 Y2.5382 I0.4029 J-0.6862
G2 X8.4858 Y2.5383 I0.0034 J-0.0624
G2 X8.6457 Y2.5162 I-0.0147 J-0.6946
G2 X8.6499 Y2.5149 I-0.0157 J-0.0605
G2 X8.8053 Y2.4238 I-0.1405 J-0.4177
G2 X8.8062 Y2.4229 I-0.042 J-0.0463
G2 X8.8949 Y2.2952 I-0.2585 J-0.2742
G2 X8.9286 Y2.1288 I-0.3208 J-0.1515
G2 X8.9058 Y1.9015 I-0.9346 J-0.0212
G2 X8.8574 Y1.6886 I-2.2713 J0.4046
G2 X8.7972 Y1.6428 I-0.0602 J0.0167
G1 X8.3671
G2 X8.3066 Y1.7211 I0.0 J0.0625
G1 X8.3653 Y1.9457
G2 X8.3655 Y1.9462 I0.0605 J-0.0158
G3 X8.3827 Y2.0199 I-1.0474 J0.2837
G2 X8.3836 Y2.0238 I0.0613 J-0.0121
G3 X8.3845 Y2.0274 I-0.2022 J0.0537
G3 X8.375 Y1.9981 I0.2802 J-0.1075
G2 X8.3742 Y1.9953 I-0.0603 J0.0163
G3 X8.3509 Y1.9144 I1.3663 J-0.4367
G2 X8.3508 Y1.914 I-0.0605 J0.0155
G1 X8.1103 Y0.9953
G2 X8.1101 Y0.9944 I-0.0605 J0.0158
G3 X8.0951 Y0.9246 I0.57 J-0.159
G2 X8.0943 Y0.9204 I-0.0618 J0.0094
G3 X8.0904 Y0.8759 I0.165 J-0.037
G3 X8.0966 Y0.8848 I-0.0264 J0.0251
G2 X8.0973 Y0.8862 I0.056 J-0.0277
G3 X8.1322 Y0.9738 I-0.3917 J0.2067
G2 X8.1329 Y0.9761 I0.0602 J-0.0168
G3 X8.162 Y1.0778 I-1.562 J0.5019
G2 X8.1622 Y1.0784 I0.0606 J-0.0152
G1 X8.2231 Y1.3103
G2 X8.2836 Y1.3569 I0.0604 J-0.0159
G1 X8.69
G2 X8.7506 Y1.2794 I0.0 J-0.0625
G2 X8.6439 Y0.9229 I-3.7078 J0.9156
G2 X8.5775 Y0.7839 I-0.6741 J0.2367
G2 X8.4963 Y0.6657 I-0.9242 J0.548
G2 X8.3911 Y0.5556 I-0.623 J0.4898
G1 X8.5683
G1 X9.0641 Y2.4564
G2 X9.1246 Y2.5031 I0.0605 J-0.0158
G1 X9.1292
G2 X9.0958 Y2.5753 I0.027 J0.0564
G1 X9.177 Y2.885
G2 X9.2375 Y2.9316 I0.0605 J-0.0159
G1 X9.7071
G2 X9.7676 Y2.8532 I0.0 J-0.0625
G1 X9.6863 Y2.5436
G2 X9.6258 Y2.497 I-0.0605 J0.0159
G1 X9.6212
G2 X9.6547 Y2.4248 I-0.027 J-0.0564
G1 X9.1671 Y0.5556
G1 X9.2016
G1 X9.6974 Y2.4564
G2 X9.7579 Y2.5031 I0.0605 J-0.0158
G1 X10.2219
G2 X10.2806 Y2.4622 I0.0 J-0.0625
G2 X10.2962 Y2.4731 I0.4126 J-0.5712
G2 X10.3002 Y2.4756 I0.0352 J-0.0516
G2 X10.5069 Y2.5382 I0.2372 J-0.4112
G2 X10.5122 Y2.5383 I0.004 J-0.0624
G2 X10.6201 Y2.5217 I-0.0088 J-0.4172
G2 X10.6246 Y2.5202 I-0.0175 J-0.06
G2 X10.7314 Y2.4442 I-0.0895 J-0.2387
G2 X10.7942 Y2.2138 I-0.2106 J-0.1812
G2 X10.7631 Y2.0234 I-1.142 J0.0889
G2 X10.7192 Y1.8419 I-3.6517 J0.7878
G1 X10.383 Y0.5556
G1 X10.4006
G2 X10.4202 Y0.6476 I0.7937 J-0.1209
G2 X10.4804 Y0.6936 I0.0603 J-0.0166
G1 X10.6693
G2 X10.6151 Y0.7335 I0.1487 J0.2584
G2 X10.615 Y0.7336 I0.0425 J0.0458
G2 X10.5308 Y0.95 I0.1828 J0.1958
G2 X10.5472 Y1.1126 I0.6831 J0.0128
G2 X10.5815 Y1.2637 I1.6312 J-0.2903
G1 X10.7663 Y1.9699
G2 X10.8398 Y2.1927 I1.3269 J-0.3141
G2 X10.9603 Y2.3948 I0.6327 J-0.2402
G2 X10.9631 Y2.3978 I0.0473 J-0.0408
G2 X11.27 Y2.5382 I0.3374 J-0.3322
G2 X11.2764 Y2.5383 I0.004 J-0.0624
G2 X11.4534 Y2.4807 I-0.0128 J-0.3404
G2 X11.4576 Y2.4777 I-0.0348 J-0.0519
G2 X11.5049 Y2.431 I-0.202 J-0.2527
G1 X11.5225 Y2.4676
G2 X11.5788 Y2.5031 I0.0563 J-0.027
G1 X12.0033
G2 X12.0638 Y2.4248 I0.0 J-0.0625
G1 X11.6721 Y0.925
G2 X11.6189 Y0.7262 I-9.9262 J2.5503
G2 X11.5576 Y0.5265 I-2.2975 J0.5956
G2 X11.5571 Y0.5251 I-0.0589 J0.0209
G2 X11.4937 Y0.4095 I-0.4555 J0.1744
G2 X11.4189 Y0.3182 I-0.7024 J0.4995
G2 X11.4182 Y0.3175 I-0.0455 J0.0428
G2 X11.1749 Y0.1521 I-0.5222 J0.5067
G2 X11.1728 Y0.1513 I-0.024 J0.0577
G2 X11.0099 Y0.107 I-0.3255 J0.8752
G2 X11.0074 Y0.1066 I-0.0109 J0.0615
G2 X10.8448 Y0.0945 I-0.1808 J1.3352
G2 X10.8436 I-0.0008 J0.0625
G2 X10.7297 Y0.1019 I0.0057 J0.9762
G1 X0.1806
G2 X0.1181 Y0.1644 I0.0 J0.0625
G1 Y0.4931
G2 X0.1806 Y0.5556 I0.0625 J0.0
G1 X0.2878
G2 X0.2175 Y0.8174 I0.2845 J0.2167
G2 X0.2293 Y0.9565 I0.9345 J-0.0095
G2 X0.3134 Y1.3535 I2.8123 J-0.3879
G1 X0.4949 Y2.0467
G2 X0.5482 Y2.2424 I5.7532 J-1.4627
G2 X0.6107 Y2.437 I2.3219 J-0.6382
G2 X0.7677 Y2.7045 I0.7863 J-0.2818
G2 X1.0212 Y2.9056 I0.6377 J-0.5435
G2 X1.0244 Y2.9071 I0.0287 J-0.0555
G2 X1.3383 Y2.9814 I0.3537 J-0.7937
G2 X1.3423 Y2.9815 I0.0029 J-0.0624
G2 X1.5209 Y2.9593 I-0.0154 J-0.8533
G2 X1.5248 Y2.9583 I-0.0142 J-0.0609
G2 X1.7008 Y2.8603 I-0.1376 J-0.4542
G2 X1.702 Y2.8591 I-0.0413 J-0.0469
G2 X1.7968 Y2.7251 I-0.2721 J-0.2928
G2 X1.8327 Y2.5481 I-0.3267 J-0.1584
G2 X1.8234 Y2.4146 I-0.7705 J-0.0137
G2 X1.7457 Y2.0424 I-2.506 J0.3289
G1 X1.6872 Y1.8187
G2 X1.6268 Y1.772 I-0.0605 J0.0158
G1 X1.1515
G2 X1.091 Y1.8504 I0.0 J0.0625
G1 X1.1994 Y2.2627
G1 Y2.2628
G3 X1.2253 Y2.3707 I-2.3983 J0.6322
G2 X1.2254 Y2.3713 I0.0611 J-0.0132
G3 X1.2358 Y2.424 I-0.9052 J0.2049
G2 X1.2364 Y2.4274 I0.0617 J-0.0102
G3 X1.2401 Y2.4527 I-0.1593 J0.0358
G3 X1.2132 Y2.4326 I0.0131 J-0.0456
G3 X1.1756 Y2.3317 I0.5059 J-0.2457
G2 X1.175 Y2.3294 I-0.0604 J0.0161
G3 X1.1421 Y2.2123 I2.383 J-0.7332
G2 X1.142 Y2.212 I-0.0606 J0.0154
G1 X0.8541 Y1.1084
G2 X0.854 Y1.1079 I-0.0605 J0.0158
G3 X0.8277 Y0.9996 I2.1824 J-0.5867
G2 X0.8269 Y0.9964 I-0.0611 J0.0132
G3 X0.8127 Y0.9097 I0.4143 J-0.1126
G3 X0.8358 Y0.9281 I-0.0133 J0.0405
G3 X0.8761 Y1.035 I-0.4787 J0.2415
G2 X0.8768 Y1.0375 I0.0605 J-0.0157
G3 X0.9114 Y1.1615 I-2.489 J0.7612
G2 X0.9115 Y1.1619 I0.0606 J-0.0153
G1 X0.9894 Y1.4613
G2 X1.0499 Y1.5081 I0.0605 J-0.0157
G1 X1.5252
G2 X1.5858 Y1.4303 I0.0 J-0.0625
G1 X1.562 Y1.3363
G2 X1.4839 Y1.0656 I-4.2148 J1.0699
G2 X1.38 Y0.8011 I-1.486 J0.4309
G2 X1.3798 Y0.8005 I-0.0558 J0.0281
G2 X1.2573 Y0.6309 I-0.6269 J0.3234
G2 X1.175 Y0.5556 I-0.7187 J0.7036
G1 X1.5324
G2 X1.5057 Y0.6075 I0.2323 J0.1525
G2 X1.4731 Y0.8488 I0.4185 J0.1793
G2 X1.5035 Y1.0451 I1.1643 J-0.0796
G2 X1.5483 Y1.2313 I3.0957 J-0.6472
G1 X1.6779 Y1.7295
G2 X1.7458 Y1.9536 I2.2469 J-0.5577
G2 X1.8397 Y2.1686 I1.1747 J-0.3851
G2 X2.0242 Y2.3894 I0.6705 J-0.373
G0 Z0.125
G0 X2.3384 Y2.0055
G1 F10.0 Z-0.5
G2 F30.0 X2.3172 Y1.9198 I-1.9744 J0.4444
G3 X2.317 Y1.9193 I0.0603 J-0.0164
G1 X2.0822 Y1.0211
G3 X2.082 Y1.0204 I0.0605 J-0.0158
G2 X2.0591 Y0.9397 I-1.2619 J0.3147
G3 X2.0583 Y0.9369 I0.0595 J-0.019
G2 X2.0566 Y0.9308 I-0.2754 J0.0739
G2 X2.0754 Y1.008 I1.5612 J-0.3401
G3 X2.0756 Y1.0086 I-0.0603 J0.0163
G1 X2.3047 Y1.8877
G3 X2.3048 Y1.888 I-0.0605 J0.0158
G2 X2.3313 Y1.9812 I1.7962 J-0.4593
G3 X2.3321 Y1.984 I-0.0597 J0.0186
G2 X2.3384 Y2.0055 I0.3419 J-0.0892
G0 Z0.125
G0 X4.0999 Y1.8119
G1 F10.0 Z-0.5
G1 F30.0 X4.1166 Y1.8759
G3 X4.1167 Y1.8763 I-0.0605 J0.0158
G2 X4.1444 Y1.9764 I2.4829 J-0.632
G3 X4.1451 Y1.9791 I-0.0599 J0.0179
G2 X4.1538 Y2.0091 I0.4269 J-0.1072
G2 X4.1526 Y2.0044 I-0.3492 J0.091
G3 X4.1518 Y2.0012 I0.0603 J-0.0166
G2 X4.129 Y1.908 I-1.9696 J0.4308
G3 X4.1289 Y1.9075 I0.0604 J-0.0162
G1 X4.1039 Y1.8119
G1 X4.0999
G0 Z0.125
G0 X5.8419 Y1.3566
G1 F10.0 Z-0.5
G1 F30.0 X5.8785 Y1.4968
G2 X5.881 Y1.4959 I-0.0255 J-0.0788
G2 X5.879 Y1.4715 I-0.0901 J-0.0048
G3 X5.878 Y1.466 I0.061 J-0.0136
G2 X5.8685 Y1.412 I-0.6103 J0.0795
G3 X5.8683 Y1.4111 I0.061 J-0.0136
G2 X5.8413 Y1.2994 I-1.6745 J0.3452
G3 X5.8411 Y1.2984 I0.0602 J-0.0167
G1 X5.6478 Y0.5556
G1 X5.6325
G1 X5.8419 Y1.3566
G0 Z0.125
G0 X6.0141 Y2.0177
G1 F10.0 Z-0.5
G1 F30.0 X6.1131 Y2.3945
G2 X6.1167 Y2.3925 I-0.0103 J-0.0225
G3 X6.1168 Y2.3874 I0.0625 J-0.0018
G2 X6.1154 Y2.3621 I-0.1208 J-0.0063
G3 X6.1151 Y2.3598 I0.0617 J-0.0098
G2 X6.1023 Y2.2964 I-0.4036 J0.0486
G3 X6.1018 Y2.2948 I0.0601 J-0.0172
G1 X6.068 Y2.1642
G3 X6.0674 Y2.162 I0.0605 J-0.0157
G2 X6.0206 Y2.0288 I-0.5682 J0.1251
G3 X6.0199 Y2.0273 I0.056 J-0.0277
G2 X6.0141 Y2.0177 I-0.0477 J0.0221
G0 Z0.125
G0 X7.1103 Y1.7577
G1 F10.0 Z-0.5
G1 F30.0 X7.1406 Y1.8745
G3 X7.1407 Y1.8747 I-0.0605 J0.0157
G2 X7.1685 Y1.9748 I2.5647 J-0.6596
G3 X7.1692 Y1.9773 I-0.0599 J0.0179
G2 X7.1947 Y2.0509 I0.4556 J-0.1164
G2 X7.1937 Y2.045 I-0.1097 J0.0155
G3 X7.1931 Y2.0412 I0.0613 J-0.012
G2 X7.1853 Y1.9963 I-0.5591 J0.0739
G3 X7.1851 Y1.9955 I0.0611 J-0.0132
G2 X7.1632 Y1.9021 I-1.4501 J0.2914
G3 X7.1628 Y1.9008 I0.0603 J-0.0163
G2 X7.1399 Y1.822 I-0.961 J0.2371
G3 X7.139 Y1.819 I0.0592 J-0.0199
G2 X7.1144 Y1.7618 I-0.2284 J0.0642
G2 X7.1103 Y1.7577 I-0.0567 J0.0537
G0 Z0.125
G0 X6.9829 Y1.2126
G1 F10.0 Z-0.5
G1 F30.0 X6.9362 Y1.0343
G3 X6.936 Y1.0338 I0.0605 J-0.0158
G2 X6.9107 Y0.9436 I-1.7351 J0.4392
G3 X6.9098 Y0.9406 I0.0597 J-0.0185
G2 X6.8866 Y0.8776 I-0.3147 J0.0804
G2 X6.8878 Y0.8842 I0.1299 J-0.0203
G3 X6.8884 Y0.8876 I-0.0612 J0.0128
G2 X6.8968 Y0.9323 I0.6486 J-0.0986
G3 X6.8969 Y0.933 I-0.061 J0.0137
G2 X6.9192 Y1.0257 I1.6789 J-0.3552
G3 X6.92 Y1.029 I-0.0603 J0.0163
G2 X6.9829 Y1.2126 I0.7876 J-0.167
G0 Z0.125
G0 X6.8724 Y0.4306
G1 F10.0 Z-0.5
G1 F30.0 X7.3161
G0 Z0.125
G0 X9.7869 Y0.5556
G1 F10.0 Z-0.5
G1 F30.0 X10.1097 Y1.7938
G3 Y1.794 I-0.0605 J0.0158
G2 X10.1468 Y1.9292 I4.1082 J-1.0526
G3 X10.1474 Y1.9314 I-0.06 J0.0175
G2 X10.1787 Y2.0278 I0.7367 J-0.1862
G2 X10.1675 Y1.9776 I-1.6161 J0.3347
G3 X10.1674 Y1.9773 I0.0608 J-0.0146
G2 X10.1377 Y1.8577 I-4.2778 J0.9974
G3 Y1.8576 I0.0604 J-0.0159
G1 X9.7977 Y0.5556
G1 X9.7869
G0 Z0.125
G0 X10.9674 Y0.675
G1 F10.0 Z-0.5
G3 F30.0 X11.0137 Y0.6928 I-0.1492 J0.4595
G3 X11.017 Y0.6944 I-0.0253 J0.0571
G3 X11.0361 Y0.7045 I-0.3596 J0.698
G2 X11.0171 Y0.6412 I-1.032 J0.2742
G3 X11.0162 Y0.6381 I0.0593 J-0.0198
G2 X10.9906 Y0.5782 I-0.2366 J0.0655
G2 X10.9751 Y0.5675 I-0.0316 J0.0292
G2 X10.9822 Y0.6112 I0.1372 J0.0001
G3 X10.9674 Y0.675 I-0.0593 J0.0199
G0 Z0.125
G0 X11.1439 Y1.1694
G1 F10.0 Z-0.5
G3 F30.0 X11.1447 Y1.1728 I-0.0603 J0.0163
G2 X11.1639 Y1.2533 I1.4716 J-0.3093
G3 X11.164 Y1.2536 I-0.0604 J0.0162
G1 X11.3356 Y1.9081
G3 X11.3359 Y1.9092 I-0.0605 J0.0158
G2 X11.3589 Y1.9895 I1.0059 J-0.2455
G3 X11.3598 Y1.9924 I-0.0593 J0.0197
G2 X11.3733 Y2.0293 I0.2445 J-0.068
G2 X11.372 Y2.0247 I-0.2613 J0.0683
G3 X11.3711 Y2.0211 I0.0602 J-0.0169
G2 X11.3514 Y1.9403 I-1.6261 J0.3533
G3 X11.3513 Y1.9398 I0.0603 J-0.0163
G1 X11.1933 Y1.3367
G3 X11.1931 Y1.336 I0.0605 J-0.0158
G2 X11.1638 Y1.2302 I-2.211 J0.5554
G3 X11.1631 Y1.2278 I0.0598 J-0.0181
G2 X11.1439 Y1.1694 I-0.4637 J0.1203
G0 Z0.125
G0 X10.5945 Y1.3132
G1 F10.0 Z-0.5
G1 F30.0 X10.7663 Y1.9699
G2 X10.8398 Y2.1927 I1.3269 J-0.3141
G2 X10.9603 Y2.3948 I0.6327 J-0.2402
G2 X10.9631 Y2.3978 I0.0473 J-0.0408
G2 X11.27 Y2.5382 I0.3374 J-0.3322
G2 X11.2764 Y2.5383 I0.004 J-0.0624
G2 X11.4534 Y2.4807 I-0.0128 J-0.3404
G2 X11.4576 Y2.4777 I-0.0348 J-0.0519
G2 X11.5049 Y2.431 I-0.202 J-0.2527
G1 X11.5225 Y2.4676
G2 X11.5788 Y2.5031 I0.0563 J-0.027
G1 X12.0033
G2 X12.0638 Y2.4248 I0.0 J-0.0625
G1 X11.6721 Y0.925
G2 X11.6189 Y0.7262 I-9.9262 J2.5503
G2 X11.5576 Y0.5265 I-2.2975 J0.5956
G2 X11.5571 Y0.5251 I-0.0589 J0.0209
G2 X11.4937 Y0.4095 I-0.4555 J0.1744
G2 X11.4189 Y0.3182 I-0.7024 J0.4995
G2 X11.4182 Y0.3175 I-0.0455 J0.0428
G2 X11.1749 Y0.1521 I-0.5222 J0.5067
G2 X11.1728 Y0.1513 I-0.024 J0.0577
G2 X11.0099 Y0.107 I-0.3255 J0.8752
G2 X11.0074 Y0.1066 I-0.0109 J0.0615
G2 X10.8448 Y0.0945 I-0.1808 J1.3352
G2 X10.8436 I-0.0008 J0.0625
G2 X10.7297 Y0.1019 I0.0057 J0.9762
G1 X0.1806
G2 X0.1181 Y0.1644 I0.0 J0.0625
G1 Y0.4931
G2 X0.1806 Y0.5556 I0.0625 J0.0
G1 X0.2878
G2 X0.2175 Y0.8174 I0.2845 J0.2167
G2 X0.2293 Y0.9565 I0.9345 J-0.0095
G2 X0.3134 Y1.3535 I2.8123 J-0.3879
G1 X0.4949 Y2.0467
G2 X0.5482 Y2.2424 I5.7532 J-1.4627
G2 X0.6107 Y2.437 I2.3219 J-0.6382
G2 X0.7677 Y2.7045 I0.7863 J-0.2818
G2 X1.0212 Y2.9056 I0.6377 J-0.5435
G2 X1.0244 Y2.9071 I0.0287 J-0.0555
G2 X1.3383 Y2.9814 I0.3537 J-0.7937
G2 X1.3423 Y2.9815 I0.0029 J-0.0624
G2 X1.5209 Y2.9593 I-0.0154 J-0.8533
G2 X1.5248 Y2.9583 I-0.0142 J-0.0609
G2 X1.7008 Y2.8603 I-0.1376 J-0.4542
G2 X1.702 Y2.8591 I-0.0413 J-0.0469
G2 X1.7968 Y2.7251 I-0.2721 J-0.2928
G2 X1.8327 Y2.5481 I-0.3267 J-0.1584
G2 X1.8234 Y2.4146 I-0.7705 J-0.0137
G2 X1.7457 Y2.0424 I-2.506 J0.3289
G1 X1.6872 Y1.8187
G2 X1.6268 Y1.772 I-0.0605 J0.0158
G1 X1.1515
G2 X1.091 Y1.8504 I0.0 J0.0625
G1 X1.1994 Y2.2627
G1 Y2.2628
G3 X1.2253 Y2.3707 I-2.3983 J0.6322
G2 X1.2254 Y2.3713 I0.0611 J-0.0132
G3 X1.2358 Y2.424 I-0.9052 J0.2049
G2 X1.2364 Y2.4274 I0.0617 J-0.0102
G3 X1.2401 Y2.4527 I-0.1593 J0.0358
G3 X1.2132 Y2.4326 I0.0131 J-0.0456
G3 X1.1756 Y2.3317 I0.5059 J-0.2457
G2 X1.175 Y2.3294 I-0.0604 J0.0161
G3 X1.1421 Y2.2123 I2.383 J-0.7332
G2 X1.142 Y2.212 I-0.0606 J0.0154
G1 X0.8541 Y1.1084
G2 X0.854 Y1.1079 I-0.0605 J0.0158
G3 X0.8277 Y0.9996 I2.1824 J-0.5867
G2 X0.8269 Y0.9964 I-0.0611 J0.0132
G3 X0.8127 Y0.9097 I0.4143 J-0.1126
G3 X0.8358 Y0.9281 I-0.0133 J0.0405
G3 X0.8761 Y1.035 I-0.4787 J0.2415
G2 X0.8768 Y1.0375 I0.0605 J-0.0157
G3 X0.9114 Y1.1615 I-2.489 J0.7612
G2 X0.9115 Y1.1619 I0.0606 J-0.0153
G1 X0.9894 Y1.4613
G2 X1.0499 Y1.5081 I0.0605 J-0.0157
G1 X1.5252
G2 X1.5858 Y1.4303 I0.0 J-0.0625
G1 X1.562 Y1.3363
G2 X1.4839 Y1.0656 I-4.2148 J1.0699
G2 X1.38 Y0.8011 I-1.486 J0.4309
G2 X1.3798 Y0.8005 I-0.0558 J0.0281
G2 X1.2573 Y0.6309 I-0.6269 J0.3234
G2 X1.175 Y0.5556 I-0.7187 J0.7036
G1 X1.5324
G2 X1.5057 Y0.6075 I0.2323 J0.1525
G2 X1.4731 Y0.8488 I0.4185 J0.1793
G2 X1.5035 Y1.0451 I1.1643 J-0.0796
G2 X1.5483 Y1.2313 I3.0957 J-0.6472
G1 X1.6779 Y1.7295
G2 X1.7458 Y1.9536 I2.2469 J-0.5577
G2 X1.8397 Y2.1686 I1.1747 J-0.3851
G2 X2.0867 Y2.4355 I0.6705 J-0.373
G2 X2.0907 Y2.4379 I0.0345 J-0.0521
G2 X2.4436 Y2.5382 I0.3875 J-0.6919
G2 X2.4473 Y2.5383 I0.0027 J-0.0624
G2 X2.5836 Y2.5251 I-0.0131 J-0.8462
G2 X2.5868 Y2.5244 I-0.011 J-0.0615
G2 X2.7248 Y2.4698 I-0.1162 J-0.4947
G2 X2.7267 Y2.4686 I-0.0313 J-0.0541
G2 X2.8147 Y2.3955 I-0.2254 J-0.361
G2 X2.8817 Y2.2842 I-0.2371 J-0.2184
G2 X2.9162 Y2.0602 I-0.4197 J-0.1794
G2 X2.8923 Y1.895 I-0.8976 J0.0458
G2 X2.8556 Y1.7406 I-2.438 J0.4979
G1 X2.7315 Y1.2641
G2 X2.6759 Y1.0659 I-4.1825 J1.0673
G2 X2.6067 Y0.8695 I-1.608 J0.4561
G2 X2.4485 Y0.6227 I-0.7802 J0.3259
G2 X2.3792 Y0.5556 I-0.543 J0.4917
G1 X2.5674
G1 X3.1761 Y2.8849
G2 X3.2366 Y2.9316 I0.0605 J-0.0158
G1 X3.7062
G2 X3.7667 Y2.8533 I0.0 J-0.0625
G1 X3.1662 Y0.5556
G1 X3.3755
G2 X3.33 Y0.6366 I0.2528 J0.195
G2 X3.294 Y0.8744 I0.4158 J0.1847
G2 X3.3199 Y1.0502 I1.0463 J-0.0645
G2 X3.3591 Y1.2165 I2.619 J-0.529
G1 X3.5079 Y1.7838
G2 X3.5756 Y1.9999 I1.7155 J-0.4185
G2 X3.6734 Y2.2034 I0.9678 J-0.3398
G2 X3.928 Y2.4508 I0.611 J-0.3742
G2 X3.9311 Y2.4525 I0.0311 J-0.0542
G2 X4.2548 Y2.5382 I0.3685 J-0.7374
G2 X4.2593 Y2.5383 I0.0034 J-0.0624
G2 X4.4235 Y2.5182 I-0.0141 J-0.7947
G2 X4.4274 Y2.5171 I-0.014 J-0.0609
G2 X4.5901 Y2.4279 I-0.1268 J-0.4242
G2 X4.7216 Y2.13 I-0.2403 J-0.284
G2 X4.7032 Y1.8946 I-0.8696 J-0.0506
G2 X4.655 Y1.6744 I-2.0975 J0.3438
G1 X4.5874 Y1.4165
G2 X4.5269 Y1.3699 I-0.0605 J0.0159
G1 X3.9847
G1 X3.8863 Y0.9953
G2 Y0.9951 I-0.0604 J0.0159
G3 X3.8676 Y0.9151 I1.2984 J-0.3457
G2 X3.8674 Y0.9143 I-0.0613 J0.0124
G3 X3.8607 Y0.8763 I0.491 J-0.1058
G2 X3.8602 Y0.8729 I-0.0619 J0.0084
G3 X3.8716 Y0.8848 I-0.0249 J0.0353
G3 X3.9049 Y0.9646 I-0.3061 J0.1745
G2 X3.9057 Y0.9672 I0.0602 J-0.0168
G3 X3.9334 Y1.0642 I-1.2481 J0.409
G2 X3.9336 Y1.0653 I0.0607 J-0.0149
G1 X4.0014 Y1.3221
G2 X4.0618 Y1.3686 I0.0604 J-0.0159
G1 X4.4942
G2 X4.5546 Y1.29 I0.0 J-0.0625
G1 X4.5165 Y1.1475
G2 X4.4241 Y0.8604 I-1.6054 J0.3585
G2 X4.4238 Y0.8597 I-0.0575 J0.0245
G2 X4.3557 Y0.7392 I-0.641 J0.2827
G2 X4.2776 Y0.6375 I-0.9567 J0.6539
G2 X4.1968 Y0.5556 I-0.577 J0.4885
G1 X5.0281
G1 X5.6368 Y2.8849
G2 X5.6972 Y2.9316 I0.0605 J-0.0158
G1 X6.0337
G2 X6.0338 I0.0 J-0.0625
G2 X6.2597 Y2.9267 I-0.0155 J-5.8543
G2 X6.2606 Y2.9266 I-0.0026 J-0.0624
G2 X6.375 Y2.9178 I-0.1422 J-2.5812
G2 X6.3758 Y2.9177 I-0.0062 J-0.0622
G2 X6.4949 Y2.8959 I-0.101 J-0.8905
G2 X6.4998 Y2.8945 I-0.0153 J-0.0606
G2 X6.6894 Y2.6769 I-0.0931 J-0.2725
G2 X6.7043 Y2.5487 I-0.3673 J-0.1075
G2 X6.6864 Y2.3712 I-0.8487 J-0.0042
G2 X6.6496 Y2.2047 I-1.6734 J0.2828
G2 X6.587 Y2.0025 I-1.7918 J0.4438
G2 X6.5453 Y1.9038 I-0.8698 J0.3095
G2 X6.4867 Y1.8088 I-0.4236 J0.1954
G2 X6.4849 Y1.8066 I-0.0489 J0.0389
G2 X6.361 Y1.7126 I-0.2887 J0.2521
G2 X6.3713 Y1.7024 I-0.2031 J-0.2175
G2 X6.4141 Y1.6359 I-0.1375 J-0.1354
G2 X6.4423 Y1.4636 I-0.2842 J-0.1351
G2 X6.4257 Y1.3672 I-0.7128 J0.0734
G2 X6.3616 Y1.1038 I-5.6247 J1.2289
G1 X6.2184 Y0.5556
G1 X6.3202
G2 X6.3028 Y0.6292 I0.1889 J0.0835
G2 X6.3087 Y0.7944 I0.491 J0.0652
G2 X6.3402 Y0.9439 I1.1503 J-0.1643
G1 X6.3817 Y1.1027
G2 X6.4351 Y1.2689 I1.1564 J-0.2798
G2 X6.526 Y1.4263 I0.4557 J-0.1583
G2 X6.529 Y1.4295 I0.0473 J-0.0409
G2 X6.6116 Y1.4971 I0.3717 J-0.3701
G2 X6.6133 Y1.4982 I0.0344 J-0.0522
G2 X6.8512 Y1.6237 I1.0703 J-1.7394
G1 X6.5992
G2 X6.5387 Y1.7019 I0.0 J0.0625
G1 X6.5725 Y1.8321
G2 X6.629 Y2.018 I1.7086 J-0.4181
G2 X6.7102 Y2.1964 I0.8721 J-0.2892
G2 X6.8207 Y2.3348 I0.5412 J-0.3188
G2 X6.8209 Y2.335 I0.0429 J-0.0455
G2 X6.9479 Y2.4343 I0.6308 J-0.676
G2 X6.9496 Y2.4353 I0.0341 J-0.0524
G2 X7.1296 Y2.5144 I0.3906 J-0.6449
G2 X7.1333 Y2.5154 I0.0175 J-0.06
G2 X7.3192 Y2.5383 I0.2075 J-0.9171
G2 X7.3215 I0.0014 J-0.0625
G2 X7.5006 Y2.5186 I-0.013 J-0.944
G2 X7.5043 Y2.5177 I-0.0127 J-0.0612
G2 X7.597 Y2.4825 I-0.1333 J-0.4894
G2 X7.5991 Y2.4813 I-0.0278 J-0.056
G2 X7.6869 Y2.4114 I-0.1565 J-0.2864
G2 X7.7751 Y2.0965 I-0.2394 J-0.2369
G2 X7.747 Y1.9319 I-1.4711 J0.1664
G2 X7.6316 Y1.4544 I-8.1114 J1.708
G1 X7.397 Y0.5556
G1 X7.5837
G2 X7.5188 Y0.7848 I0.2886 J0.2055
G2 X7.5405 Y1.0197 I0.9284 J0.0328
G2 X7.5899 Y1.2402 I2.2507 J-0.3887
G1 X7.7342 Y1.7926
G2 X7.7929 Y1.9903 I2.1093 J-0.5192
G2 X7.8756 Y2.1819 I0.9798 J-0.3094
G2 X7.8761 Y2.1827 I0.0546 J-0.0305
G2 X7.9892 Y2.3259 I0.5439 J-0.3134
G2 X7.9893 Y2.326 I0.0429 J-0.0455
G2 X8.1195 Y2.4283 I0.6539 J-0.6982
G2 X8.1221 Y2.4299 I0.0342 J-0.0523
G2 X8.4811 Y2.5382 I0.4029 J-0.6862
G2 X8.4858 Y2.5383 I0.0034 J-0.0624
G2 X8.6457 Y2.5162 I-0.0147 J-0.6946
G2 X8.6499 Y2.5149 I-0.0157 J-0.0605
G2 X8.8053 Y2.4238 I-0.1405 J-0.4177
G2 X8.8062 Y2.4229 I-0.042 J-0.0463
G2 X8.8949 Y2.2952 I-0.2585 J-0.2742
G2 X8.9286 Y2.1288 I-0.3208 J-0.1515
G2 X8.9058 Y1.9015 I-0.9346 J-0.0212
G2 X8.8574 Y1.6886 I-2.2713 J0.4046
G2 X8.7972 Y1.6428 I-0.0602 J0.0167
G1 X8.3671
G2 X8.3066 Y1.7211 I0.0 J0.0625
G1 X8.3653 Y1.9457
G2 X8.3655 Y1.9462 I0.0605 J-0.0158
G3 X8.3827 Y2.0199 I-1.0474 J0.2837
G2 X8.3836 Y2.0238 I0.0613 J-0.0121
G3 X8.3845 Y2.0274 I-0.2022 J0.0537
G3 X8.375 Y1.9981 I0.2802 J-0.1075
G2 X8.3742 Y1.9953 I-0.0603 J0.0163
G3 X8.3509 Y1.9144 I1.3663 J-0.4367
G2 X8.3508 Y1.914 I-0.0605 J0.0155
G1 X8.1103 Y0.9953
G2 X8.1101 Y0.9944 I-0.0605 J0.0158
G3 X8.0951 Y0.9246 I0.57 J-0.159
G2 X8.0943 Y0.9204 I-0.0618 J0.0094
G3 X8.0904 Y0.8759 I0.165 J-0.037
G3 X8.0966 Y0.8848 I-0.0264 J0.0251
G2 X8.0973 Y0.8862 I0.056 J-0.0277
G3 X8.1322 Y0.9738 I-0.3917 J0.2067
G2 X8.1329 Y0.9761 I0.0602 J-0.0168
G3 X8.162 Y1.0778 I-1.562 J0.5019
G2 X8.1622 Y1.0784 I0.0606 J-0.0152
G1 X8.2231 Y1.3103
G2 X8.2836 Y1.3569 I0.0604 J-0.0159
G1 X8.69
G2 X8.7506 Y1.2794 I0.0 J-0.0625
G2 X8.6439 Y0.9229 I-3.7078 J0.9156
G2 X8.5775 Y0.7839 I-0.6741 J0.2367
G2 X8.4963 Y0.6657 I-0.9242 J0.548
G2 X8.3911 Y0.5556 I-0.623 J0.4898
G1 X8.5683
G1 X9.0641 Y2.4564
G2 X9.1246 Y2.5031 I0.0605 J-0.0158
G1 X9.1292
G2 X9.0958 Y2.5753 I0.027 J0.0564
G1 X9.177 Y2.885
G2 X9.2375 Y2.9316 I0.0605 J-0.0159
G1 X9.7071
G2 X9.7676 Y2.8532 I0.0 J-0.0625
G1 X9.6863 Y2.5436
G2 X9.6258 Y2.497 I-0.0605 J0.0159
G1 X9.6212
G2 X9.6547 Y2.4248 I-0.027 J-0.0564
G1 X9.1671 Y0.5556
G1 X9.2016
G1 X9.6974 Y2.4564
G2 X9.7579 Y2.5031 I0.0605 J-0.0158
G1 X10.2219
G2 X10.2806 Y2.4622 I0.0 J-0.0625
G2 X10.2962 Y2.4731 I0.4126 J-0.5712
G2 X10.3002 Y2.4756 I0.0352 J-0.0516
G2 X10.5069 Y2.5382 I0.2372 J-0.4112
G2 X10.5122 Y2.5383 I0.004 J-0.0624
G2 X10.6201 Y2.5217 I-0.0088 J-0.4172
G2 X10.6246 Y2.5202 I-0.0175 J-0.06
G2 X10.7314 Y2.4442 I-0.0895 J-0.2387
G2 X10.7942 Y2.2138 I-0.2106 J-0.1812
G2 X10.7631 Y2.0234 I-1.142 J0.0889
G2 X10.7192 Y1.8419 I-3.6517 J0.7878
G1 X10.383 Y0.5556
G1 X10.4006
G2 X10.4202 Y0.6476 I0.7937 J-0.1209
G2 X10.4804 Y0.6936 I0.0603 J-0.0166
G1 X10.6693
G2 X10.6151 Y0.7335 I0.1487 J0.2584
G2 X10.615 Y0.7336 I0.0425 J0.0458
G2 X10.5308 Y0.95 I0.1828 J0.1958
G2 X10.5472 Y1.1126 I0.6831 J0.0128
G2 X10.5815 Y1.2637 I1.6312 J-0.2903
G1 X10.5945 Y1.3132
G0 Z0.125
G0 X11.1484 Y1.19
G1 F10.0 Z-0.625
G2 F30.0 X11.1639 Y1.2533 I1.4679 J-0.3264
G3 X11.164 Y1.2536 I-0.0604 J0.0162
G1 X11.3356 Y1.9081
G3 X11.3359 Y1.9092 I-0.0605 J0.0158
G2 X11.3589 Y1.9895 I1.0059 J-0.2455
G3 X11.3598 Y1.9924 I-0.0593 J0.0197
G2 X11.3733 Y2.0293 I0.2445 J-0.068
G2 X11.372 Y2.0247 I-0.2613 J0.0683
G3 X11.3711 Y2.0211 I0.0602 J-0.0169
G2 X11.3514 Y1.9403 I-1.6261 J0.3533
G3 X11.3513 Y1.9398 I0.0603 J-0.0163
G1 X11.1933 Y1.3367
G3 X11.1931 Y1.336 I0.0605 J-0.0158
G2 X11.1638 Y1.2302 I-2.211 J0.5554
G3 X11.1631 Y1.2278 I0.0598 J-0.0181
G2 X11.1439 Y1.1694 I-0.4637 J0.1203
G3 X11.1447 Y1.1728 I-0.0603 J0.0163
G2 X11.1484 Y1.19 I1.4716 J-0.3093
G0 Z0.125
G0 X11.0361 Y0.7045
G1 F10.0 Z-0.625
G2 F30.0 X11.0171 Y0.6412 I-1.032 J0.2742
G3 X11.0162 Y0.6381 I0.0593 J-0.0198
G2 X10.9906 Y0.5782 I-0.2366 J0.0655
G2 X10.9751 Y0.5675 I-0.0316 J0.0292
G2 X10.9822 Y0.6112 I0.1372 J0.0001
G3 X10.9674 Y0.675 I-0.0593 J0.0199
G3 X11.0137 Y0.6928 I-0.1492 J0.4595
G3 X11.017 Y0.6944 I-0.0253 J0.0571
G3 X11.0361 Y0.7045 I-0.3596 J0.698
G0 Z0.125
G0 X9.9132 Y0.9977
G1 F10.0 Z-0.625
G1 F30.0 X9.7977 Y0.5556
G1 X9.7869
G1 X10.1097 Y1.7938
G3 Y1.794 I-0.0605 J0.0158
G2 X10.1468 Y1.9292 I4.1082 J-1.0526
G3 X10.1474 Y1.9314 I-0.06 J0.0175
G2 X10.1787 Y2.0278 I0.7367 J-0.1862
G2 X10.1675 Y1.9776 I-1.6161 J0.3347
G3 X10.1674 Y1.9773 I0.0608 J-0.0146
G2 X10.1377 Y1.8577 I-4.2778 J0.9974
G3 Y1.8576 I0.0604 J-0.0159
G1 X9.9132 Y0.9977
G0 Z0.125
G0 X7.148 Y1.8472
G1 F10.0 Z-0.625
G2 F30.0 X7.1399 Y1.822 I-0.9462 J0.2907
G3 X7.139 Y1.819 I0.0592 J-0.0199
G2 X7.1144 Y1.7618 I-0.2284 J0.0642
G2 X7.1103 Y1.7577 I-0.0567 J0.0537
G1 X7.1406 Y1.8745
G3 X7.1407 Y1.8747 I-0.0605 J0.0157
G2 X7.1685 Y1.9748 I2.5647 J-0.6596
G3 X7.1692 Y1.9773 I-0.0599 J0.0179
G2 X7.1947 Y2.0509 I0.4556 J-0.1164
G2 X7.1937 Y2.045 I-0.1097 J0.0155
G3 X7.1931 Y2.0412 I0.0613 J-0.012
G2 X7.1853 Y1.9963 I-0.5591 J0.0739
G3 X7.1851 Y1.9955 I0.0611 J-0.0132
G2 X7.1632 Y1.9021 I-1.4501 J0.2914
G3 X7.1628 Y1.9008 I0.0603 J-0.0163
G2 X7.148 Y1.8472 I-0.961 J0.2371
G0 Z0.125
G0 X6.9829 Y1.2126
G1 F10.0 Z-0.625
G1 F30.0 X6.9362 Y1.0343
G3 X6.936 Y1.0338 I0.0605 J-0.0158
G2 X6.9107 Y0.9436 I-1.7351 J0.4392
G3 X6.9098 Y0.9406 I0.0597 J-0.0185
G2 X6.8866 Y0.8776 I-0.3147 J0.0804
G2 X6.8878 Y0.8842 I0.1299 J-0.0203
G3 X6.8884 Y0.8876 I-0.0612 J0.0128
G2 X6.8968 Y0.9323 I0.6486 J-0.0986
G3 X6.8969 Y0.933 I-0.061 J0.0137
G2 X6.9192 Y1.0257 I1.6789 J-0.3552
G3 X6.92 Y1.029 I-0.0603 J0.0163
G2 X6.9829 Y1.2126 I0.7876 J-0.167
G0 Z0.125
G0 X6.8724 Y0.4306
G1 F10.0 Z-0.625
G1 F30.0 X7.3161
G0 Z0.125
G0 X5.7231 Y0.8451
G1 F10.0 Z-0.625
G1 F30.0 X5.6478 Y0.5556
G1 X5.6325
G1 X5.8785 Y1.4968
G2 X5.881 Y1.4959 I-0.0255 J-0.0788
G2 X5.879 Y1.4715 I-0.0901 J-0.0048
G3 X5.878 Y1.466 I0.061 J-0.0136
G2 X5.8685 Y1.412 I-0.6103 J0.0795
G3 X5.8683 Y1.4111 I0.061 J-0.0136
G2 X5.8413 Y1.2994 I-1.6745 J0.3452
G3 X5.8411 Y1.2984 I0.0602 J-0.0167
G1 X5.7231 Y0.8451
G0 Z0.125
G0 X6.0141 Y2.0177
G1 F10.0 Z-0.625
G1 F30.0 X6.1131 Y2.3945
G2 X6.1167 Y2.3925 I-0.0103 J-0.0225
G3 X6.1168 Y2.3874 I0.0625 J-0.0018
G2 X6.1154 Y2.3621 I-0.1208 J-0.0063
G3 X6.1151 Y2.3598 I0.0617 J-0.0098
G2 X6.1023 Y2.2964 I-0.4036 J0.0486
G3 X6.1018 Y2.2948 I0.0601 J-0.0172
G1 X6.068 Y2.1642
G3 X6.0674 Y2.162 I0.0605 J-0.0157
G2 X6.0206 Y2.0288 I-0.5682 J0.1251
G3 X6.0199 Y2.0273 I0.056 J-0.0277
G2 X6.0141 Y2.0177 I-0.0477 J0.0221
G0 Z0.125
G0 X4.1538 Y2.0091
G1 F10.0 Z-0.625
G2 F30.0 X4.1526 Y2.0044 I-0.3492 J0.091
G3 X4.1518 Y2.0012 I0.0603 J-0.0166
G2 X4.129 Y1.908 I-1.9696 J0.4308
G3 X4.1289 Y1.9075 I0.0604 J-0.0162
G1 X4.1039 Y1.8119
G1 X4.0999
G1 X4.1166 Y1.8759
G3 X4.1167 Y1.8763 I-0.0605 J0.0158
G2 X4.1444 Y1.9764 I2.4829 J-0.632
G3 X4.1451 Y1.9791 I-0.0599 J0.0179
G2 X4.1538 Y2.0091 I0.4269 J-0.1072
G0 Z0.125
G0 X2.3384 Y2.0055
G1 F10.0 Z-0.625
G2 F30.0 X2.3172 Y1.9198 I-1.9744 J0.4444
G3 X2.317 Y1.9193 I0.0603 J-0.0164
G1 X2.0822 Y1.0211
G3 X2.082 Y1.0204 I0.0605 J-0.0158
G2 X2.0591 Y0.9397 I-1.2619 J0.3147
G3 X2.0583 Y0.9369 I0.0595 J-0.019
G2 X2.0566 Y0.9308 I-0.2754 J0.0739
G2 X2.0754 Y1.008 I1.5612 J-0.3401
G3 X2.0756 Y1.0086 I-0.0603 J0.0163
G1 X2.3047 Y1.8877
G3 X2.3048 Y1.888 I-0.0605 J0.0158
G2 X2.3313 Y1.9812 I1.7962 J-0.4593
G3 X2.3321 Y1.984 I-0.0597 J0.0186
G2 X2.3384 Y2.0055 I0.3419 J-0.0892
G0 Z0.125
G0 X2.0242 Y2.3894
G1 F10.0 Z-0.625
G2 F30.0 X2.0867 Y2.4355 I0.486 J-0.5937
G2 X2.0907 Y2.4379 I0.0345 J-0.0521
G2 X2.4436 Y2.5382 I0.3875 J-0.6919
G2 X2.4473 Y2.5383 I0.0027 J-0.0624
G2 X2.5836 Y2.5251 I-0.0131 J-0.8462
G2 X2.5868 Y2.5244 I-0.011 J-0.0615
G2 X2.7248 Y2.4698 I-0.1162 J-0.4947
G2 X2.7267 Y2.4686 I-0.0313 J-0.0541
G2 X2.8147 Y2.3955 I-0.2254 J-0.361
G2 X2.8817 Y2.2842 I-0.2371 J-0.2184
G2 X2.9162 Y2.0602 I-0.4197 J-0.1794
G2 X2.8923 Y1.895 I-0.8976 J0.0458
G2 X2.8556 Y1.7406 I-2.438 J0.4979
G1 X2.7315 Y1.2641
G2 X2.6759 Y1.0659 I-4.1825 J1.0673
G2 X2.6067 Y0.8695 I-1.608 J0.4561
G2 X2.4485 Y0.6227 I-0.7802 J0.3259
G2 X2.3792 Y0.5556 I-0.543 J0.4917
G1 X2.5674
G1 X3.1761 Y2.8849
G2 X3.2366 Y2.9316 I0.0605 J-0.0158
G1 X3.7062
G2 X3.7667 Y2.8533 I0.0 J-0.0625
G1 X3.1662 Y0.5556
G1 X3.3755
G2 X3.33 Y0.6366 I0.2528 J0.195
G2 X3.294 Y0.8744 I0.4158 J0.1847
G2 X3.3199 Y1.0502 I1.0463 J-0.0645
G2 X3.3591 Y1.2165 I2.619 J-0.529
G1 X3.5079 Y1.7838
G2 X3.5756 Y1.9999 I1.7155 J-0.4185
G2 X3.6734 Y2.2034 I0.9678 J-0.3398
G2 X3.928 Y2.4508 I0.611 J-0.3742
G2 X3.9311 Y2.4525 I0.0311 J-0.0542
G2 X4.2548 Y2.5382 I0.3685 J-0.7374
G2 X4.2593 Y2.5383 I0.0034 J-0.0624
G2 X4.4235 Y2.5182 I-0.0141 J-0.7947
G2 X4.4274 Y2.5171 I-0.014 J-0.0609
G2 X4.5901 Y2.4279 I-0.1268 J-0.4242
G2 X4.7216 Y2.13 I-0.2403 J-0.284
G2 X4.7032 Y1.8946 I-0.8696 J-0.0506
G2 X4.655 Y1.6744 I-2.0975 J0.3438
G1 X4.5874 Y1.4165
G2 X4.5269 Y1.3699 I-0.0605 J0.0159
G1 X3.9847
G1 X3.8863 Y0.9953
G2 Y0.9951 I-0.0604 J0.0159
G3 X3.8676 Y0.9151 I1.2984 J-0.3457
G2 X3.8674 Y0.9143 I-0.0613 J0.0124
G3 X3.8607 Y0.8763 I0.491 J-0.1058
G2 X3.8602 Y0.8729 I-0.0619 J0.0084
G3 X3.8716 Y0.8848 I-0.0249 J0.0353
G3 X3.9049 Y0.9646 I-0.3061 J0.1745
G2 X3.9057 Y0.9672 I0.0602 J-0.0168
G3 X3.9334 Y1.0642 I-1.2481 J0.409
G2 X3.9336 Y1.0653 I0.0607 J-0.0149
G1 X4.0014 Y1.3221
G2 X4.0618 Y1.3686 I0.0604 J-0.0159
G1 X4.4942
G2 X4.5546 Y1.29 I0.0 J-0.0625
G1 X4.5165 Y1.1475
G2 X4.4241 Y0.8604 I-1.6054 J0.3585
G2 X4.4238 Y0.8597 I-0.0575 J0.0245
G2 X4.3557 Y0.7392 I-0.641 J0.2827
G2 X4.2776 Y0.6375 I-0.9567 J0.6539
G2 X4.1968 Y0.5556 I-0.577 J0.4885
G1 X5.0281
G1 X5.6368 Y2.8849
G2 X5.6972 Y2.9316 I0.0605 J-0.0158
G1 X6.0337
G2 X6.0338 I0.0 J-0.0625
G2 X6.2597 Y2.9267 I-0.0155 J-5.8543
G2 X6.2606 Y2.9266 I-0.0026 J-0.0624
G2 X6.375 Y2.9178 I-0.1422 J-2.5812
G2 X6.3758 Y2.9177 I-0.0062 J-0.0622
G2 X6.4949 Y2.8959 I-0.101 J-0.8905
G2 X6.4998 Y2.8945 I-0.0153 J-0.0606
G2 X6.6894 Y2.6769 I-0.0931 J-0.2725
G2 X6.7043 Y2.5487 I-0.3673 J-0.1075
G2 X6.6864 Y2.3712 I-0.8487 J-0.0042
G2 X6.6496 Y2.2047 I-1.6734 J0.2828
G2 X6.587 Y2.0025 I-1.7918 J0.4438
G2 X6.5453 Y1.9038 I-0.8698 J0.3095
G2 X6.4867 Y1.8088 I-0.4236 J0.1954
G2 X6.4849 Y1.8066 I-0.0489 J0.0389
G2 X6.361 Y1.7126 I-0.2887 J0.2521
G2 X6.3713 Y1.7024 I-0.2031 J-0.2175
G2 X6.4141 Y1.6359 I-0.1375 J-0.1354
G2 X6.4423 Y1.4636 I-0.2842 J-0.1351
G2 X6.4257 Y1.3672 I-0.7128 J0.0734
G2 X6.3616 Y1.1038 I-5.6247 J1.2289
G1 X6.2184 Y0.5556
G1 X6.3202
G2 X6.3028 Y0.6292 I0.1889 J0.0835
G2 X6.3087 Y0.7944 I0.491 J0.0652
G2 X6.3402 Y0.9439 I1.1503 J-0.1643
G1 X6.3817 Y1.1027
G2 X6.4351 Y1.2689 I1.1564 J-0.2798
G2 X6.526 Y1.4263 I0.4557 J-0.1583
G2 X6.529 Y1.4295 I0.0473 J-0.0409
G2 X6.6116 Y1.4971 I0.3717 J-0.3701
G2 X6.6133 Y1.4982 I0.0344 J-0.0522
G2 X6.8512 Y1.6237 I1.0703 J-1.7394
G1 X6.5992
G2 X6.5387 Y1.7019 I0.0 J0.0625
G1 X6.5725 Y1.8321
G2 X6.629 Y2.018 I1.7086 J-0.4181
G2 X6.7102 Y2.1964 I0.8721 J-0.2892
G2 X6.8207 Y2.3348 I0.5412 J-0.3188
G2 X6.8209 Y2.335 I0.0429 J-0.0455
G2 X6.9479 Y2.4343 I0.6308 J-0.676
G2 X6.9496 Y2.4353 I0.0341 J-0.0524
G2 X7.1296 Y2.5144 I0.3906 J-0.6449
G2 X7.1333 Y2.5154 I0.0175 J-0.06
G2 X7.3192 Y2.5383 I0.2075 J-0.9171
G2 X7.3215 I0.0014 J-0.0625
G2 X7.5006 Y2.5186 I-0.013 J-0.944
G2 X7.5043 Y2.5177 I-0.0127 J-0.0612
G2 X7.597 Y2.4825 I-0.1333 J-0.4894
G2 X7.5991 Y2.4813 I-0.0278 J-0.056
G2 X7.6869 Y2.4114 I-0.1565 J-0.2864
G2 X7.7751 Y2.0965 I-0.2394 J-0.2369
G2 X7.747 Y1.9319 I-1.4711 J0.1664
G2 X7.6316 Y1.4544 I-8.1114 J1.708
G1 X7.397 Y0.5556
G1 X7.5837
G2 X7.5188 Y0.7848 I0.2886 J0.2055
G2 X7.5405 Y1.0197 I0.9284 J0.0328
G2 X7.5899 Y1.2402 I2.2507 J-0.3887
G1 X7.7342 Y1.7926
G2 X7.7929 Y1.9903 I2.1093 J-0.5192
G2 X7.8756 Y2.1819 I0.9798 J-0.3094
G2 X7.8761 Y2.1827 I0.0546 J-0.0305
G2 X7.9892 Y2.3259 I0.5439 J-0.3134
G2 X7.9893 Y2.326 I0.0429 J-0.0455
G2 X8.1195 Y2.4283 I0.6539 J-0.6982
G2 X8.1221 Y2.4299 I0.0342 J-0.0523
G2 X8.4811 Y2.5382 I0.4029 J-0.6862
G2 X8.4858 Y2.5383 I0.0034 J-0.0624
G2 X8.6457 Y2.5162 I-0.0147 J-0.6946
G2 X8.6499 Y2.5149 I-0.0157 J-0.0605
G2 X8.8053 Y2.4238 I-0.1405 J-0.4177
G2 X8.8062 Y2.4229 I-0.042 J-0.0463
G2 X8.8949 Y2.2952 I-0.2585 J-0.2742
G2 X8.9286 Y2.1288 I-0.3208 J-0.1515
G2 X8.9058 Y1.9015 I-0.9346 J-0.0212
G2 X8.8574 Y1.6886 I-2.2713 J0.4046
G2 X8.7972 Y1.6428 I-0.0602 J0.0167
G1 X8.3671
G2 X8.3066 Y1.7211 I0.0 J0.0625
G1 X8.3653 Y1.9457
G2 X8.3655 Y1.9462 I0.0605 J-0.0158
G3 X8.3827 Y2.0199 I-1.0474 J0.2837
G2 X8.3836 Y2.0238 I0.0613 J-0.0121
G3 X8.3845 Y2.0274 I-0.2022 J0.0537
G3 X8.375 Y1.9981 I0.2802 J-0.1075
G2 X8.3742 Y1.9953 I-0.0603 J0.0163
G3 X8.3509 Y1.9144 I1.3663 J-0.4367
G2 X8.3508 Y1.914 I-0.0605 J0.0155
G1 X8.1103 Y0.9953
G2 X8.1101 Y0.9944 I-0.0605 J0.0158
G3 X8.0951 Y0.9246 I0.57 J-0.159
G2 X8.0943 Y0.9204 I-0.0618 J0.0094
G3 X8.0904 Y0.8759 I0.165 J-0.037
G3 X8.0966 Y0.8848 I-0.0264 J0.0251
G2 X8.0973 Y0.8862 I0.056 J-0.0277
G3 X8.1322 Y0.9738 I-0.3917 J0.2067
G2 X8.1329 Y0.9761 I0.0602 J-0.0168
G3 X8.162 Y1.0778 I-1.562 J0.5019
G2 X8.1622 Y1.0784 I0.0606 J-0.0152
G1 X8.2231 Y1.3103
G2 X8.2836 Y1.3569 I0.0604 J-0.0159
G1 X8.69
G2 X8.7506 Y1.2794 I0.0 J-0.0625
G2 X8.6439 Y0.9229 I-3.7078 J0.9156
G2 X8.5775 Y0.7839 I-0.6741 J0.2367
G2 X8.4963 Y0.6657 I-0.9242 J0.548
G2 X8.3911 Y0.5556 I-0.623 J0.4898
G1 X8.5683
G1 X9.0641 Y2.4564
G2 X9.1246 Y2.5031 I0.0605 J-0.0158
G1 X9.1292
G2 X9.0958 Y2.5753 I0.027 J0.0564
G1 X9.177 Y2.885
G2 X9.2375 Y2.9316 I0.0605 J-0.0159
G1 X9.7071
G2 X9.7676 Y2.8532 I0.0 J-0.0625
G1 X9.6863 Y2.5436
G2 X9.6258 Y2.497 I-0.0605 J0.0159
G1 X9.6212
G2 X9.6547 Y2.4248 I-0.027 J-0.0564
G1 X9.1671 Y0.5556
G1 X9.2016
G1 X9.6974 Y2.4564
G2 X9.7579 Y2.5031 I0.0605 J-0.0158
G1 X10.2219
G2 X10.2806 Y2.4622 I0.0 J-0.0625
G2 X10.2962 Y2.4731 I0.4126 J-0.5712
G2 X10.3002 Y2.4756 I0.0352 J-0.0516
G2 X10.5069 Y2.5382 I0.2372 J-0.4112
G2 X10.5122 Y2.5383 I0.004 J-0.0624
G2 X10.6201 Y2.5217 I-0.0088 J-0.4172
G2 X10.6246 Y2.5202 I-0.0175 J-0.06
G2 X10.7314 Y2.4442 I-0.0895 J-0.2387
G2 X10.7942 Y2.2138 I-0.2106 J-0.1812
G2 X10.7631 Y2.0234 I-1.142 J0.0889
G2 X10.7192 Y1.8419 I-3.6517 J0.7878
G1 X10.383 Y0.5556
G1 X10.4006
G2 X10.4202 Y0.6476 I0.7937 J-0.1209
G2 X10.4804 Y0.6936 I0.0603 J-0.0166
G1 X10.6693
G2 X10.6151 Y0.7335 I0.1487 J0.2584
G2 X10.615 Y0.7336 I0.0425 J0.0458
G2 X10.5308 Y0.95 I0.1828 J0.1958
G2 X10.5472 Y1.1126 I0.6831 J0.0128
G2 X10.5815 Y1.2637 I1.6312 J-0.2903
G1 X10.7663 Y1.9699
G2 X10.8398 Y2.1927 I1.3269 J-0.3141
G2 X10.9603 Y2.3948 I0.6327 J-0.2402
G2 X10.9631 Y2.3978 I0.0473 J-0.0408
G2 X11.27 Y2.5382 I0.3374 J-0.3322
G2 X11.2764 Y2.5383 I0.004 J-0.0624
G2 X11.4534 Y2.4807 I-0.0128 J-0.3404
G2 X11.4576 Y2.4777 I-0.0348 J-0.0519
G2 X11.5049 Y2.431 I-0.202 J-0.2527
G1 X11.5225 Y2.4676
G2 X11.5788 Y2.5031 I0.0563 J-0.027
G1 X12.0033
G2 X12.0638 Y2.4248 I0.0 J-0.0625
G1 X11.6721 Y0.925
G2 X11.6189 Y0.7262 I-9.9262 J2.5503
G2 X11.5576 Y0.5265 I-2.2975 J0.5956
G2 X11.5571 Y0.5251 I-0.0589 J0.0209
G2 X11.4937 Y0.4095 I-0.4555 J0.1744
G2 X11.4189 Y0.3182 I-0.7024 J0.4995
G2 X11.4182 Y0.3175 I-0.0455 J0.0428
G2 X11.1749 Y0.1521 I-0.5222 J0.5067
G2 X11.1728 Y0.1513 I-0.024 J0.0577
G2 X11.0099 Y0.107 I-0.3255 J0.8752
G2 X11.0074 Y0.1066 I-0.0109 J0.0615
G2 X10.8448 Y0.0945 I-0.1808 J1.3352
G2 X10.8436 I-0.0008 J0.0625
G2 X10.7297 Y0.1019 I0.0057 J0.9762
G1 X0.1806
G2 X0.1181 Y0.1644 I0.0 J0.0625
G1 Y0.4931
G2 X0.1806 Y0.5556 I0.0625 J0.0
G1 X0.2878
G2 X0.2175 Y0.8174 I0.2845 J0.2167
G2 X0.2293 Y0.9565 I0.9345 J-0.0095
G2 X0.3134 Y1.3535 I2.8123 J-0.3879
G1 X0.4949 Y2.0467
G2 X0.5482 Y2.2424 I5.7532 J-1.4627
G2 X0.6107 Y2.437 I2.3219 J-0.6382
G2 X0.7677 Y2.7045 I0.7863 J-0.2818
G2 X1.0212 Y2.9056 I0.6377 J-0.5435
G2 X1.0244 Y2.9071 I0.0287 J-0.0555
G2 X1.3383 Y2.9814 I0.3537 J-0.7937
G2 X1.3423 Y2.9815 I0.0029 J-0.0624
G2 X1.5209 Y2.9593 I-0.0154 J-0.8533
G2 X1.5248 Y2.9583 I-0.0142 J-0.0609
G2 X1.7008 Y2.8603 I-0.1376 J-0.4542
G2 X1.702 Y2.8591 I-0.0413 J-0.0469
G2 X1.7968 Y2.7251 I-0.2721 J-0.2928
G2 X1.8327 Y2.5481 I-0.3267 J-0.1584
G2 X1.8234 Y2.4146 I-0.7705 J-0.0137
G2 X1.7457 Y2.0424 I-2.506 J0.3289
G1 X1.6872 Y1.8187
G2 X1.6268 Y1.772 I-0.0605 J0.0158
G1 X1.1515
G2 X1.091 Y1.8504 I0.0 J0.0625
G1 X1.1994 Y2.2627
G1 Y2.2628
G3 X1.2253 Y2.3707 I-2.3983 J0.6322
G2 X1.2254 Y2.3713 I0.0611 J-0.0132
G3 X1.2358 Y2.424 I-0.9052 J0.2049
G2 X1.2364 Y2.4274 I0.0617 J-0.0102
G3 X1.2401 Y2.4527 I-0.1593 J0.0358
G3 X1.2132 Y2.4326 I0.0131 J-0.0456
G3 X1.1756 Y2.3317 I0.5059 J-0.2457
G2 X1.175 Y2.3294 I-0.0604 J0.0161
G3 X1.1421 Y2.2123 I2.383 J-0.7332
G2 X1.142 Y2.212 I-0.0606 J0.0154
G1 X0.8541 Y1.1084
G2 X0.854 Y1.1079 I-0.0605 J0.0158
G3 X0.8277 Y0.9996 I2.1824 J-0.5867
G2 X0.8269 Y0.9964 I-0.0611 J0.0132
G3 X0.8127 Y0.9097 I0.4143 J-0.1126
G3 X0.8358 Y0.9281 I-0.0133 J0.0405
G3 X0.8761 Y1.035 I-0.4787 J0.2415
G2 X0.8768 Y1.0375 I0.0605 J-0.0157
G3 X0.9114 Y1.1615 I-2.489 J0.7612
G2 X0.9115 Y1.1619 I0.0606 J-0.0153
G1 X0.9894 Y1.4613
G2 X1.0499 Y1.5081 I0.0605 J-0.0157
G1 X1.5252
G2 X1.5858 Y1.4303 I0.0 J-0.0625
G1 X1.562 Y1.3363
G2 X1.4839 Y1.0656 I-4.2148 J1.0699
G2 X1.38 Y0.8011 I-1.486 J0.4309
G2 X1.3798 Y0.8005 I-0.0558 J0.0281
G2 X1.2573 Y0.6309 I-0.6269 J0.3234
G2 X1.175 Y0.5556 I-0.7187 J0.7036
G1 X1.5324
G2 X1.5057 Y0.6075 I0.2323 J0.1525
G2 X1.4731 Y0.8488 I0.4185 J0.1793
G2 X1.5035 Y1.0451 I1.1643 J-0.0796
G2 X1.5483 Y1.2313 I3.0957 J-0.6472
G1 X1.6779 Y1.7295
G2 X1.7458 Y1.9536 I2.2469 J-0.5577
G2 X1.8397 Y2.1686 I1.1747 J-0.3851
G2 X2.0242 Y2.3894 I0.6705 J-0.373
G0 Z0.125
G0 X2.3384 Y2.0055
G1 F10.0 Z-0.75
G2 F30.0 X2.3172 Y1.9198 I-1.9744 J0.4444
G3 X2.317 Y1.9193 I0.0603 J-0.0164
G1 X2.0822 Y1.0211
G3 X2.082 Y1.0204 I0.0605 J-0.0158
G2 X2.0591 Y0.9397 I-1.2619 J0.3147
G3 X2.0583 Y0.9369 I0.0595 J-0.019
G2 X2.0566 Y0.9308 I-0.2754 J0.0739
G2 X2.0754 Y1.008 I1.5612 J-0.3401
G3 X2.0756 Y1.0086 I-0.0603 J0.0163
G1 X2.3047 Y1.8877
G3 X2.3048 Y1.888 I-0.0605 J0.0158
G2 X2.3313 Y1.9812 I1.7962 J-0.4593
G3 X2.3321 Y1.984 I-0.0597 J0.0186
G2 X2.3384 Y2.0055 I0.3419 J-0.0892
G0 Z0.125
G0 X4.0999 Y1.8119
G1 F10.0 Z-0.75
G1 F30.0 X4.1166 Y1.8759
G3 X4.1167 Y1.8763 I-0.0605 J0.0158
G2 X4.1444 Y1.9764 I2.4829 J-0.632
G3 X4.1451 Y1.9791 I-0.0599 J0.0179
G2 X4.1538 Y2.0091 I0.4269 J-0.1072
G2 X4.1526 Y2.0044 I-0.3492 J0.091
G3 X4.1518 Y2.0012 I0.0603 J-0.0166
G2 X4.129 Y1.908 I-1.9696 J0.4308
G3 X4.1289 Y1.9075 I0.0604 J-0.0162
G1 X4.1039 Y1.8119
G1 X4.0999
G0 Z0.125
G0 X5.8419 Y1.3566
G1 F10.0 Z-0.75
G1 F30.0 X5.8785 Y1.4968
G2 X5.881 Y1.4959 I-0.0255 J-0.0788
G2 X5.879 Y1.4715 I-0.0901 J-0.0048
G3 X5.878 Y1.466 I0.061 J-0.0136
G2 X5.8685 Y1.412 I-0.6103 J0.0795
G3 X5.8683 Y1.4111 I0.061 J-0.0136
G2 X5.8413 Y1.2994 I-1.6745 J0.3452
G3 X5.8411 Y1.2984 I0.0602 J-0.0167
G1 X5.6478 Y0.5556
G1 X5.6325
G1 X5.8419 Y1.3566
G0 Z0.125
G0 X6.0141 Y2.0177
G1 F10.0 Z-0.75
G1 F30.0 X6.1131 Y2.3945
G2 X6.1167 Y2.3925 I-0.0103 J-0.0225
G3 X6.1168 Y2.3874 I0.0625 J-0.0018
G2 X6.1154 Y2.3621 I-0.1208 J-0.0063
G3 X6.1151 Y2.3598 I0.0617 J-0.0098
G2 X6.1023 Y2.2964 I-0.4036 J0.0486
G3 X6.1018 Y2.2948 I0.0601 J-0.0172
G1 X6.068 Y2.1642
G3 X6.0674 Y2.162 I0.0605 J-0.0157
G2 X6.0206 Y2.0288 I-0.5682 J0.1251
G3 X6.0199 Y2.0273 I0.056 J-0.0277
G2 X6.0141 Y2.0177 I-0.0477 J0.0221
G0 Z0.125
G0 X7.1103 Y1.7577
G1 F10.0 Z-0.75
G1 F30.0 X7.1406 Y1.8745
G3 X7.1407 Y1.8747 I-0.0605 J0.0157
G2 X7.1685 Y1.9748 I2.5647 J-0.6596
G3 X7.1692 Y1.9773 I-0.0599 J0.0179
G2 X7.1947 Y2.0509 I0.4556 J-0.1164
G2 X7.1937 Y2.045 I-0.1097 J0.0155
G3 X7.1931 Y2.0412 I0.0613 J-0.012
G2 X7.1853 Y1.9963 I-0.5591 J0.0739
G3 X7.1851 Y1.9955 I0.0611 J-0.0132
G2 X7.1632 Y1.9021 I-1.4501 J0.2914
G3 X7.1628 Y1.9008 I0.0603 J-0.0163
G2 X7.1399 Y1.822 I-0.961 J0.2371
G3 X7.139 Y1.819 I0.0592 J-0.0199
G2 X7.1144 Y1.7618 I-0.2284 J0.0642
G2 X7.1103 Y1.7577 I-0.0567 J0.0537
G0 Z0.125
G0 X6.9829 Y1.2126
G1 F10.0 Z-0.75
G1 F30.0 X6.9362 Y1.0343
G3 X6.936 Y1.0338 I0.0605 J-0.0158
G2 X6.9107 Y0.9436 I-1.7351 J0.4392
G3 X6.9098 Y0.9406 I0.0597 J-0.0185
G2 X6.8866 Y0.8776 I-0.3147 J0.0804
G2 X6.8878 Y0.8842 I0.1299 J-0.0203
G3 X6.8884 Y0.8876 I-0.0612 J0.0128
G2 X6.8968 Y0.9323 I0.6486 J-0.0986
G3 X6.8969 Y0.933 I-0.061 J0.0137
G2 X6.9192 Y1.0257 I1.6789 J-0.3552
G3 X6.92 Y1.029 I-0.0603 J0.0163
G2 X6.9829 Y1.2126 I0.7876 J-0.167
G0 Z0.125
G0 X6.8724 Y0.4306
G1 F10.0 Z-0.75
G1 F30.0 X7.3161
G0 Z0.125
G0 X9.7869 Y0.5556
G1 F10.0 Z-0.75
G1 F30.0 X10.1097 Y1.7938
G3 Y1.794 I-0.0605 J0.0158
G2 X10.1468 Y1.9292 I4.1082 J-1.0526
G3 X10.1474 Y1.9314 I-0.06 J0.0175
G2 X10.1787 Y2.0278 I0.7367 J-0.1862
G2 X10.1675 Y1.9776 I-1.6161 J0.3347
G3 X10.1674 Y1.9773 I0.0608 J-0.0146
G2 X10.1377 Y1.8577 I-4.2778 J0.9974
G3 Y1.8576 I0.0604 J-0.0159
G1 X9.7977 Y0.5556
G1 X9.7869
G0 Z0.125
G0 X10.9674 Y0.675
G1 F10.0 Z-0.75
G3 F30.0 X11.0137 Y0.6928 I-0.1492 J0.4595
G3 X11.017 Y0.6944 I-0.0253 J0.0571
G3 X11.0361 Y0.7045 I-0.3596 J0.698
G2 X11.0171 Y0.6412 I-1.032 J0.2742
G3 X11.0162 Y0.6381 I0.0593 J-0.0198
G2 X10.9906 Y0.5782 I-0.2366 J0.0655
G2 X10.9751 Y0.5675 I-0.0316 J0.0292
G2 X10.9822 Y0.6112 I0.1372 J0.0001
G3 X10.9674 Y0.675 I-0.0593 J0.0199
G0 Z0.125
G0 X11.1439 Y1.1694
G1 F10.0 Z-0.75
G3 F30.0 X11.1447 Y1.1728 I-0.0603 J0.0163
G2 X11.1639 Y1.2533 I1.4716 J-0.3093
G3 X11.164 Y1.2536 I-0.0604 J0.0162
G1 X11.3356 Y1.9081
G3 X11.3359 Y1.9092 I-0.0605 J0.0158
G2 X11.3589 Y1.9895 I1.0059 J-0.2455
G3 X11.3598 Y1.9924 I-0.0593 J0.0197
G2 X11.3733 Y2.0293 I0.2445 J-0.068
G2 X11.372 Y2.0247 I-0.2613 J0.0683
G3 X11.3711 Y2.0211 I0.0602 J-0.0169
G2 X11.3514 Y1.9403 I-1.6261 J0.3533
G3 X11.3513 Y1.9398 I0.0603 J-0.0163
G1 X11.1933 Y1.3367
G3 X11.1931 Y1.336 I0.0605 J-0.0158
G2 X11.1638 Y1.2302 I-2.211 J0.5554
G3 X11.1631 Y1.2278 I0.0598 J-0.0181
G2 X11.1439 Y1.1694 I-0.4637 J0.1203
G0 Z0.125
G0 X10.5945 Y1.3132
G1 F10.0 Z-0.75
G1 F30.0 X10.7663 Y1.9699
G2 X10.8398 Y2.1927 I1.3269 J-0.3141
G2 X10.9603 Y2.3948 I0.6327 J-0.2402
G2 X10.9631 Y2.3978 I0.0473 J-0.0408
G2 X11.27 Y2.5382 I0.3374 J-0.3322
G2 X11.2764 Y2.5383 I0.004 J-0.0624
G2 X11.4534 Y2.4807 I-0.0128 J-0.3404
G2 X11.4576 Y2.4777 I-0.0348 J-0.0519
G2 X11.5049 Y2.431 I-0.202 J-0.2527
G1 X11.5225 Y2.4676
G2 X11.5788 Y2.5031 I0.0563 J-0.027
G1 X12.0033
G2 X12.0638 Y2.4248 I0.0 J-0.0625
G1 X11.6721 Y0.925
G2 X11.6189 Y0.7262 I-9.9262 J2.5503
G2 X11.5576 Y0.5265 I-2.2975 J0.5956
G2 X11.5571 Y0.5251 I-0.0589 J0.0209
G2 X11.4937 Y0.4095 I-0.4555 J0.1744
G2 X11.4189 Y0.3182 I-0.7024 J0.4995
G2 X11.4182 Y0.3175 I-0.0455 J0.0428
G2 X11.1749 Y0.1521 I-0.5222 J0.5067
G2 X11.1728 Y0.1513 I-0.024 J0.0577
G2 X11.0099 Y0.107 I-0.3255 J0.8752
G2 X11.0074 Y0.1066 I-0.0109 J0.0615
G2 X10.8448 Y0.0945 I-0.1808 J1.3352
G2 X10.8436 I-0.0008 J0.0625
G2 X10.7297 Y0.1019 I0.0057 J0.9762
G1 X0.1806
G2 X0.1181 Y0.1644 I0.0 J0.0625
G1 Y0.4931
G2 X0.1806 Y0.5556 I0.0625 J0.0
G1 X0.2878
G2 X0.2175 Y0.8174 I0.2845 J0.2167
G2 X0.2293 Y0.9565 I0.9345 J-0.0095
G2 X0.3134 Y1.3535 I2.8123 J-0.3879
G1 X0.4949 Y2.0467
G2 X0.5482 Y2.2424 I5.7532 J-1.4627
G2 X0.6107 Y2.437 I2.3219 J-0.6382
G2 X0.7677 Y2.7045 I0.7863 J-0.2818
G2 X1.0212 Y2.9056 I0.6377 J-0.5435
G2 X1.0244 Y2.9071 I0.0287 J-0.0555
G2 X1.3383 Y2.9814 I0.3537 J-0.7937
G2 X1.3423 Y2.9815 I0.0029 J-0.0624
G2 X1.5209 Y2.9593 I-0.0154 J-0.8533
G2 X1.5248 Y2.9583 I-0.0142 J-0.0609
G2 X1.7008 Y2.8603 I-0.1376 J-0.4542
G2 X1.702 Y2.8591 I-0.0413 J-0.0469
G2 X1.7968 Y2.7251 I-0.2721 J-0.2928
G2 X1.8327 Y2.5481 I-0.3267 J-0.1584
G2 X1.8234 Y2.4146 I-0.7705 J-0.0137
G2 X1.7457 Y2.0424 I-2.506 J0.3289
G1 X1.6872 Y1.8187
G2 X1.6268 Y1.772 I-0.0605 J0.0158
G1 X1.1515
G2 X1.091 Y1.8504 I0.0 J0.0625
G1 X1.1994 Y2.2627
G1 Y2.2628
G3 X1.2253 Y2.3707 I-2.3983 J0.6322
G2 X1.2254 Y2.3713 I0.0611 J-0.0132
G3 X1.2358 Y2.424 I-0.9052 J0.2049
G2 X1.2364 Y2.4274 I0.0617 J-0.0102
G3 X1.2401 Y2.4527 I-0.1593 J0.0358
G3 X1.2132 Y2.4326 I0.0131 J-0.0456
G3 X1.1756 Y2.3317 I0.5059 J-0.2457
G2 X1.175 Y2.3294 I-0.0604 J0.0161
G3 X1.1421 Y2.2123 I2.383 J-0.7332
G2 X1.142 Y2.212 I-0.0606 J0.0154
G1 X0.8541 Y1.1084
G2 X0.854 Y1.1079 I-0.0605 J0.0158
G3 X0.8277 Y0.9996 I2.1824 J-0.5867
G2 X0.8269 Y0.9964 I-0.0611 J0.0132
G3 X0.8127 Y0.9097 I0.4143 J-0.1126
G3 X0.8358 Y0.9281 I-0.0133 J0.0405
G3 X0.8761 Y1.035 I-0.4787 J0.2415
G2 X0.8768 Y1.0375 I0.0605 J-0.0157
G3 X0.9114 Y1.1615 I-2.489 J0.7612
G2 X0.9115 Y1.1619 I0.0606 J-0.0153
G1 X0.9894 Y1.4613
G2 X1.0499 Y1.5081 I0.0605 J-0.0157
G1 X1.5252
G2 X1.5858 Y1.4303 I0.0 J-0.0625
G1 X1.562 Y1.3363
G2 X1.4839 Y1.0656 I-4.2148 J1.0699
G2 X1.38 Y0.8011 I-1.486 J0.4309
G2 X1.3798 Y0.8005 I-0.0558 J0.0281
G2 X1.2573 Y0.6309 I-0.6269 J0.3234
G2 X1.175 Y0.5556 I-0.7187 J0.7036
G1 X1.5324
G2 X1.5057 Y0.6075 I0.2323 J0.1525
G2 X1.4731 Y0.8488 I0.4185 J0.1793
G2 X1.5035 Y1.0451 I1.1643 J-0.0796
G2 X1.5483 Y1.2313 I3.0957 J-0.6472
G1 X1.6779 Y1.7295
G2 X1.7458 Y1.9536 I2.2469 J-0.5577
G2 X1.8397 Y2.1686 I1.1747 J-0.3851
G2 X2.0867 Y2.4355 I0.6705 J-0.373
G2 X2.0907 Y2.4379 I0.0345 J-0.0521
G2 X2.4436 Y2.5382 I0.3875 J-0.6919
G2 X2.4473 Y2.5383 I0.0027 J-0.0624
G2 X2.5836 Y2.5251 I-0.0131 J-0.8462
G2 X2.5868 Y2.5244 I-0.011 J-0.0615
G2 X2.7248 Y2.4698 I-0.1162 J-0.4947
G2 X2.7267 Y2.4686 I-0.0313 J-0.0541
G2 X2.8147 Y2.3955 I-0.2254 J-0.361
G2 X2.8817 Y2.2842 I-0.2371 J-0.2184
G2 X2.9162 Y2.0602 I-0.4197 J-0.1794
G2 X2.8923 Y1.895 I-0.8976 J0.0458
G2 X2.8556 Y1.7406 I-2.438 J0.4979
G1 X2.7315 Y1.2641
G2 X2.6759 Y1.0659 I-4.1825 J1.0673
G2 X2.6067 Y0.8695 I-1.608 J0.4561
G2 X2.4485 Y0.6227 I-0.7802 J0.3259
G2 X2.3792 Y0.5556 I-0.543 J0.4917
G1 X2.5674
G1 X3.1761 Y2.8849
G2 X3.2366 Y2.9316 I0.0605 J-0.0158
G1 X3.7062
G2 X3.7667 Y2.8533 I0.0 J-0.0625
G1 X3.1662 Y0.5556
G1 X3.3755
G2 X3.33 Y0.6366 I0.2528 J0.195
G2 X3.294 Y0.8744 I0.4158 J0.1847
G2 X3.3199 Y1.0502 I1.0463 J-0.0645
G2 X3.3591 Y1.2165 I2.619 J-0.529
G1 X3.5079 Y1.7838
G2 X3.5756 Y1.9999 I1.7155 J-0.4185
G2 X3.6734 Y2.2034 I0.9678 J-0.3398
G2 X3.928 Y2.4508 I0.611 J-0.3742
G2 X3.9311 Y2.4525 I0.0311 J-0.0542
G2 X4.2548 Y2.5382 I0.3685 J-0.7374
G2 X4.2593 Y2.5383 I0.0034 J-0.0624
G2 X4.4235 Y2.5182 I-0.0141 J-0.7947
G2 X4.4274 Y2.5171 I-0.014 J-0.0609
G2 X4.5901 Y2.4279 I-0.1268 J-0.4242
G2 X4.7216 Y2.13 I-0.2403 J-0.284
G2 X4.7032 Y1.8946 I-0.8696 J-0.0506
G2 X4.655 Y1.6744 I-2.0975 J0.3438
G1 X4.5874 Y1.4165
G2 X4.5269 Y1.3699 I-0.0605 J0.0159
G1 X3.9847
G1 X3.8863 Y0.9953
G2 Y0.9951 I-0.0604 J0.0159
G3 X3.8676 Y0.9151 I1.2984 J-0.3457
G2 X3.8674 Y0.9143 I-0.0613 J0.0124
G3 X3.8607 Y0.8763 I0.491 J-0.1058
G2 X3.8602 Y0.8729 I-0.0619 J0.0084
G3 X3.8716 Y0.8848 I-0.0249 J0.0353
G3 X3.9049 Y0.9646 I-0.3061 J0.1745
G2 X3.9057 Y0.9672 I0.0602 J-0.0168
G3 X3.9334 Y1.0642 I-1.2481 J0.409
G2 X3.9336 Y1.0653 I0.0607 J-0.0149
G1 X4.0014 Y1.3221
G2 X4.0618 Y1.3686 I0.0604 J-0.0159
G1 X4.4942
G2 X4.5546 Y1.29 I0.0 J-0.0625
G1 X4.5165 Y1.1475
G2 X4.4241 Y0.8604 I-1.6054 J0.3585
G2 X4.4238 Y0.8597 I-0.0575 J0.0245
G2 X4.3557 Y0.7392 I-0.641 J0.2827
G2 X4.2776 Y0.6375 I-0.9567 J0.6539
G2 X4.1968 Y0.5556 I-0.577 J0.4885
G1 X5.0281
G1 X5.6368 Y2.8849
G2 X5.6972 Y2.9316 I0.0605 J-0.0158
G1 X6.0337
G2 X6.0338 I0.0 J-0.0625
G2 X6.2597 Y2.9267 I-0.0155 J-5.8543
G2 X6.2606 Y2.9266 I-0.0026 J-0.0624
G2 X6.375 Y2.9178 I-0.1422 J-2.5812
G2 X6.3758 Y2.9177 I-0.0062 J-0.0622
G2 X6.4949 Y2.8959 I-0.101 J-0.8905
G2 X6.4998 Y2.8945 I-0.0153 J-0.0606
G2 X6.6894 Y2.6769 I-0.0931 J-0.2725
G2 X6.7043 Y2.5487 I-0.3673 J-0.1075
G2 X6.6864 Y2.3712 I-0.8487 J-0.0042
G2 X6.6496 Y2.2047 I-1.6734 J0.2828
G2 X6.587 Y2.0025 I-1.7918 J0.4438
G2 X6.5453 Y1.9038 I-0.8698 J0.3095
G2 X6.4867 Y1.8088 I-0.4236 J0.1954
G2 X6.4849 Y1.8066 I-0.0489 J0.0389
G2 X6.361 Y1.7126 I-0.2887 J0.2521
G2 X6.3713 Y1.7024 I-0.2031 J-0.2175
G2 X6.4141 Y1.6359 I-0.1375 J-0.1354
G2 X6.4423 Y1.4636 I-0.2842 J-0.1351
G2 X6.4257 Y1.3672 I-0.7128 J0.0734
G2 X6.3616 Y1.1038 I-5.6247 J1.2289
G1 X6.2184 Y0.5556
G1 X6.3202
G2 X6.3028 Y0.6292 I0.1889 J0.0835
G2 X6.3087 Y0.7944 I0.491 J0.0652
G2 X6.3402 Y0.9439 I1.1503 J-0.1643
G1 X6.3817 Y1.1027
G2 X6.4351 Y1.2689 I1.1564 J-0.2798
G2 X6.526 Y1.4263 I0.4557 J-0.1583
G2 X6.529 Y1.4295 I0.0473 J-0.0409
G2 X6.6116 Y1.4971 I0.3717 J-0.3701
G2 X6.6133 Y1.4982 I0.0344 J-0.0522
G2 X6.8512 Y1.6237 I1.0703 J-1.7394
G1 X6.5992
G2 X6.5387 Y1.7019 I0.0 J0.0625
G1 X6.5725 Y1.8321
G2 X6.629 Y2.018 I1.7086 J-0.4181
G2 X6.7102 Y2.1964 I0.8721 J-0.2892
G2 X6.8207 Y2.3348 I0.5412 J-0.3188
G2 X6.8209 Y2.335 I0.0429 J-0.0455
G2 X6.9479 Y2.4343 I0.6308 J-0.676
G2 X6.9496 Y2.4353 I0.0341 J-0.0524
G2 X7.1296 Y2.5144 I0.3906 J-0.6449
G2 X7.1333 Y2.5154 I0.0175 J-0.06
G2 X7.3192 Y2.5383 I0.2075 J-0.9171
G2 X7.3215 I0.0014 J-0.0625
G2 X7.5006 Y2.5186 I-0.013 J-0.944
G2 X7.5043 Y2.5177 I-0.0127 J-0.0612
G2 X7.597 Y2.4825 I-0.1333 J-0.4894
G2 X7.5991 Y2.4813 I-0.0278 J-0.056
G2 X7.6869 Y2.4114 I-0.1565 J-0.2864
G2 X7.7751 Y2.0965 I-0.2394 J-0.2369
G2 X7.747 Y1.9319 I-1.4711 J0.1664
G2 X7.6316 Y1.4544 I-8.1114 J1.708
G1 X7.397 Y0.5556
G1 X7.5837
G2 X7.5188 Y0.7848 I0.2886 J0.2055
G2 X7.5405 Y1.0197 I0.9284 J0.0328
G2 X7.5899 Y1.2402 I2.2507 J-0.3887
G1 X7.7342 Y1.7926
G2 X7.7929 Y1.9903 I2.1093 J-0.5192
G2 X7.8756 Y2.1819 I0.9798 J-0.3094
G2 X7.8761 Y2.1827 I0.0546 J-0.0305
G2 X7.9892 Y2.3259 I0.5439 J-0.3134
G2 X7.9893 Y2.326 I0.0429 J-0.0455
G2 X8.1195 Y2.4283 I0.6539 J-0.6982
G2 X8.1221 Y2.4299 I0.0342 J-0.0523
G2 X8.4811 Y2.5382 I0.4029 J-0.6862
G2 X8.4858 Y2.5383 I0.0034 J-0.0624
G2 X8.6457 Y2.5162 I-0.0147 J-0.6946
G2 X8.6499 Y2.5149 I-0.0157 J-0.0605
G2 X8.8053 Y2.4238 I-0.1405 J-0.4177
G2 X8.8062 Y2.4229 I-0.042 J-0.0463
G2 X8.8949 Y2.2952 I-0.2585 J-0.2742
G2 X8.9286 Y2.1288 I-0.3208 J-0.1515
G2 X8.9058 Y1.9015 I-0.9346 J-0.0212
G2 X8.8574 Y1.6886 I-2.2713 J0.4046
G2 X8.7972 Y1.6428 I-0.0602 J0.0167
G1 X8.3671
G2 X8.3066 Y1.7211 I0.0 J0.0625
G1 X8.3653 Y1.9457
G2 X8.3655 Y1.9462 I0.0605 J-0.0158
G3 X8.3827 Y2.0199 I-1.0474 J0.2837
G2 X8.3836 Y2.0238 I0.0613 J-0.0121
G3 X8.3845 Y2.0274 I-0.2022 J0.0537
G3 X8.375 Y1.9981 I0.2802 J-0.1075
G2 X8.3742 Y1.9953 I-0.0603 J0.0163
G3 X8.3509 Y1.9144 I1.3663 J-0.4367
G2 X8.3508 Y1.914 I-0.0605 J0.0155
G1 X8.1103 Y0.9953
G2 X8.1101 Y0.9944 I-0.0605 J0.0158
G3 X8.0951 Y0.9246 I0.57 J-0.159
G2 X8.0943 Y0.9204 I-0.0618 J0.0094
G3 X8.0904 Y0.8759 I0.165 J-0.037
G3 X8.0966 Y0.8848 I-0.0264 J0.0251
G2 X8.0973 Y0.8862 I0.056 J-0.0277
G3 X8.1322 Y0.9738 I-0.3917 J0.2067
G2 X8.1329 Y0.9761 I0.0602 J-0.0168
G3 X8.162 Y1.0778 I-1.562 J0.5019
G2 X8.1622 Y1.0784 I0.0606 J-0.0152
G1 X8.2231 Y1.3103
G2 X8.2836 Y1.3569 I0.0604 J-0.0159
G1 X8.69
G2 X8.7506 Y1.2794 I0.0 J-0.0625
G2 X8.6439 Y0.9229 I-3.7078 J0.9156
G2 X8.5775 Y0.7839 I-0.6741 J0.2367
G2 X8.4963 Y0.6657 I-0.9242 J0.548
G2 X8.3911 Y0.5556 I-0.623 J0.4898
G1 X8.5683
G1 X9.0641 Y2.4564
G2 X9.1246 Y2.5031 I0.0605 J-0.0158
G1 X9.1292
G2 X9.0958 Y2.5753 I0.027 J0.0564
G1 X9.177 Y2.885
G2 X9.2375 Y2.9316 I0.0605 J-0.0159
G1 X9.7071
G2 X9.7676 Y2.8532 I0.0 J-0.0625
G1 X9.6863 Y2.5436
G2 X9.6258 Y2.497 I-0.0605 J0.0159
G1 X9.6212
G2 X9.6547 Y2.4248 I-0.027 J-0.0564
G1 X9.1671 Y0.5556
G1 X9.2016
G1 X9.6974 Y2.4564
G2 X9.7579 Y2.5031 I0.0605 J-0.0158
G1 X10.2219
G2 X10.2806 Y2.4622 I0.0 J-0.0625
G2 X10.2962 Y2.4731 I0.4126 J-0.5712
G2 X10.3002 Y2.4756 I0.0352 J-0.0516
G2 X10.5069 Y2.5382 I0.2372 J-0.4112
G2 X10.5122 Y2.5383 I0.004 J-0.0624
G2 X10.6201 Y2.5217 I-0.0088 J-0.4172
G2 X10.6246 Y2.5202 I-0.0175 J-0.06
G2 X10.7314 Y2.4442 I-0.0895 J-0.2387
G2 X10.7942 Y2.2138 I-0.2106 J-0.1812
G2 X10.7631 Y2.0234 I-1.142 J0.0889
G2 X10.7192 Y1.8419 I-3.6517 J0.7878
G1 X10.383 Y0.5556
G1 X10.4006
G2 X10.4202 Y0.6476 I0.7937 J-0.1209
G2 X10.4804 Y0.6936 I0.0603 J-0.0166
G1 X10.6693
G2 X10.6151 Y0.7335 I0.1487 J0.2584
G2 X10.615 Y0.7336 I0.0425 J0.0458
G2 X10.5308 Y0.95 I0.1828 J0.1958
G2 X10.5472 Y1.1126 I0.6831 J0.0128
G2 X10.5815 Y1.2637 I1.6312 J-0.2903
G1 X10.5945 Y1.3132
G0 Z0.125
M5
M30
