( Made using CamBam - http://www.cambam.co.uk )
( clockgearset2 12/24/2011 12:05:04 PM )
( T3 : 0.125 )
G20 G90
G0 Z0.125
( T3 : 0.125 )
T3 M6
( Profile7 )
G17
M3 S1000
G0 X0.5219 Y0.5284
G1 F10.0 Z-0.02
G2 F30.0 X0.5436 Y0.5141 I0.0062 J-0.0142
G2 X0.5203 Y0.5007 I-0.0155 J0.0
G2 Y0.5276 I0.0077 J0.0134
G2 X0.5219 Y0.5284 I0.0078 J-0.0134
G1 F10.0 Z-0.04
G2 F30.0 X0.5436 Y0.5141 I0.0062 J-0.0142
G2 X0.5203 Y0.5007 I-0.0155 J0.0
G2 Y0.5276 I0.0077 J0.0134
G2 X0.5219 Y0.5284 I0.0078 J-0.0134
G1 F10.0 Z-0.06
G2 F30.0 X0.5436 Y0.5141 I0.0062 J-0.0142
G2 X0.5203 Y0.5007 I-0.0155 J0.0
G2 Y0.5276 I0.0077 J0.0134
G2 X0.5219 Y0.5284 I0.0078 J-0.0134
G1 F10.0 Z-0.08
G2 F30.0 X0.5436 Y0.5141 I0.0062 J-0.0142
G2 X0.5203 Y0.5007 I-0.0155 J0.0
G2 Y0.5276 I0.0077 J0.0134
G2 X0.5219 Y0.5284 I0.0078 J-0.0134
G1 F10.0 Z-0.1
G2 F30.0 X0.5436 Y0.5141 I0.0062 J-0.0142
G2 X0.5203 Y0.5007 I-0.0155 J0.0
G2 Y0.5276 I0.0077 J0.0134
G2 X0.5219 Y0.5284 I0.0078 J-0.0134
G1 F10.0 Z-0.12
G2 F30.0 X0.5436 Y0.5141 I0.0062 J-0.0142
G2 X0.5203 Y0.5007 I-0.0155 J0.0
G2 Y0.5276 I0.0077 J0.0134
G2 X0.5219 Y0.5284 I0.0078 J-0.0134
G1 F10.0 Z-0.14
G2 F30.0 X0.5436 Y0.5141 I0.0062 J-0.0142
G2 X0.5203 Y0.5007 I-0.0155 J0.0
G2 Y0.5276 I0.0077 J0.0134
G2 X0.5219 Y0.5284 I0.0078 J-0.0134
G1 F10.0 Z-0.16
G2 F30.0 X0.5436 Y0.5141 I0.0062 J-0.0142
G2 X0.5203 Y0.5007 I-0.0155 J0.0
G2 Y0.5276 I0.0077 J0.0134
G2 X0.5219 Y0.5284 I0.0078 J-0.0134
G1 F10.0 Z-0.18
G2 F30.0 X0.5436 Y0.5141 I0.0062 J-0.0142
G2 X0.5203 Y0.5007 I-0.0155 J0.0
G2 Y0.5276 I0.0077 J0.0134
G2 X0.5219 Y0.5284 I0.0078 J-0.0134
G1 F10.0 Z-0.2
G2 F30.0 X0.5436 Y0.5141 I0.0062 J-0.0142
G2 X0.5203 Y0.5007 I-0.0155 J0.0
G2 Y0.5276 I0.0077 J0.0134
G2 X0.5219 Y0.5284 I0.0078 J-0.0134
G1 F10.0 Z-0.22
G2 F30.0 X0.5436 Y0.5141 I0.0062 J-0.0142
G2 X0.5203 Y0.5007 I-0.0155 J0.0
G2 Y0.5276 I0.0077 J0.0134
G2 X0.5219 Y0.5284 I0.0078 J-0.0134
G1 F10.0 Z-0.23
G2 F30.0 X0.5436 Y0.5141 I0.0062 J-0.0142
G2 X0.5203 Y0.5007 I-0.0155 J0.0
G2 Y0.5276 I0.0077 J0.0134
G2 X0.5219 Y0.5284 I0.0078 J-0.0134
G0 Z0.125
G0 X0.6444 Y0.8101
G1 F10.0 Z-0.02
G1 F30.0 X0.6579 Y0.8777
G3 X0.6589 Y0.8852 I-0.0613 J0.0122
G3 X0.539 Y1.0572 I-0.1656 J0.0123
G3 X0.5046 I-0.0172 J-0.0601
G3 X0.3847 Y0.8852 I0.0458 J-0.1596
G3 X0.3858 Y0.8777 I0.0623 J0.0046
G1 X0.3992 Y0.8101
G1 X0.3609 Y0.8674
G3 X0.3563 Y0.8735 I-0.052 J-0.0347
G3 X0.15 Y0.9103 I-0.1258 J-0.1084
G3 X0.1256 Y0.886 I0.0303 J-0.0547
G3 X0.1625 Y0.6796 I0.1453 J-0.0805
G3 X0.1686 Y0.675 I0.0408 J0.0473
G1 X0.2258 Y0.6367
G1 X0.1583 Y0.6502
G3 X0.1507 Y0.6512 I-0.0122 J-0.0613
G3 X-0.0212 Y0.5314 I-0.0123 J-0.1656
G3 Y0.4969 I0.0601 J-0.0172
G3 X0.1507 Y0.3771 I0.1596 J0.0458
G3 X0.1583 Y0.3781 I-0.0046 J0.0623
G1 X0.2258 Y0.3915
G1 X0.1686 Y0.3533
G3 X0.1625 Y0.3486 I0.0347 J-0.052
G3 X0.1256 Y0.1423 I0.1084 J-0.1258
G3 X0.15 Y0.118 I0.0547 J0.0303
G3 X0.3563 Y0.1548 I0.0805 J0.1453
G3 X0.3609 Y0.1609 I-0.0473 J0.0408
G1 X0.3992 Y0.2182
G1 X0.3858 Y0.1506
G3 X0.3847 Y0.143 I0.0613 J-0.0122
G3 X0.5046 Y-0.0289 I0.1656 J-0.0123
G3 X0.539 I0.0172 J0.0601
G3 X0.6589 Y0.143 I-0.0458 J0.1596
G3 X0.6579 Y0.1506 I-0.0623 J-0.0046
G1 X0.6444 Y0.2182
G1 X0.6827 Y0.1609
G3 X0.6873 Y0.1548 I0.052 J0.0347
G3 X0.8936 Y0.118 I0.1258 J0.1084
G3 X0.918 Y0.1423 I-0.0303 J0.0547
G3 X0.8811 Y0.3486 I-0.1453 J0.0805
G3 X0.8751 Y0.3533 I-0.0408 J-0.0473
G1 X0.8178 Y0.3915
G1 X0.8854 Y0.3781
G3 X0.8929 Y0.3771 I0.0122 J0.0613
G3 X1.0649 Y0.4969 I0.0123 J0.1656
G3 Y0.5314 I-0.0601 J0.0172
G3 X0.8929 Y0.6512 I-0.1596 J-0.0458
G3 X0.8854 Y0.6502 I0.0046 J-0.0623
G1 X0.8178 Y0.6367
G1 X0.8751 Y0.675
G3 X0.8811 Y0.6796 I-0.0347 J0.052
G3 X0.918 Y0.886 I-0.1084 J0.1258
G3 X0.8936 Y0.9103 I-0.0547 J-0.0303
G3 X0.6873 Y0.8735 I-0.0805 J-0.1453
G3 X0.6827 Y0.8674 I0.0473 J-0.0408
G1 X0.6444 Y0.8101
G1 F10.0 Z-0.04
G1 F30.0 X0.6579 Y0.8777
G3 X0.6589 Y0.8852 I-0.0613 J0.0122
G3 X0.539 Y1.0572 I-0.1656 J0.0123
G3 X0.5046 I-0.0172 J-0.0601
G3 X0.3847 Y0.8852 I0.0458 J-0.1596
G3 X0.3858 Y0.8777 I0.0623 J0.0046
G1 X0.3992 Y0.8101
G1 X0.3609 Y0.8674
G3 X0.3563 Y0.8735 I-0.052 J-0.0347
G3 X0.15 Y0.9103 I-0.1258 J-0.1084
G3 X0.1256 Y0.886 I0.0303 J-0.0547
G3 X0.1625 Y0.6796 I0.1453 J-0.0805
G3 X0.1686 Y0.675 I0.0408 J0.0473
G1 X0.2258 Y0.6367
G1 X0.1583 Y0.6502
G3 X0.1507 Y0.6512 I-0.0122 J-0.0613
G3 X-0.0212 Y0.5314 I-0.0123 J-0.1656
G3 Y0.4969 I0.0601 J-0.0172
G3 X0.1507 Y0.3771 I0.1596 J0.0458
G3 X0.1583 Y0.3781 I-0.0046 J0.0623
G1 X0.2258 Y0.3915
G1 X0.1686 Y0.3533
G3 X0.1625 Y0.3486 I0.0347 J-0.052
G3 X0.1256 Y0.1423 I0.1084 J-0.1258
G3 X0.15 Y0.118 I0.0547 J0.0303
G3 X0.3563 Y0.1548 I0.0805 J0.1453
G3 X0.3609 Y0.1609 I-0.0473 J0.0408
G1 X0.3992 Y0.2182
G1 X0.3858 Y0.1506
G3 X0.3847 Y0.143 I0.0613 J-0.0122
G3 X0.5046 Y-0.0289 I0.1656 J-0.0123
G3 X0.539 I0.0172 J0.0601
G3 X0.6589 Y0.143 I-0.0458 J0.1596
G3 X0.6579 Y0.1506 I-0.0623 J-0.0046
G1 X0.6444 Y0.2182
G1 X0.6827 Y0.1609
G3 X0.6873 Y0.1548 I0.052 J0.0347
G3 X0.8936 Y0.118 I0.1258 J0.1084
G3 X0.918 Y0.1423 I-0.0303 J0.0547
G3 X0.8811 Y0.3486 I-0.1453 J0.0805
G3 X0.8751 Y0.3533 I-0.0408 J-0.0473
G1 X0.8178 Y0.3915
G1 X0.8854 Y0.3781
G3 X0.8929 Y0.3771 I0.0122 J0.0613
G3 X1.0649 Y0.4969 I0.0123 J0.1656
G3 Y0.5314 I-0.0601 J0.0172
G3 X0.8929 Y0.6512 I-0.1596 J-0.0458
G3 X0.8854 Y0.6502 I0.0046 J-0.0623
G1 X0.8178 Y0.6367
G1 X0.8751 Y0.675
G3 X0.8811 Y0.6796 I-0.0347 J0.052
G3 X0.918 Y0.886 I-0.1084 J0.1258
G3 X0.8936 Y0.9103 I-0.0547 J-0.0303
G3 X0.6873 Y0.8735 I-0.0805 J-0.1453
G3 X0.6827 Y0.8674 I0.0473 J-0.0408
G1 X0.6444 Y0.8101
G1 F10.0 Z-0.06
G1 F30.0 X0.6579 Y0.8777
G3 X0.6589 Y0.8852 I-0.0613 J0.0122
G3 X0.539 Y1.0572 I-0.1656 J0.0123
G3 X0.5046 I-0.0172 J-0.0601
G3 X0.3847 Y0.8852 I0.0458 J-0.1596
G3 X0.3858 Y0.8777 I0.0623 J0.0046
G1 X0.3992 Y0.8101
G1 X0.3609 Y0.8674
G3 X0.3563 Y0.8735 I-0.052 J-0.0347
G3 X0.15 Y0.9103 I-0.1258 J-0.1084
G3 X0.1256 Y0.886 I0.0303 J-0.0547
G3 X0.1625 Y0.6796 I0.1453 J-0.0805
G3 X0.1686 Y0.675 I0.0408 J0.0473
G1 X0.2258 Y0.6367
G1 X0.1583 Y0.6502
G3 X0.1507 Y0.6512 I-0.0122 J-0.0613
G3 X-0.0212 Y0.5314 I-0.0123 J-0.1656
G3 Y0.4969 I0.0601 J-0.0172
G3 X0.1507 Y0.3771 I0.1596 J0.0458
G3 X0.1583 Y0.3781 I-0.0046 J0.0623
G1 X0.2258 Y0.3915
G1 X0.1686 Y0.3533
G3 X0.1625 Y0.3486 I0.0347 J-0.052
G3 X0.1256 Y0.1423 I0.1084 J-0.1258
G3 X0.15 Y0.118 I0.0547 J0.0303
G3 X0.3563 Y0.1548 I0.0805 J0.1453
G3 X0.3609 Y0.1609 I-0.0473 J0.0408
G1 X0.3992 Y0.2182
G1 X0.3858 Y0.1506
G3 X0.3847 Y0.143 I0.0613 J-0.0122
G3 X0.5046 Y-0.0289 I0.1656 J-0.0123
G3 X0.539 I0.0172 J0.0601
G3 X0.6589 Y0.143 I-0.0458 J0.1596
G3 X0.6579 Y0.1506 I-0.0623 J-0.0046
G1 X0.6444 Y0.2182
G1 X0.6827 Y0.1609
G3 X0.6873 Y0.1548 I0.052 J0.0347
G3 X0.8936 Y0.118 I0.1258 J0.1084
G3 X0.918 Y0.1423 I-0.0303 J0.0547
G3 X0.8811 Y0.3486 I-0.1453 J0.0805
G3 X0.8751 Y0.3533 I-0.0408 J-0.0473
G1 X0.8178 Y0.3915
G1 X0.8854 Y0.3781
G3 X0.8929 Y0.3771 I0.0122 J0.0613
G3 X1.0649 Y0.4969 I0.0123 J0.1656
G3 Y0.5314 I-0.0601 J0.0172
G3 X0.8929 Y0.6512 I-0.1596 J-0.0458
G3 X0.8854 Y0.6502 I0.0046 J-0.0623
G1 X0.8178 Y0.6367
G1 X0.8751 Y0.675
G3 X0.8811 Y0.6796 I-0.0347 J0.052
G3 X0.918 Y0.886 I-0.1084 J0.1258
G3 X0.8936 Y0.9103 I-0.0547 J-0.0303
G3 X0.6873 Y0.8735 I-0.0805 J-0.1453
G3 X0.6827 Y0.8674 I0.0473 J-0.0408
G1 X0.6444 Y0.8101
G1 F10.0 Z-0.08
G1 F30.0 X0.6579 Y0.8777
G3 X0.6589 Y0.8852 I-0.0613 J0.0122
G3 X0.539 Y1.0572 I-0.1656 J0.0123
G3 X0.5046 I-0.0172 J-0.0601
G3 X0.3847 Y0.8852 I0.0458 J-0.1596
G3 X0.3858 Y0.8777 I0.0623 J0.0046
G1 X0.3992 Y0.8101
G1 X0.3609 Y0.8674
G3 X0.3563 Y0.8735 I-0.052 J-0.0347
G3 X0.15 Y0.9103 I-0.1258 J-0.1084
G3 X0.1256 Y0.886 I0.0303 J-0.0547
G3 X0.1625 Y0.6796 I0.1453 J-0.0805
G3 X0.1686 Y0.675 I0.0408 J0.0473
G1 X0.2258 Y0.6367
G1 X0.1583 Y0.6502
G3 X0.1507 Y0.6512 I-0.0122 J-0.0613
G3 X-0.0212 Y0.5314 I-0.0123 J-0.1656
G3 Y0.4969 I0.0601 J-0.0172
G3 X0.1507 Y0.3771 I0.1596 J0.0458
G3 X0.1583 Y0.3781 I-0.0046 J0.0623
G1 X0.2258 Y0.3915
G1 X0.1686 Y0.3533
G3 X0.1625 Y0.3486 I0.0347 J-0.052
G3 X0.1256 Y0.1423 I0.1084 J-0.1258
G3 X0.15 Y0.118 I0.0547 J0.0303
G3 X0.3563 Y0.1548 I0.0805 J0.1453
G3 X0.3609 Y0.1609 I-0.0473 J0.0408
G1 X0.3992 Y0.2182
G1 X0.3858 Y0.1506
G3 X0.3847 Y0.143 I0.0613 J-0.0122
G3 X0.5046 Y-0.0289 I0.1656 J-0.0123
G3 X0.539 I0.0172 J0.0601
G3 X0.6589 Y0.143 I-0.0458 J0.1596
G3 X0.6579 Y0.1506 I-0.0623 J-0.0046
G1 X0.6444 Y0.2182
G1 X0.6827 Y0.1609
G3 X0.6873 Y0.1548 I0.052 J0.0347
G3 X0.8936 Y0.118 I0.1258 J0.1084
G3 X0.918 Y0.1423 I-0.0303 J0.0547
G3 X0.8811 Y0.3486 I-0.1453 J0.0805
G3 X0.8751 Y0.3533 I-0.0408 J-0.0473
G1 X0.8178 Y0.3915
G1 X0.8854 Y0.3781
G3 X0.8929 Y0.3771 I0.0122 J0.0613
G3 X1.0649 Y0.4969 I0.0123 J0.1656
G3 Y0.5314 I-0.0601 J0.0172
G3 X0.8929 Y0.6512 I-0.1596 J-0.0458
G3 X0.8854 Y0.6502 I0.0046 J-0.0623
G1 X0.8178 Y0.6367
G1 X0.8751 Y0.675
G3 X0.8811 Y0.6796 I-0.0347 J0.052
G3 X0.918 Y0.886 I-0.1084 J0.1258
G3 X0.8936 Y0.9103 I-0.0547 J-0.0303
G3 X0.6873 Y0.8735 I-0.0805 J-0.1453
G3 X0.6827 Y0.8674 I0.0473 J-0.0408
G1 X0.6444 Y0.8101
G1 F10.0 Z-0.1
G1 F30.0 X0.6579 Y0.8777
G3 X0.6589 Y0.8852 I-0.0613 J0.0122
G3 X0.539 Y1.0572 I-0.1656 J0.0123
G3 X0.5046 I-0.0172 J-0.0601
G3 X0.3847 Y0.8852 I0.0458 J-0.1596
G3 X0.3858 Y0.8777 I0.0623 J0.0046
G1 X0.3992 Y0.8101
G1 X0.3609 Y0.8674
G3 X0.3563 Y0.8735 I-0.052 J-0.0347
G3 X0.15 Y0.9103 I-0.1258 J-0.1084
G3 X0.1256 Y0.886 I0.0303 J-0.0547
G3 X0.1625 Y0.6796 I0.1453 J-0.0805
G3 X0.1686 Y0.675 I0.0408 J0.0473
G1 X0.2258 Y0.6367
G1 X0.1583 Y0.6502
G3 X0.1507 Y0.6512 I-0.0122 J-0.0613
G3 X-0.0212 Y0.5314 I-0.0123 J-0.1656
G3 Y0.4969 I0.0601 J-0.0172
G3 X0.1507 Y0.3771 I0.1596 J0.0458
G3 X0.1583 Y0.3781 I-0.0046 J0.0623
G1 X0.2258 Y0.3915
G1 X0.1686 Y0.3533
G3 X0.1625 Y0.3486 I0.0347 J-0.052
G3 X0.1256 Y0.1423 I0.1084 J-0.1258
G3 X0.15 Y0.118 I0.0547 J0.0303
G3 X0.3563 Y0.1548 I0.0805 J0.1453
G3 X0.3609 Y0.1609 I-0.0473 J0.0408
G1 X0.3992 Y0.2182
G1 X0.3858 Y0.1506
G3 X0.3847 Y0.143 I0.0613 J-0.0122
G3 X0.5046 Y-0.0289 I0.1656 J-0.0123
G3 X0.539 I0.0172 J0.0601
G3 X0.6589 Y0.143 I-0.0458 J0.1596
G3 X0.6579 Y0.1506 I-0.0623 J-0.0046
G1 X0.6444 Y0.2182
G1 X0.6827 Y0.1609
G3 X0.6873 Y0.1548 I0.052 J0.0347
G3 X0.8936 Y0.118 I0.1258 J0.1084
G3 X0.918 Y0.1423 I-0.0303 J0.0547
G3 X0.8811 Y0.3486 I-0.1453 J0.0805
G3 X0.8751 Y0.3533 I-0.0408 J-0.0473
G1 X0.8178 Y0.3915
G1 X0.8854 Y0.3781
G3 X0.8929 Y0.3771 I0.0122 J0.0613
G3 X1.0649 Y0.4969 I0.0123 J0.1656
G3 Y0.5314 I-0.0601 J0.0172
G3 X0.8929 Y0.6512 I-0.1596 J-0.0458
G3 X0.8854 Y0.6502 I0.0046 J-0.0623
G1 X0.8178 Y0.6367
G1 X0.8751 Y0.675
G3 X0.8811 Y0.6796 I-0.0347 J0.052
G3 X0.918 Y0.886 I-0.1084 J0.1258
G3 X0.8936 Y0.9103 I-0.0547 J-0.0303
G3 X0.6873 Y0.8735 I-0.0805 J-0.1453
G3 X0.6827 Y0.8674 I0.0473 J-0.0408
G1 X0.6444 Y0.8101
G1 F10.0 Z-0.12
G1 F30.0 X0.6579 Y0.8777
G3 X0.6589 Y0.8852 I-0.0613 J0.0122
G3 X0.539 Y1.0572 I-0.1656 J0.0123
G3 X0.5046 I-0.0172 J-0.0601
G3 X0.3847 Y0.8852 I0.0458 J-0.1596
G3 X0.3858 Y0.8777 I0.0623 J0.0046
G1 X0.3992 Y0.8101
G1 X0.3609 Y0.8674
G3 X0.3563 Y0.8735 I-0.052 J-0.0347
G3 X0.15 Y0.9103 I-0.1258 J-0.1084
G3 X0.1256 Y0.886 I0.0303 J-0.0547
G3 X0.1625 Y0.6796 I0.1453 J-0.0805
G3 X0.1686 Y0.675 I0.0408 J0.0473
G1 X0.2258 Y0.6367
G1 X0.1583 Y0.6502
G3 X0.1507 Y0.6512 I-0.0122 J-0.0613
G3 X-0.0212 Y0.5314 I-0.0123 J-0.1656
G3 Y0.4969 I0.0601 J-0.0172
G3 X0.1507 Y0.3771 I0.1596 J0.0458
G3 X0.1583 Y0.3781 I-0.0046 J0.0623
G1 X0.2258 Y0.3915
G1 X0.1686 Y0.3533
G3 X0.1625 Y0.3486 I0.0347 J-0.052
G3 X0.1256 Y0.1423 I0.1084 J-0.1258
G3 X0.15 Y0.118 I0.0547 J0.0303
G3 X0.3563 Y0.1548 I0.0805 J0.1453
G3 X0.3609 Y0.1609 I-0.0473 J0.0408
G1 X0.3992 Y0.2182
G1 X0.3858 Y0.1506
G3 X0.3847 Y0.143 I0.0613 J-0.0122
G3 X0.5046 Y-0.0289 I0.1656 J-0.0123
G3 X0.539 I0.0172 J0.0601
G3 X0.6589 Y0.143 I-0.0458 J0.1596
G3 X0.6579 Y0.1506 I-0.0623 J-0.0046
G1 X0.6444 Y0.2182
G1 X0.6827 Y0.1609
G3 X0.6873 Y0.1548 I0.052 J0.0347
G3 X0.8936 Y0.118 I0.1258 J0.1084
G3 X0.918 Y0.1423 I-0.0303 J0.0547
G3 X0.8811 Y0.3486 I-0.1453 J0.0805
G3 X0.8751 Y0.3533 I-0.0408 J-0.0473
G1 X0.8178 Y0.3915
G1 X0.8854 Y0.3781
G3 X0.8929 Y0.3771 I0.0122 J0.0613
G3 X1.0649 Y0.4969 I0.0123 J0.1656
G3 Y0.5314 I-0.0601 J0.0172
G3 X0.8929 Y0.6512 I-0.1596 J-0.0458
G3 X0.8854 Y0.6502 I0.0046 J-0.0623
G1 X0.8178 Y0.6367
G1 X0.8751 Y0.675
G3 X0.8811 Y0.6796 I-0.0347 J0.052
G3 X0.918 Y0.886 I-0.1084 J0.1258
G3 X0.8936 Y0.9103 I-0.0547 J-0.0303
G3 X0.6873 Y0.8735 I-0.0805 J-0.1453
G3 X0.6827 Y0.8674 I0.0473 J-0.0408
G1 X0.6444 Y0.8101
G1 F10.0 Z-0.14
G1 F30.0 X0.6579 Y0.8777
G3 X0.6589 Y0.8852 I-0.0613 J0.0122
G3 X0.539 Y1.0572 I-0.1656 J0.0123
G3 X0.5046 I-0.0172 J-0.0601
G3 X0.3847 Y0.8852 I0.0458 J-0.1596
G3 X0.3858 Y0.8777 I0.0623 J0.0046
G1 X0.3992 Y0.8101
G1 X0.3609 Y0.8674
G3 X0.3563 Y0.8735 I-0.052 J-0.0347
G3 X0.15 Y0.9103 I-0.1258 J-0.1084
G3 X0.1256 Y0.886 I0.0303 J-0.0547
G3 X0.1625 Y0.6796 I0.1453 J-0.0805
G3 X0.1686 Y0.675 I0.0408 J0.0473
G1 X0.2258 Y0.6367
G1 X0.1583 Y0.6502
G3 X0.1507 Y0.6512 I-0.0122 J-0.0613
G3 X-0.0212 Y0.5314 I-0.0123 J-0.1656
G3 Y0.4969 I0.0601 J-0.0172
G3 X0.1507 Y0.3771 I0.1596 J0.0458
G3 X0.1583 Y0.3781 I-0.0046 J0.0623
G1 X0.2258 Y0.3915
G1 X0.1686 Y0.3533
G3 X0.1625 Y0.3486 I0.0347 J-0.052
G3 X0.1256 Y0.1423 I0.1084 J-0.1258
G3 X0.15 Y0.118 I0.0547 J0.0303
G3 X0.3563 Y0.1548 I0.0805 J0.1453
G3 X0.3609 Y0.1609 I-0.0473 J0.0408
G1 X0.3992 Y0.2182
G1 X0.3858 Y0.1506
G3 X0.3847 Y0.143 I0.0613 J-0.0122
G3 X0.5046 Y-0.0289 I0.1656 J-0.0123
G3 X0.539 I0.0172 J0.0601
G3 X0.6589 Y0.143 I-0.0458 J0.1596
G3 X0.6579 Y0.1506 I-0.0623 J-0.0046
G1 X0.6444 Y0.2182
G1 X0.6827 Y0.1609
G3 X0.6873 Y0.1548 I0.052 J0.0347
G3 X0.8936 Y0.118 I0.1258 J0.1084
G3 X0.918 Y0.1423 I-0.0303 J0.0547
G3 X0.8811 Y0.3486 I-0.1453 J0.0805
G3 X0.8751 Y0.3533 I-0.0408 J-0.0473
G1 X0.8178 Y0.3915
G1 X0.8854 Y0.3781
G3 X0.8929 Y0.3771 I0.0122 J0.0613
G3 X1.0649 Y0.4969 I0.0123 J0.1656
G3 Y0.5314 I-0.0601 J0.0172
G3 X0.8929 Y0.6512 I-0.1596 J-0.0458
G3 X0.8854 Y0.6502 I0.0046 J-0.0623
G1 X0.8178 Y0.6367
G1 X0.8751 Y0.675
G3 X0.8811 Y0.6796 I-0.0347 J0.052
G3 X0.918 Y0.886 I-0.1084 J0.1258
G3 X0.8936 Y0.9103 I-0.0547 J-0.0303
G3 X0.6873 Y0.8735 I-0.0805 J-0.1453
G3 X0.6827 Y0.8674 I0.0473 J-0.0408
G1 X0.6444 Y0.8101
G1 F10.0 Z-0.16
G1 F30.0 X0.6579 Y0.8777
G3 X0.6589 Y0.8852 I-0.0613 J0.0122
G3 X0.539 Y1.0572 I-0.1656 J0.0123
G3 X0.5046 I-0.0172 J-0.0601
G3 X0.3847 Y0.8852 I0.0458 J-0.1596
G3 X0.3858 Y0.8777 I0.0623 J0.0046
G1 X0.3992 Y0.8101
G1 X0.3609 Y0.8674
G3 X0.3563 Y0.8735 I-0.052 J-0.0347
G3 X0.15 Y0.9103 I-0.1258 J-0.1084
G3 X0.1256 Y0.886 I0.0303 J-0.0547
G3 X0.1625 Y0.6796 I0.1453 J-0.0805
G3 X0.1686 Y0.675 I0.0408 J0.0473
G1 X0.2258 Y0.6367
G1 X0.1583 Y0.6502
G3 X0.1507 Y0.6512 I-0.0122 J-0.0613
G3 X-0.0212 Y0.5314 I-0.0123 J-0.1656
G3 Y0.4969 I0.0601 J-0.0172
G3 X0.1507 Y0.3771 I0.1596 J0.0458
G3 X0.1583 Y0.3781 I-0.0046 J0.0623
G1 X0.2258 Y0.3915
G1 X0.1686 Y0.3533
G3 X0.1625 Y0.3486 I0.0347 J-0.052
G3 X0.1256 Y0.1423 I0.1084 J-0.1258
G3 X0.15 Y0.118 I0.0547 J0.0303
G3 X0.3563 Y0.1548 I0.0805 J0.1453
G3 X0.3609 Y0.1609 I-0.0473 J0.0408
G1 X0.3992 Y0.2182
G1 X0.3858 Y0.1506
G3 X0.3847 Y0.143 I0.0613 J-0.0122
G3 X0.5046 Y-0.0289 I0.1656 J-0.0123
G3 X0.539 I0.0172 J0.0601
G3 X0.6589 Y0.143 I-0.0458 J0.1596
G3 X0.6579 Y0.1506 I-0.0623 J-0.0046
G1 X0.6444 Y0.2182
G1 X0.6827 Y0.1609
G3 X0.6873 Y0.1548 I0.052 J0.0347
G3 X0.8936 Y0.118 I0.1258 J0.1084
G3 X0.918 Y0.1423 I-0.0303 J0.0547
G3 X0.8811 Y0.3486 I-0.1453 J0.0805
G3 X0.8751 Y0.3533 I-0.0408 J-0.0473
G1 X0.8178 Y0.3915
G1 X0.8854 Y0.3781
G3 X0.8929 Y0.3771 I0.0122 J0.0613
G3 X1.0649 Y0.4969 I0.0123 J0.1656
G3 Y0.5314 I-0.0601 J0.0172
G3 X0.8929 Y0.6512 I-0.1596 J-0.0458
G3 X0.8854 Y0.6502 I0.0046 J-0.0623
G1 X0.8178 Y0.6367
G1 X0.8751 Y0.675
G3 X0.8811 Y0.6796 I-0.0347 J0.052
G3 X0.918 Y0.886 I-0.1084 J0.1258
G3 X0.8936 Y0.9103 I-0.0547 J-0.0303
G3 X0.6873 Y0.8735 I-0.0805 J-0.1453
G3 X0.6827 Y0.8674 I0.0473 J-0.0408
G1 X0.6444 Y0.8101
G1 F10.0 Z-0.18
G1 F30.0 X0.6579 Y0.8777
G3 X0.6589 Y0.8852 I-0.0613 J0.0122
G3 X0.539 Y1.0572 I-0.1656 J0.0123
G3 X0.5046 I-0.0172 J-0.0601
G3 X0.3847 Y0.8852 I0.0458 J-0.1596
G3 X0.3858 Y0.8777 I0.0623 J0.0046
G1 X0.3992 Y0.8101
G1 X0.3609 Y0.8674
G3 X0.3563 Y0.8735 I-0.052 J-0.0347
G3 X0.15 Y0.9103 I-0.1258 J-0.1084
G3 X0.1256 Y0.886 I0.0303 J-0.0547
G3 X0.1625 Y0.6796 I0.1453 J-0.0805
G3 X0.1686 Y0.675 I0.0408 J0.0473
G1 X0.2258 Y0.6367
G1 X0.1583 Y0.6502
G3 X0.1507 Y0.6512 I-0.0122 J-0.0613
G3 X-0.0212 Y0.5314 I-0.0123 J-0.1656
G3 Y0.4969 I0.0601 J-0.0172
G3 X0.1507 Y0.3771 I0.1596 J0.0458
G3 X0.1583 Y0.3781 I-0.0046 J0.0623
G1 X0.2258 Y0.3915
G1 X0.1686 Y0.3533
G3 X0.1625 Y0.3486 I0.0347 J-0.052
G3 X0.1256 Y0.1423 I0.1084 J-0.1258
G3 X0.15 Y0.118 I0.0547 J0.0303
G3 X0.3563 Y0.1548 I0.0805 J0.1453
G3 X0.3609 Y0.1609 I-0.0473 J0.0408
G1 X0.3992 Y0.2182
G1 X0.3858 Y0.1506
G3 X0.3847 Y0.143 I0.0613 J-0.0122
G3 X0.5046 Y-0.0289 I0.1656 J-0.0123
G3 X0.539 I0.0172 J0.0601
G3 X0.6589 Y0.143 I-0.0458 J0.1596
G3 X0.6579 Y0.1506 I-0.0623 J-0.0046
G1 X0.6444 Y0.2182
G1 X0.6827 Y0.1609
G3 X0.6873 Y0.1548 I0.052 J0.0347
G3 X0.8936 Y0.118 I0.1258 J0.1084
G3 X0.918 Y0.1423 I-0.0303 J0.0547
G3 X0.8811 Y0.3486 I-0.1453 J0.0805
G3 X0.8751 Y0.3533 I-0.0408 J-0.0473
G1 X0.8178 Y0.3915
G1 X0.8854 Y0.3781
G3 X0.8929 Y0.3771 I0.0122 J0.0613
G3 X1.0649 Y0.4969 I0.0123 J0.1656
G3 Y0.5314 I-0.0601 J0.0172
G3 X0.8929 Y0.6512 I-0.1596 J-0.0458
G3 X0.8854 Y0.6502 I0.0046 J-0.0623
G1 X0.8178 Y0.6367
G1 X0.8751 Y0.675
G3 X0.8811 Y0.6796 I-0.0347 J0.052
G3 X0.918 Y0.886 I-0.1084 J0.1258
G3 X0.8936 Y0.9103 I-0.0547 J-0.0303
G3 X0.6873 Y0.8735 I-0.0805 J-0.1453
G3 X0.6827 Y0.8674 I0.0473 J-0.0408
G1 X0.6444 Y0.8101
G1 F10.0 Z-0.2
G1 F30.0 X0.6579 Y0.8777
G3 X0.6589 Y0.8852 I-0.0613 J0.0122
G3 X0.539 Y1.0572 I-0.1656 J0.0123
G3 X0.5046 I-0.0172 J-0.0601
G3 X0.3847 Y0.8852 I0.0458 J-0.1596
G3 X0.3858 Y0.8777 I0.0623 J0.0046
G1 X0.3992 Y0.8101
G1 X0.3609 Y0.8674
G3 X0.3563 Y0.8735 I-0.052 J-0.0347
G3 X0.15 Y0.9103 I-0.1258 J-0.1084
G3 X0.1256 Y0.886 I0.0303 J-0.0547
G3 X0.1625 Y0.6796 I0.1453 J-0.0805
G3 X0.1686 Y0.675 I0.0408 J0.0473
G1 X0.2258 Y0.6367
G1 X0.1583 Y0.6502
G3 X0.1507 Y0.6512 I-0.0122 J-0.0613
G3 X-0.0212 Y0.5314 I-0.0123 J-0.1656
G3 Y0.4969 I0.0601 J-0.0172
G3 X0.1507 Y0.3771 I0.1596 J0.0458
G3 X0.1583 Y0.3781 I-0.0046 J0.0623
G1 X0.2258 Y0.3915
G1 X0.1686 Y0.3533
G3 X0.1625 Y0.3486 I0.0347 J-0.052
G3 X0.1256 Y0.1423 I0.1084 J-0.1258
G3 X0.15 Y0.118 I0.0547 J0.0303
G3 X0.3563 Y0.1548 I0.0805 J0.1453
G3 X0.3609 Y0.1609 I-0.0473 J0.0408
G1 X0.3992 Y0.2182
G1 X0.3858 Y0.1506
G3 X0.3847 Y0.143 I0.0613 J-0.0122
G3 X0.5046 Y-0.0289 I0.1656 J-0.0123
G3 X0.539 I0.0172 J0.0601
G3 X0.6589 Y0.143 I-0.0458 J0.1596
G3 X0.6579 Y0.1506 I-0.0623 J-0.0046
G1 X0.6444 Y0.2182
G1 X0.6827 Y0.1609
G3 X0.6873 Y0.1548 I0.052 J0.0347
G3 X0.8936 Y0.118 I0.1258 J0.1084
G3 X0.918 Y0.1423 I-0.0303 J0.0547
G3 X0.8811 Y0.3486 I-0.1453 J0.0805
G3 X0.8751 Y0.3533 I-0.0408 J-0.0473
G1 X0.8178 Y0.3915
G1 X0.8854 Y0.3781
G3 X0.8929 Y0.3771 I0.0122 J0.0613
G3 X1.0649 Y0.4969 I0.0123 J0.1656
G3 Y0.5314 I-0.0601 J0.0172
G3 X0.8929 Y0.6512 I-0.1596 J-0.0458
G3 X0.8854 Y0.6502 I0.0046 J-0.0623
G1 X0.8178 Y0.6367
G1 X0.8751 Y0.675
G3 X0.8811 Y0.6796 I-0.0347 J0.052
G3 X0.918 Y0.886 I-0.1084 J0.1258
G3 X0.8936 Y0.9103 I-0.0547 J-0.0303
G3 X0.6873 Y0.8735 I-0.0805 J-0.1453
G3 X0.6827 Y0.8674 I0.0473 J-0.0408
G1 X0.6444 Y0.8101
G1 F10.0 Z-0.22
G1 F30.0 X0.6579 Y0.8777
G3 X0.6589 Y0.8852 I-0.0613 J0.0122
G3 X0.539 Y1.0572 I-0.1656 J0.0123
G3 X0.5046 I-0.0172 J-0.0601
G3 X0.3847 Y0.8852 I0.0458 J-0.1596
G3 X0.3858 Y0.8777 I0.0623 J0.0046
G1 X0.3992 Y0.8101
G1 X0.3609 Y0.8674
G3 X0.3563 Y0.8735 I-0.052 J-0.0347
G3 X0.15 Y0.9103 I-0.1258 J-0.1084
G3 X0.1256 Y0.886 I0.0303 J-0.0547
G3 X0.1625 Y0.6796 I0.1453 J-0.0805
G3 X0.1686 Y0.675 I0.0408 J0.0473
G1 X0.2258 Y0.6367
G1 X0.1583 Y0.6502
G3 X0.1507 Y0.6512 I-0.0122 J-0.0613
G3 X-0.0212 Y0.5314 I-0.0123 J-0.1656
G3 Y0.4969 I0.0601 J-0.0172
G3 X0.1507 Y0.3771 I0.1596 J0.0458
G3 X0.1583 Y0.3781 I-0.0046 J0.0623
G1 X0.2258 Y0.3915
G1 X0.1686 Y0.3533
G3 X0.1625 Y0.3486 I0.0347 J-0.052
G3 X0.1256 Y0.1423 I0.1084 J-0.1258
G3 X0.15 Y0.118 I0.0547 J0.0303
G3 X0.3563 Y0.1548 I0.0805 J0.1453
G3 X0.3609 Y0.1609 I-0.0473 J0.0408
G1 X0.3992 Y0.2182
G1 X0.3858 Y0.1506
G3 X0.3847 Y0.143 I0.0613 J-0.0122
G3 X0.5046 Y-0.0289 I0.1656 J-0.0123
G3 X0.539 I0.0172 J0.0601
G3 X0.6589 Y0.143 I-0.0458 J0.1596
G3 X0.6579 Y0.1506 I-0.0623 J-0.0046
G1 X0.6444 Y0.2182
G1 X0.6827 Y0.1609
G3 X0.6873 Y0.1548 I0.052 J0.0347
G3 X0.8936 Y0.118 I0.1258 J0.1084
G3 X0.918 Y0.1423 I-0.0303 J0.0547
G3 X0.8811 Y0.3486 I-0.1453 J0.0805
G3 X0.8751 Y0.3533 I-0.0408 J-0.0473
G1 X0.8178 Y0.3915
G1 X0.8854 Y0.3781
G3 X0.8929 Y0.3771 I0.0122 J0.0613
G3 X1.0649 Y0.4969 I0.0123 J0.1656
G3 Y0.5314 I-0.0601 J0.0172
G3 X0.8929 Y0.6512 I-0.1596 J-0.0458
G3 X0.8854 Y0.6502 I0.0046 J-0.0623
G1 X0.8178 Y0.6367
G1 X0.8751 Y0.675
G3 X0.8811 Y0.6796 I-0.0347 J0.052
G3 X0.918 Y0.886 I-0.1084 J0.1258
G3 X0.8936 Y0.9103 I-0.0547 J-0.0303
G3 X0.6873 Y0.8735 I-0.0805 J-0.1453
G3 X0.6827 Y0.8674 I0.0473 J-0.0408
G1 X0.6444 Y0.8101
G1 F10.0 Z-0.23
G1 F30.0 X0.6579 Y0.8777
G3 X0.6589 Y0.8852 I-0.0613 J0.0122
G3 X0.539 Y1.0572 I-0.1656 J0.0123
G3 X0.5046 I-0.0172 J-0.0601
G3 X0.3847 Y0.8852 I0.0458 J-0.1596
G3 X0.3858 Y0.8777 I0.0623 J0.0046
G1 X0.3992 Y0.8101
G1 X0.3609 Y0.8674
G3 X0.3563 Y0.8735 I-0.052 J-0.0347
G3 X0.15 Y0.9103 I-0.1258 J-0.1084
G3 X0.1256 Y0.886 I0.0303 J-0.0547
G3 X0.1625 Y0.6796 I0.1453 J-0.0805
G3 X0.1686 Y0.675 I0.0408 J0.0473
G1 X0.2258 Y0.6367
G1 X0.1583 Y0.6502
G3 X0.1507 Y0.6512 I-0.0122 J-0.0613
G3 X-0.0212 Y0.5314 I-0.0123 J-0.1656
G3 Y0.4969 I0.0601 J-0.0172
G3 X0.1507 Y0.3771 I0.1596 J0.0458
G3 X0.1583 Y0.3781 I-0.0046 J0.0623
G1 X0.2258 Y0.3915
G1 X0.1686 Y0.3533
G3 X0.1625 Y0.3486 I0.0347 J-0.052
G3 X0.1256 Y0.1423 I0.1084 J-0.1258
G3 X0.15 Y0.118 I0.0547 J0.0303
G3 X0.3563 Y0.1548 I0.0805 J0.1453
G3 X0.3609 Y0.1609 I-0.0473 J0.0408
G1 X0.3992 Y0.2182
G1 X0.3858 Y0.1506
G3 X0.3847 Y0.143 I0.0613 J-0.0122
G3 X0.5046 Y-0.0289 I0.1656 J-0.0123
G3 X0.539 I0.0172 J0.0601
G3 X0.6589 Y0.143 I-0.0458 J0.1596
G3 X0.6579 Y0.1506 I-0.0623 J-0.0046
G1 X0.6444 Y0.2182
G1 X0.6827 Y0.1609
G3 X0.6873 Y0.1548 I0.052 J0.0347
G3 X0.8936 Y0.118 I0.1258 J0.1084
G3 X0.918 Y0.1423 I-0.0303 J0.0547
G3 X0.8811 Y0.3486 I-0.1453 J0.0805
G3 X0.8751 Y0.3533 I-0.0408 J-0.0473
G1 X0.8178 Y0.3915
G1 X0.8854 Y0.3781
G3 X0.8929 Y0.3771 I0.0122 J0.0613
G3 X1.0649 Y0.4969 I0.0123 J0.1656
G3 Y0.5314 I-0.0601 J0.0172
G3 X0.8929 Y0.6512 I-0.1596 J-0.0458
G3 X0.8854 Y0.6502 I0.0046 J-0.0623
G1 X0.8178 Y0.6367
G1 X0.8751 Y0.675
G3 X0.8811 Y0.6796 I-0.0347 J0.052
G3 X0.918 Y0.886 I-0.1084 J0.1258
G3 X0.8936 Y0.9103 I-0.0547 J-0.0303
G3 X0.6873 Y0.8735 I-0.0805 J-0.1453
G3 X0.6827 Y0.8674 I0.0473 J-0.0408
G1 X0.6444 Y0.8101
G0 Z0.125
M5
M30
