( Made using CamBam - http://www.cambam.co.uk )
( fierologo 12/10/2011 1:18:31 PM )
( T2 : 0.0625 )
( T3 : 0.125 )
G20 G90
G0 Z0.125
( T3 : 0.125 )
T3 M6
( Pocket1 )
G17
M3 S1000
G0 X1.0246 Y3.9389
G1 F10.0 Z-0.0625
G2 F30.0 X1.0628 Y3.9624 I0.2874 J-0.4242
G2 X1.0244 Y3.9866 I1.1272 J1.8349
G1 X1.0246 Y3.9389
G1 F10.0 X1.0526 Y3.8975
G2 F30.0 X1.1734 Y3.9558 I0.2593 J-0.3828
G2 X0.9741 Y4.0809 I1.0166 J1.8415
G1 X0.9748 Y3.8726
G3 X0.975 Y3.8327 I577.2146 J2.6476
G2 X1.0017 Y3.8575 I0.9064 J-0.9473
G2 X1.0526 Y3.8975 I0.3103 J-0.3428
G1 F10.0 X1.0806 Y3.8561
G2 F30.0 X1.345 Y3.9258 I0.2313 J-0.3414
G2 X0.9238 Y4.1807 I0.845 J1.8716
G1 X0.9248 Y3.8724
G3 X0.9256 Y3.7081 I577.2646 J2.6478
G2 X1.0352 Y3.8205 I0.9559 J-0.8226
G2 X1.0806 Y3.8561 I0.2767 J-0.3058
G1 F10.0 X1.1087 Y3.8147
G2 F30.0 X1.4991 Y3.825 I0.2032 J-0.3
G2 X1.6005 Y3.8831 I1.5717 J-2.6254
G2 X1.5954 Y3.8844 I3.0084 J11.184
G2 X1.5793 Y3.8892 I0.0943 J0.3499
G2 X0.8734 Y4.2872 I0.6107 J1.9081
G1 X0.8748 Y3.8722
G3 X0.8763 Y3.5611 I577.3146 J2.648
G2 X1.0688 Y3.7834 I1.0051 J-0.6757
G2 X1.1087 Y3.8147 I0.2432 J-0.2687
G1 F10.0 X1.1367 Y3.7733
G2 F30.0 X1.4978 Y3.7658 I0.1752 J-0.2586
G2 X1.7127 Y3.8856 I1.573 J-2.5661
G2 X1.7367 Y3.899 I0.1698 J-0.2776
G2 X1.6085 Y3.9327 I2.8722 J11.1681
G2 X1.5945 Y3.9368 I0.0813 J0.3016
G2 X0.823 Y4.4018 I0.5955 J1.8605
G1 X0.8248 Y3.872
G3 X0.8273 Y3.3785 I577.3646 J2.6482
G3 X0.8426 Y3.4041 I-61.8871 J37.0462
G2 X1.1023 Y3.7463 I1.0388 J-0.5186
G2 X1.1367 Y3.7733 I0.2096 J-0.2316
G1 F10.0 X1.1648 Y3.7319
G2 F30.0 X1.4935 Y3.7042 I0.1472 J-0.2173
G2 X1.7371 Y3.842 I1.5774 J-2.5046
G2 X2.0034 Y3.8555 I0.1454 J-0.2339
G2 X2.0594 Y3.8722 I0.7389 J-2.3863
G2 X1.6215 Y3.981 I2.5495 J11.1949
G2 X1.6098 Y3.9844 I0.0683 J0.2534
G2 X0.7726 Y4.5268 I0.5802 J1.8129
G1 X0.7748 Y3.8718
G3 X0.7783 Y3.1997 I577.4146 J2.6484
G3 X0.8865 Y3.3801 I-61.8381 J37.225
G2 X1.1359 Y3.7093 I0.9949 J-0.4946
G2 X1.1648 Y3.7319 I0.1761 J-0.1946
G1 F10.0 X1.1928 Y3.6905
G2 F30.0 X1.4842 Y3.6389 I0.1191 J-0.1759
G2 X1.7617 Y3.7984 I1.5866 J-2.4393
G2 X1.9983 Y3.8015 I0.1208 J-0.1903
G2 X2.285 Y3.8742 I0.744 J-2.3323
G2 X1.6345 Y4.0293 I2.3239 J11.1928
G2 X1.625 Y4.0321 I0.0553 J0.2051
G2 X0.7221 Y4.6656 I0.565 J1.7653
G1 X0.7248 Y3.8717
G3 X0.7295 Y2.992 I577.4646 J2.6486
G3 X0.7617 Y3.0694 I-1.8788 J0.8259
G2 X0.7776 Y3.1017 I0.1978 J-0.0775
G3 X0.9304 Y3.3561 I-61.8374 J37.323
G2 X1.1694 Y3.6722 I0.951 J-0.4707
G2 X1.1928 Y3.6905 I0.1425 J-0.1575
G0 Z0.125
G0 X2.5459 Y3.8246
G1 F10.0 Z-0.0625
G2 F30.0 X2.6097 Y3.8121 I-0.261 J-1.4984
G3 X2.559 Y3.8096 I0.0207 J-0.9531
G3 X2.5459 Y3.8246 I-0.1663 J-0.1322
G0 Z0.125
G0 X3.0955 Y3.5511
G1 F10.0 Z-0.0625
G2 F30.0 X3.0965 Y3.5494 I-0.3459 J-0.2098
G3 X3.0954 Y3.5499 I-3.9673 J-7.8559
G3 X3.0955 Y3.5511 I-0.2123 J0.0055
G1 F10.0 X3.1382 Y3.577
G3 F30.0 X2.9319 Y3.7577 I-0.3887 J-0.2357
G2 X2.9303 Y3.7584 I0.0651 J0.1488
G3 X2.5089 Y3.8811 I-0.6454 J-1.4322
G2 X2.502 Y3.8822 I0.0232 J0.1607
G2 X1.6475 Y4.0776 I2.1069 J11.1848
G2 X1.6402 Y4.0797 I0.0423 J0.1568
G2 X0.6716 Y4.8242 I0.5497 J1.7177
G1 X0.6748 Y3.8715
G3 X0.681 Y2.7543 I577.5146 J2.6488
G3 X0.6843 Y2.7688 I-0.1009 J0.0304
G2 X0.7018 Y2.8214 I0.1606 J-0.0244
G3 X0.8082 Y3.0512 I-1.8511 J0.9965
G2 X0.8204 Y3.0759 I0.1512 J-0.0592
G3 X0.9743 Y3.3321 I-61.8802 J37.3488
G2 X1.203 Y3.6351 I0.9071 J-0.4467
G2 X1.4554 Y3.5908 I0.109 J-0.1204
G2 X1.4669 Y3.5673 I-0.348 J-0.1846
G2 X1.7866 Y3.7549 I1.604 J-2.3677
G2 X1.9904 Y3.7464 I0.096 J-0.1468
G2 X2.3673 Y3.8378 I0.7519 J-2.2772
G2 X2.5342 Y3.7572 I0.0254 J-0.1604
G2 X2.9385 Y3.7081 I0.0962 J-0.8982
G2 X3.0418 Y3.5209 I-0.0554 J-0.1527
G2 X3.1485 Y3.4667 I-3.9126 J-7.8274
G2 X3.1957 Y3.4299 I-0.0746 J-0.1443
G2 X3.1939 Y3.4373 I0.1569 J0.0418
G3 X3.1382 Y3.577 I-0.4443 J-0.096
G0 Z0.125
G0 X3.2342 Y3.3494
G1 F10.0 Z-0.0625
G3 F30.0 X3.2786 Y3.2946 I0.2933 J0.1926
G3 X3.1696 Y3.1485 I0.3414 J-0.3683
G3 X3.1497 Y3.169 I-0.7211 J-0.6789
G3 X3.2342 Y3.3494 I-0.0857 J0.1501
G0 Z0.125
G0 X4.066 Y1.7849
G1 F10.0 Z-0.0625
G2 F30.0 X4.0612 Y1.7511 I-0.6968 J0.081
G3 X4.1161 Y1.7974 I-0.7059 J0.8939
G2 X4.066 Y1.7849 I-1.0909 J4.284
G1 F10.0 X4.0542 Y1.8335
G2 F30.0 X4.0194 Y1.8252 I-1.0289 J4.2479
G2 X3.977 Y1.6315 I-0.6502 J0.0407
G3 X4.2743 Y1.8906 I-0.6217 J1.0135
G2 X4.2321 Y1.8806 I-0.4469 J1.7922
G2 X4.0542 Y1.8335 I-1.2068 J4.2008
G1 F10.0 X4.0424 Y1.8821
G2 F30.0 X3.9706 Y1.8654 I-1.0172 J4.1993
G2 X3.8632 Y1.5229 I-0.6015 J0.0005
G2 X3.8508 Y1.5057 I-0.462 J0.3208
G3 X3.9198 Y1.542 I-7.1582 J13.6705
G2 X3.9247 Y1.5446 I0.2634 J-0.497
G3 X4.3629 Y1.924 I-0.5694 J1.1004
G3 X4.3898 Y1.976 I-1.2318 J0.6708
G2 X4.2197 Y1.929 I-0.5624 J1.7068
G2 X4.0424 Y1.8821 I-1.1944 J4.1524
G0 Z0.125
G0 X2.8871 Y1.2068
G1 F10.0 Z-0.0625
G3 F30.0 X2.696 Y1.2217 I-0.2716 J-2.2523
G3 X2.8074 Y1.1717 I7.698 J17.0144
G3 X2.8871 Y1.2068 I-6.1148 J14.0044
G1 F10.0 X2.9074 Y1.1611
G3 F30.0 X3.0577 Y1.2287 I-6.2148 J14.0151
G2 X3.0193 Y1.2377 I0.4877 J2.169
G3 X2.4738 Y1.2688 I-0.4038 J-2.2832
G3 X2.8072 Y1.1171 I7.9201 J16.9673
G3 X2.9074 Y1.1611 I-6.1146 J14.0591
G1 F10.0 X2.9276 Y1.1154
G3 F30.0 X3.2206 Y1.2489 I-6.2351 J14.0608
G2 X3.0296 Y1.2866 I0.3247 J2.1488
G3 X2.2895 Y1.3005 I-0.4141 J-2.3321
G3 X2.807 Y1.0625 I8.1044 J16.9355
G3 X2.9276 Y1.1154 I-6.1144 J14.1137
G1 F10.0 X2.9479 Y1.0697
G3 F30.0 X3.4047 Y1.2812 I-6.2553 J14.1065
G2 X3.3494 Y1.2836 I-0.0035 J0.5624
G2 X3.04 Y1.3356 I0.1959 J2.1141
G3 X2.2279 Y1.3418 I-0.4244 J-2.3811
G2 X2.2141 Y1.3368 I-0.9689 J2.6183
G2 X2.1784 Y1.2986 I-0.4282 J0.3646
G3 X2.8068 Y1.0079 I8.2155 J16.9375
G3 X2.9479 Y1.0697 I-6.1142 J14.1682
G1 F10.0 X2.9682 Y1.0239
G3 F30.0 X3.9432 Y1.4978 I-6.2756 J14.1522
G2 X3.9477 Y1.5002 I0.24 J-0.4528
G3 X4.4054 Y1.8974 I-0.5924 J1.1448
G3 X4.483 Y2.0634 I-1.2742 J0.6974
G2 X4.2073 Y1.9775 I-0.6556 J1.6194
G2 X3.9192 Y1.9053 I-1.1821 J4.1039
G2 X3.8222 Y1.5514 I-0.5501 J-0.0394
G2 X3.354 Y1.3334 I-0.4209 J0.2922
G2 X3.0503 Y1.3845 I0.1913 J2.0643
G3 X2.2151 Y1.3904 I-0.4348 J-2.43
G2 X2.1844 Y1.3792 I-0.9561 J2.5697
G2 X2.0876 Y1.2872 I-0.3984 J0.3222
G3 X2.8066 Y0.9534 I8.3063 J16.9488
G3 X2.9682 Y1.0239 I-6.114 J14.2228
G1 F10.0 X2.9884 Y0.9782
G3 F30.0 X3.9666 Y1.4537 I-6.2959 J14.1979
G2 X3.9707 Y1.4558 I0.2166 J-0.4086
G3 X4.4478 Y1.8708 I-0.6154 J1.1892
G3 X4.5682 Y2.1559 I-1.3166 J0.7239
G2 X4.195 Y2.026 I-0.7408 J1.5268
G2 X3.8644 Y1.9449 I-1.1697 J4.0554
G2 X3.7811 Y1.5799 I-0.4952 J-0.079
G2 X3.3586 Y1.3832 I-0.3798 J0.2637
G2 X3.0607 Y1.4334 I0.1867 J2.0146
G3 X2.2022 Y1.4389 I-0.4452 J-2.479
G2 X2.154 Y1.4214 I-0.9431 J2.5212
G2 X2.0224 Y1.304 I-0.368 J0.2799
G2 X1.9843 Y1.2824 I-0.5153 J0.8657
G3 X2.8064 Y0.8989 I8.4096 J16.9536
G3 X2.9884 Y0.9782 I-6.1138 J14.2772
G1 F10.0 X3.0087 Y0.9325
G3 F30.0 X3.99 Y1.4095 I-6.3161 J14.2436
G2 X3.9937 Y1.4114 I0.1932 J-0.3645
G3 X4.4902 Y1.8442 I-0.6383 J1.2336
G3 X4.6457 Y2.2534 I-1.3591 J0.7505
G2 X4.1826 Y2.0745 I-0.8183 J1.4294
G2 X3.8049 Y1.9842 I-1.1573 J4.007
G2 X3.74 Y1.6084 I-0.4357 J-0.1183
G2 X3.3632 Y1.433 I-0.3388 J0.2352
G2 X3.0712 Y1.4824 I0.1821 J1.9648
G3 X2.1891 Y1.4874 I-0.4556 J-2.5279
G2 X2.1228 Y1.4635 I-0.9301 J2.4727
G2 X1.9969 Y1.347 I-0.3369 J0.2379
G2 X1.8699 Y1.2836 I-0.4898 J0.8228
G3 X2.8062 Y0.8444 I8.524 J16.9524
G3 X3.0087 Y0.9325 I-6.1136 J14.3317
G1 F10.0 X3.029 Y0.8868
G3 F30.0 X4.0135 Y1.3653 I-6.3364 J14.2893
G2 X4.0166 Y1.367 I0.1698 J-0.3203
G3 X4.5327 Y1.8176 I-0.6613 J1.278
G3 X4.7158 Y2.3556 I-1.4015 J0.7771
G2 X4.1703 Y2.1229 I-0.8884 J1.3272
G2 X3.7387 Y2.0229 I-1.145 J3.9585
G2 X3.6989 Y1.6369 I-0.3695 J-0.157
G2 X3.3678 Y1.4828 I-0.2977 J0.2067
G2 X3.0816 Y1.5313 I0.1775 J1.915
G3 X2.176 Y1.5359 I-0.4661 J-2.5768
G2 X2.0908 Y1.5054 I-0.917 J2.4242
G2 X1.9713 Y1.39 I-0.3048 J0.196
G2 X1.741 Y1.2929 I-0.4642 J0.7798
G3 X2.8059 Y0.79 I8.6529 J16.9431
G3 X3.029 Y0.8868 I-6.1133 J14.3862
G1 F10.0 X3.0492 Y0.8411
G3 F30.0 X4.0369 Y1.3211 I-6.3567 J14.335
G2 X4.0396 Y1.3226 I0.1464 J-0.2761
G3 X4.5751 Y1.7911 I-0.6843 J1.3224
G3 X4.7784 Y2.4625 I-1.444 J0.8037
G2 X4.158 Y2.1714 I-0.951 J1.2202
G2 X3.6617 Y2.0607 I-1.1327 J3.91
G2 X3.6579 Y1.6654 I-0.2925 J-0.1948
G2 X3.3724 Y1.5325 I-0.2566 J0.1782
G2 X3.0921 Y1.5802 I0.1729 J1.8652
G3 X2.1628 Y1.5844 I-0.4766 J-2.6257
G2 X2.0575 Y1.547 I-0.9038 J2.3757
G2 X1.9457 Y1.4329 I-0.2716 J0.1544
G2 X1.6145 Y1.319 I-0.4386 J0.7368
G2 X1.5894 Y1.3148 I-0.1165 J0.6193
G3 X2.8057 Y0.7356 I8.8045 J16.9212
G3 X3.0492 Y0.8411 I-6.1131 J14.4406
G1 F10.0 X3.0695 Y0.7954
G3 F30.0 X4.0603 Y1.277 I-6.3769 J14.3807
G2 X4.0626 Y1.2782 I0.1229 J-0.2319
G3 X4.6176 Y1.7645 I-0.7073 J1.3668
G3 X4.8336 Y2.577 I-1.4864 J0.8302
G2 X4.8324 Y2.5756 I-0.9192 J0.8151
G2 X4.8083 Y2.5518 I-0.1961 J0.1744
G2 X4.1457 Y2.2199 I-0.9809 J1.1309
G2 X3.5646 Y2.097 I-1.1204 J3.8615
G2 X3.5753 Y2.0859 I-0.5945 J-0.5828
G2 X3.6168 Y1.694 I-0.2061 J-0.22
G2 X3.3771 Y1.5823 I-0.2155 J0.1497
G2 X3.1027 Y1.6291 I0.1683 J1.8154
G3 X2.1495 Y1.6328 I-0.4871 J-2.6746
G2 X2.0227 Y1.5882 I-0.8905 J2.3273
G2 X1.9201 Y1.4759 I-0.2367 J0.1132
G2 X1.6068 Y1.3684 I-0.413 J0.6939
G2 X1.3933 Y1.3677 I-0.1087 J0.5699
G3 X1.4929 Y1.3089 I0.6921 J1.0578
G3 X2.8055 Y0.6812 I8.901 J16.9272
G3 X3.0695 Y0.7954 I-6.1129 J14.4949
G0 Z0.125
G0 X0.9371 Y1.8971
G1 F10.0 Z-0.0625
G2 F30.0 X0.9716 Y2.1013 I0.6229 J-0.0004
G2 X0.8602 Y2.1157 I-0.0228 J0.2614
G3 X0.8787 Y2.0491 I2.3254 J0.611
G3 X0.9371 Y1.8971 I1.2067 J0.3764
G1 F10.0 X0.9871
G2 F30.0 X1.0588 Y2.1743 I0.5729 J-0.0004
G2 X0.9838 Y2.1531 I-0.1336 J0.3303
G2 X0.8356 Y2.183 I-0.0349 J0.2095
G2 X0.7918 Y2.185 I-0.0124 J0.212
G3 X0.8308 Y2.0346 I2.3938 J0.5417
G3 X1.4695 Y1.2647 I1.2546 J0.3909
G3 X2.8057 Y0.6266 I8.9244 J16.9714
G2 X2.8175 Y0.632 I0.0943 J-0.1904
G3 X4.0837 Y1.2328 I-6.1249 J14.5441
G2 X4.0856 Y1.2338 I0.0995 J-0.1878
G3 X4.66 Y1.7379 I-0.7302 J1.4113
G3 X4.8837 Y2.5993 I-1.5288 J0.8568
G2 X4.8838 Y2.6046 I0.2125 J0.0006
G3 X4.8863 Y2.7255 I-72.6842 J1.5978
G2 X4.7951 Y2.6089 I-0.9719 J0.6666
G2 X4.7755 Y2.5896 I-0.1587 J0.1411
G2 X4.1334 Y2.2684 I-0.9481 J1.0932
G2 X3.4487 Y2.1333 I-1.1081 J3.813
G2 X3.54 Y2.0504 I-0.4786 J-0.6191
G2 X3.5757 Y1.7225 I-0.1708 J-0.1845
G2 X3.3817 Y1.6321 I-0.1745 J0.1211
G2 X3.1133 Y1.678 I0.1636 J1.7656
G3 X2.1361 Y1.6813 I-0.4977 J-2.7235
G2 X1.9856 Y1.6289 I-0.8771 J2.2788
G2 X1.8946 Y1.5189 I-0.1997 J0.0725
G2 X1.599 Y1.4178 I-0.3875 J0.6509
G2 X1.0236 Y1.7016 I-0.1009 J0.5205
G2 X1.0097 Y1.7374 I0.1901 J0.0948
G2 X0.9871 Y1.8971 I0.5503 J0.1593
G1 F10.0 X1.0371 Y1.897
G2 F30.0 X1.1203 Y2.1798 I0.5229 J-0.0004
G2 X1.6868 Y2.7203 I1.1715 J-0.6606
G2 X1.7002 Y2.7263 I0.0731 J-0.145
G3 X1.7069 Y2.7322 I-0.0049 J0.0124
G3 X1.6295 Y2.8106 I-0.1844 J-0.1047
G2 X1.534 Y2.6445 I-0.2861 J0.054
G2 X1.29 Y2.4943 I-0.4544 J0.465
G3 X1.2195 Y2.4195 I0.0793 J-0.1455
G2 X0.9755 Y2.2025 I-0.2942 J0.085
G2 X0.8489 Y2.2347 I-0.0267 J0.1602
G2 X0.7239 Y2.2666 I-0.0257 J0.1604
G3 X0.783 Y2.0201 I2.4617 J0.4602
G3 X1.4462 Y1.2204 I1.3025 J0.4054
G3 X2.7879 Y0.5799 I8.9477 J17.0156
G2 X2.7882 Y0.5797 I-0.0643 J-0.1492
G3 X2.8261 Y0.5809 I0.0177 J0.0407
G2 X2.8369 Y0.5859 I0.0739 J-0.1447
G3 X4.1071 Y1.1886 I-6.1443 J14.5902
G2 X4.1086 Y1.1893 I0.0761 J-0.1436
G3 X4.7024 Y1.7114 I-0.7532 J1.4557
G3 X4.9337 Y2.5995 I-1.5713 J0.8833
G2 Y2.6035 I0.1625 J0.0004
G3 X4.94 Y2.9212 I-72.7342 J1.5989
G2 X4.7577 Y2.6421 I-1.0256 J0.4709
G2 X4.7428 Y2.6273 I-0.1214 J0.1079
G2 X4.1211 Y2.3169 I-0.9154 J1.0554
G2 X3.2964 Y2.17 I-1.0958 J3.7645
G2 X3.5048 Y2.0149 I-0.3263 J-0.6558
G2 X3.5347 Y1.751 I-0.1357 J-0.149
G2 X3.3863 Y1.6819 I-0.1334 J0.0926
G2 X3.1239 Y1.7269 I0.159 J1.7158
G3 X2.1226 Y1.7297 I-0.5083 J-2.7724
G2 X1.945 Y1.6688 I-0.8636 J2.2304
G2 X1.869 Y1.5618 I-0.1591 J0.0326
G2 X1.5912 Y1.4673 I-0.3619 J0.608
G2 X1.0684 Y1.724 I-0.0931 J0.4711
G2 X1.0577 Y1.7513 I0.1453 J0.0725
G2 X1.0371 Y1.897 I0.5023 J0.1454
G1 F10.0 X1.0871
G2 F30.0 X1.1632 Y2.1539 I0.4729 J-0.0003
G2 X1.7093 Y2.6757 I1.1287 J-0.6348
G2 X1.7185 Y2.6798 I0.0506 J-0.1004
G3 X1.7585 Y2.7413 I-0.0233 J0.0589
G3 X1.627 Y2.8678 I-0.236 J-0.1139
G3 X1.5843 Y2.8759 I-0.1083 J-0.4533
G2 X1.5002 Y2.6813 I-0.2409 J-0.0114
G2 X1.2702 Y2.5404 I-0.4206 J0.4282
G3 X1.1724 Y2.4369 I0.0991 J-0.1915
G2 X0.9673 Y2.2518 I-0.2472 J0.0677
G2 X0.8631 Y2.29 I-0.0185 J0.1109
G2 X0.7439 Y2.3154 I-0.0399 J0.1051
G2 X0.6468 Y2.4449 I0.3978 J0.3993
G3 X0.7351 Y2.0056 I2.5388 J0.2819
G3 X1.4228 Y1.1762 I1.3503 J0.4198
G3 X2.7681 Y0.534 I8.9711 J17.0598
G2 X2.7683 Y0.5338 I-0.0445 J-0.1033
G3 X2.8488 Y0.5364 I0.0376 J0.0866
G2 X2.8563 Y0.5399 I0.0512 J-0.1002
G3 X4.1305 Y1.1444 I-6.1638 J14.6363
G2 X4.1315 Y1.1449 I0.0527 J-0.0994
G3 X4.7449 Y1.6848 I-0.7762 J1.5001
G3 X4.9837 Y2.5996 I-1.6137 J0.9099
G2 Y2.6024 I0.1125 J0.0003
G3 X4.9957 Y3.298 I-72.7841 J1.6
G2 X4.9851 Y3.2625 I-0.2323 J0.0496
G2 X4.7203 Y2.6753 I-1.0707 J0.1296
G2 X4.71 Y2.6651 I-0.084 J0.0747
G2 X4.1088 Y2.3654 I-0.8826 J1.0176
G2 X3.1501 Y2.2127 I-1.0836 J3.716
G3 X2.9804 Y2.2035 I0.2487 J-6.1696
G2 X3.0852 Y2.1869 I-0.7166 J-4.8815
G2 X3.0855 I-0.0187 J-0.1108
G2 X3.4698 Y1.9792 I-0.1154 J-0.6727
G2 X3.4936 Y1.7795 I-0.1006 J-0.1133
G2 X3.3909 Y1.7317 I-0.0923 J0.0641
G2 X3.1345 Y1.7758 I0.1544 J1.666
G3 X2.1091 Y1.778 I-0.519 J-2.8213
G2 X1.8982 Y1.7072 I-0.85 J2.1821
G2 X1.8434 Y1.6048 I-0.1122 J-0.0058
G2 X1.5833 Y1.5167 I-0.3363 J0.565
G2 X1.1131 Y1.7463 I-0.0853 J0.4217
G2 X1.1057 Y1.7652 I0.1006 J0.0502
G2 X1.0871 Y1.897 I0.4542 J0.1315
G0 Z0.125
G0 X1.555 Y5.0846
G1 F10.0 Z-0.0625
G3 F30.0 X1.7226 Y5.0954 I-0.037 J1.8839
G3 X1.555 Y5.0846 I1.1345 J-18.9582
G0 Z0.125
G0 X4.5031 Y4.8474
G1 F10.0 Z-0.0625
G2 F30.0 X4.5576 Y4.7836 I-1.1591 J-1.0464
G2 X4.5994 Y4.7347 I-0.7986 J-0.7239
G3 X4.5985 Y4.8386 I-72.3998 J-0.5323
G3 X4.5031 Y4.8474 I-2.0067 J-21.2496
G1 F10.0 X4.5076 Y4.8972
G3 F30.0 X4.3723 Y4.9089 I-1.9157 J-21.3082
G2 X4.5197 Y4.751 I-1.0282 J-1.1079
G2 X4.6145 Y4.6295 I-0.7607 J-0.6914
G2 X4.6501 Y4.6177 I-0.1337 J-0.4636
G3 X4.6481 Y4.884 I-72.4505 J-0.4153
G3 X4.5076 Y4.8972 I-2.0562 J-21.2951
G1 F10.0 X4.5121 Y4.9469
G3 F30.0 X4.2196 Y4.9712 I-1.9202 J-21.358
G2 X4.4817 Y4.7185 I-0.8755 J-1.1703
G2 X4.5831 Y4.5861 I-0.7227 J-0.6588
G2 X4.7005 Y4.5384 I-0.1023 J-0.4202
G3 X4.6977 Y4.9294 I-72.5009 J-0.336
G3 X4.5121 Y4.9469 I-2.1058 J-21.3405
G1 F10.0 X4.5165 Y4.9967
G3 F30.0 X4.0336 Y5.0347 I-1.9247 J-21.4078
G2 X4.08 Y5.0054 I-0.1823 J-0.3408
G2 X4.4437 Y4.6859 I-0.736 J-1.2045
G2 X4.5519 Y4.5417 I-0.6847 J-0.6262
G2 X4.71 Y4.4721 I-0.0711 J-0.3758
G2 X4.7456 Y4.4416 I-0.2172 J-0.2901
G2 X4.7509 Y4.4364 I-0.8245 J-0.8467
G3 X4.7472 Y4.9748 I-72.5514 J-0.234
G3 X4.5165 Y4.9967 I-2.1553 J-21.3858
G1 F10.0 X4.521 Y5.0465
G3 F30.0 X3.4588 Y5.1156 I-1.9292 J-21.4576
G2 X3.6276 Y5.066 I-0.5959 J-2.3374
G2 X3.65 Y5.0576 I-0.099 J-0.2963
G2 X3.7401 Y5.0115 I-0.2681 J-0.6358
G2 X4.0521 Y4.9639 I0.1112 J-0.3176
G2 X4.4058 Y4.6533 I-0.708 J-1.1629
G2 X4.5208 Y4.496 I-0.6468 J-0.5936
G2 X4.68 Y4.4321 I-0.04 J-0.33
G2 X4.7107 Y4.4058 I-0.1872 J-0.2501
G2 X4.8012 Y4.3066 I-0.7896 J-0.8109
G3 X4.7967 Y5.02 I-72.6017 J-0.1042
G3 X4.521 Y5.0465 I-2.2048 J-21.431
G1 F10.0 X4.5255 Y5.0963
G3 F30.0 X3.0418 Y5.1784 I-1.9336 J-21.5074
G3 X1.0777 Y5.096 I-0.1847 J-19.0412
G3 X1.2479 Y5.0532 I0.2526 J0.6444
G2 X1.2527 Y5.0525 I-0.0312 J-0.2605
G3 X1.8164 Y5.0574 I0.2654 J1.916
G2 X1.827 Y5.0588 I0.0405 J-0.2593
G2 X2.4507 Y5.1216 I2.5482 J-22.2013
G2 X2.482 Y5.1224 I0.0226 J-0.2614
G2 X2.6642 Y5.0908 I-0.0222 J-0.668
G2 X2.8114 Y5.1398 I0.1529 J-0.2133
G2 X3.6118 Y5.0186 I0.0516 J-2.3616
G2 X3.6306 Y5.0115 I-0.0832 J-0.2489
G2 X3.7349 Y4.9556 I-0.2487 J-0.5897
G2 X3.7474 Y4.9609 I0.1077 J-0.2393
G2 X4.0241 Y4.9224 I0.1039 J-0.2669
G2 X4.3678 Y4.6207 I-0.68 J-1.1215
G2 X4.4901 Y4.4482 I-0.6088 J-0.561
G2 X4.6501 Y4.3921 I-0.0093 J-0.2823
G2 X4.6759 Y4.37 I-0.1572 J-0.2101
G2 X4.8513 Y4.1473 I-0.7547 J-0.7751
G3 X4.8462 Y5.0651 I-72.6517 J0.0551
G3 X4.5255 Y5.0963 I-2.2543 J-21.4761
G1 F10.0 X4.53 Y5.1461
G3 F30.0 X3.0425 Y5.2284 I-1.9381 J-21.5572
G3 X0.9087 Y5.1296 I-0.1854 J-19.0912
G3 X1.2419 Y5.0035 I0.4216 J0.6107
G2 X1.2458 Y5.003 I-0.0253 J-0.2109
G3 X1.8241 Y5.008 I0.2722 J1.9655
G2 X1.8327 Y5.0092 I0.0328 J-0.2099
G2 X2.4551 Y5.0718 I2.5425 J-22.1517
G2 X2.4804 Y5.0724 I0.0183 J-0.2116
G2 X2.6741 Y5.0345 I-0.0205 J-0.618
G2 X2.8125 Y5.0898 I0.143 J-0.157
G2 X3.5959 Y4.9712 I0.0505 J-2.3116
G2 X3.6111 Y4.9654 I-0.0673 J-0.2014
G2 X3.7312 Y4.8972 I-0.2293 J-0.5436
G2 X3.7655 Y4.9143 I0.1113 J-0.1809
G2 X3.9959 Y4.881 I0.0858 J-0.2204
G2 X4.3299 Y4.5881 I-0.6518 J-1.0801
G2 X4.4598 Y4.3974 I-0.5709 J-0.5284
G2 X4.6201 Y4.352 I0.021 J-0.2315
G2 X4.641 Y4.3342 I-0.1273 J-0.17
G2 X4.8867 Y3.9586 I-0.7198 J-0.7392
G2 X4.9008 Y3.9266 I-0.6272 J-0.2947
G3 X4.8956 Y5.1101 I-72.7012 J0.2757
G3 X4.53 Y5.1461 I-2.3038 J-21.5211
G1 F10.0 X4.5345 Y5.1959
G3 F30.0 X3.0433 Y5.2784 I-1.9426 J-21.6069
G3 X0.6705 Y5.154 I-0.1862 J-19.1412
G1 X0.6707 Y5.0851
G2 X0.8713 Y5.0948 I0.1064 J-0.1227
G3 X1.236 Y4.9539 I0.459 J0.6456
G2 X1.2389 Y4.9535 I-0.0193 J-0.1612
G3 X1.8318 Y4.9586 I0.2791 J2.015
G2 X1.8384 Y4.9595 I0.0251 J-0.1605
G2 X2.4594 Y5.022 I2.5368 J-22.102
G2 X2.4787 Y5.0225 I0.014 J-0.1618
G2 X2.6874 Y4.9752 I-0.0188 J-0.5681
G2 X2.8136 Y5.0399 I0.1297 J-0.0978
G2 X3.5801 Y4.9237 I0.0494 J-2.2616
G2 X3.5917 Y4.9193 I-0.0515 J-0.154
G2 X3.7307 Y4.834 I-0.2099 J-0.4976
G2 X3.7836 Y4.8677 I0.1119 J-0.1177
G2 X3.9674 Y4.8398 I0.0677 J-0.1738
G2 X4.2919 Y4.5555 I-0.6234 J-1.0388
G2 X4.4302 Y4.3412 I-0.5329 J-0.4958
G2 X4.5901 Y4.312 I0.0505 J-0.1753
G2 X4.6061 Y4.2983 I-0.0973 J-0.13
G2 X4.8406 Y3.9391 I-0.6849 J-0.7034
G2 X4.8945 Y3.563 I-0.5811 J-0.2752
G2 X4.9484 Y3.5471 I-0.0182 J-0.1614
G3 X4.9451 Y5.1551 I-72.7488 J0.6552
G3 X4.5345 Y5.1959 I-2.3532 J-21.5661
G1 F10.0 X4.5389 Y5.2457
G3 F30.0 X3.0441 Y5.3284 I-1.9471 J-21.6567
G3 X0.6203 Y5.1985 I-0.187 J-19.1912
G1 X0.6248 Y3.8713
G3 X0.6313 Y2.7029 I577.5646 J2.649
G3 X0.6341 Y2.606 I2.5542 J0.0239
G2 X0.6824 Y2.6677 I0.1513 J-0.0688
G3 X0.7337 Y2.7613 I-0.1022 J0.1169
G2 X0.7459 Y2.7977 I0.1111 J-0.0169
G3 X0.8548 Y3.033 I-1.8951 J1.0202
G2 X0.8632 Y3.0501 I0.1047 J-0.041
G3 X1.0183 Y3.3082 I-61.923 J37.3746
G2 X1.2365 Y3.598 I0.8631 J-0.4228
G2 X1.4112 Y3.5674 I0.0754 J-0.0833
G2 X1.4413 Y3.4887 I-0.3039 J-0.1611
G2 X1.8117 Y3.7116 I1.6295 J-2.2891
G2 X1.978 Y3.6894 I0.0708 J-0.1035
G2 X2.3751 Y3.7884 I0.7643 J-2.2202
G2 X2.5022 Y3.7026 I0.0176 J-0.111
G2 X2.9215 Y3.6611 I0.1281 J-0.8436
G2 X2.9788 Y3.4964 I-0.0383 J-0.1057
G2 X3.1255 Y3.4223 I-3.8495 J-7.8029
G2 X3.1803 Y3.3587 I-0.0516 J-0.0998
G2 X3.0432 Y3.198 I-0.1163 J-0.0396
G2 X3.1807 Y3.0596 I-0.5947 J-0.7284
G3 X3.2018 Y3.0984 I-0.7125 J0.4123
G2 X3.3569 Y3.2941 I0.4182 J-0.1721
G2 X3.2483 Y3.4297 I0.1706 J0.2478
G2 X3.2427 Y3.4479 I0.1043 J0.0419
G3 X2.9519 Y3.8035 I-0.4932 J-0.1066
G2 X2.9508 Y3.804 I0.0451 J0.103
G3 X2.516 Y3.9306 I-0.666 J-1.4778
G2 X2.5113 Y3.9314 I0.016 J0.1113
G2 X1.6605 Y4.1258 I2.0976 J11.1357
G2 X1.6555 Y4.1273 I0.0292 J0.1085
G2 X0.6804 Y4.9053 I0.5345 J1.67
G2 X0.8423 Y5.0541 I0.0968 J0.0572
G3 X1.23 Y4.9042 I0.488 J0.6863
G2 X1.2321 Y4.904 I-0.0134 J-0.1116
G3 X1.8396 Y4.9092 I0.2859 J2.0646
G2 X1.8441 Y4.9098 I0.0173 J-0.1111
G2 X2.4637 Y4.9721 I2.5311 J-22.0523
G2 X2.4771 Y4.9725 I0.0097 J-0.112
G2 X2.7092 Y4.9089 I-0.0172 J-0.5181
G2 X2.8146 Y4.9899 I0.1079 J-0.0314
G2 X3.5642 Y4.8763 I0.0483 J-2.2117
G2 X3.5723 Y4.8733 I-0.0356 J-0.1066
G2 X3.7382 Y4.7581 I-0.1904 J-0.4515
G2 X3.8018 Y4.8211 I0.1044 J-0.0418
G2 X3.9387 Y4.7987 I0.0495 J-0.1272
G2 X4.254 Y4.5228 I-0.5946 J-0.9978
G2 X4.4025 Y4.2728 I-0.495 J-0.4631
G2 X4.5602 Y4.272 I0.0783 J-0.1069
G2 X4.5712 Y4.2625 I-0.0674 J-0.09
G2 X4.7946 Y3.9196 I-0.65 J-0.6676
G2 X4.8307 Y3.5045 I-0.535 J-0.2557
G2 X4.8377 Y3.5072 I0.1412 J-0.3643
G2 X4.9777 Y3.4501 I0.0386 J-0.1056
G2 X4.9968 Y3.3918 I-0.2143 J-0.1024
G3 X4.9945 Y5.1999 I-72.7972 J0.8106
G3 X4.5389 Y5.2457 I-2.4026 J-21.611
G1 F10.0 X4.5434 Y5.2955
G3 F30.0 X3.0448 Y5.3784 I-1.9515 J-21.7065
G3 X0.5702 Y5.2429 I-0.1877 J-19.2412
G1 X0.5748 Y3.8711
G3 X0.5813 Y2.7025 I577.6146 J2.6492
G3 X0.6873 Y1.9911 I2.6042 J0.0243
G3 X1.3995 Y1.132 I1.3982 J0.4343
G3 X2.7483 Y0.488 I8.9944 J17.104
G2 X2.7484 I-0.0247 J-0.0574
G3 X2.8716 Y0.4918 I0.0575 J0.1324
G2 X2.8757 Y0.4938 I0.0284 J-0.0557
G3 X4.154 Y1.1002 I-6.1832 J14.6824
G2 X4.1545 Y1.1005 I0.0293 J-0.0552
G3 X4.7873 Y1.6583 I-0.7992 J1.5445
G3 X5.0337 Y2.5997 I-1.6561 J0.9364
G2 Y2.6013 I0.0625 J0.0002
G3 X5.0439 Y5.2447 I-72.8341 J1.6011
G3 X4.5434 Y5.2955 I-2.452 J-21.6557
G0 Z0.125
G0 X4.2087 Y5.7194
G1 F10.0 Z-0.0625
G1 F30.0 X4.2066 Y5.7198
G2 X4.2058 Y5.7199 I0.0189 J0.1108
G1 X4.2015 Y5.7207
G2 X4.1798 Y5.725 I0.0798 J0.4569
G2 X4.1689 Y5.7276 I0.0522 J0.2497
G2 X4.129 Y5.7397 I0.0812 J0.3389
G2 X4.0618 Y5.7762 I0.0903 J0.246
G2 X4.0603 Y5.7774 I0.0676 J0.0898
G1 X4.056 Y5.7808
G2 X4.0551 Y5.7815 I0.0691 J0.0887
G2 X4.0318 Y5.8022 I0.1791 J0.2251
G1 X4.0285 Y5.8054
G2 X4.0271 Y5.8068 I0.0788 J0.0802
G1 X4.022 Y5.812
G2 X4.0207 Y5.8134 I0.0802 J0.0787
G1 X4.0157 Y5.8186
G2 X4.0155 Y5.8188 I0.0816 J0.0773
G2 X4.0106 Y5.8241 I0.2581 J0.2435
G2 X3.9798 Y5.7796 I-0.1177 J0.0486
G2 X3.9772 Y5.7772 I-0.0767 J0.0822
G2 X3.9205 Y5.7473 I-0.091 J0.1038
G2 X3.8777 Y5.7414 I-0.0472 J0.182
G2 X3.8632 Y5.7413 I-0.0096 J0.3036
G2 X4.2087 Y5.7194 I-1.072 J-19.7232
G0 Z0.125
G0 X3.9134 Y6.0712
G1 F10.0 Z-0.0625
G1 F30.0 X3.9133 Y6.0713
G1 X3.9005 Y6.0866
G3 X3.911 Y6.0982 I-0.2032 J0.1951
G3 X3.9116 Y6.0988 I-0.0853 J0.0732
G3 Y6.0974 I1.1126 J0.0499
G3 X3.9117 Y6.0964 I0.1123 J0.0052
G1 X3.9121 Y6.0896
G3 Y6.0887 I0.1122 J0.0062
G1 X3.9123 Y6.0851
G3 X3.9134 Y6.0712 I0.644 J0.0401
G0 Z0.125
G0 X3.9534 Y6.4777
G1 F10.0 Z-0.0625
G2 F30.0 X3.9627 Y6.4883 I0.2496 J-0.21
G3 X3.9436 Y6.4894 I-0.8014 J-14.0634
G2 X3.9534 Y6.4777 I-0.2118 J-0.1875
G1 F10.0 X3.9142 Y6.4466
G2 F30.0 X3.921 Y6.4376 I-0.1824 J-0.1447
G2 X3.9212 Y6.4373 I-0.0913 J-0.0655
G2 X3.9487 Y6.3805 I-0.1533 J-0.1091
G2 X3.9489 Y6.3796 I-0.108 J-0.0313
G2 X3.9495 Y6.3777 I-0.215 J-0.0603
G2 X3.9576 Y6.3944 I0.3155 J-0.1421
G2 X4.0042 Y6.4594 I0.2454 J-0.1267
G2 X4.0045 Y6.4598 I0.0809 J-0.078
G2 X4.0722 Y6.5097 I0.1849 J-0.1798
G2 X4.0733 Y6.5103 I0.0511 J-0.1001
G1 X4.0812 Y6.5141
G2 X4.0823 Y6.5147 I0.0499 J-0.1007
G2 X4.1186 Y6.5287 I0.1038 J-0.2155
G3 X3.7861 Y6.5473 I-0.9572 J-14.1037
G2 X3.8337 Y6.5214 I-0.093 J-0.2281
G2 X3.8345 Y6.5209 I-0.0642 J-0.0923
G2 X3.8544 Y6.5056 I-0.1875 J-0.2651
G2 X3.8554 Y6.5048 I-0.0718 J-0.0865
G1 X3.8585 Y6.5021
G2 X3.8606 Y6.5003 I-0.0728 J-0.0857
G1 X3.8698 Y6.4921
G2 X3.8871 Y6.476 I-0.3553 J-0.3977
G2 X3.9028 Y6.4599 I-0.2894 J-0.2994
G2 X3.9032 Y6.4595 I-0.0824 J-0.0765
G2 X3.9142 Y6.4466 I-0.1714 J-0.1577
G0 Z0.125
G0 X3.4607 Y5.8569
G1 F10.0 Z-0.0625
G2 F30.0 X3.3523 Y5.774 I-0.1084 J0.0295
G1 X3.19
G1 X3.0277
G2 X2.9433 Y5.8122 I0.0 J0.1124
G2 X2.9194 Y5.7949 I-0.0817 J0.088
G2 X2.8845 Y5.7811 I-0.0719 J0.1307
G2 X2.8843 Y5.781 I-0.0279 J0.1089
G2 X2.8531 Y5.7751 I-0.0635 J0.2495
G2 X2.8525 Y5.775 I-0.0141 J0.1115
G1 X2.8442 Y5.774
G2 X2.8423 Y5.7738 I-0.0135 J0.1116
G2 X2.8041 Y5.7708 I-0.0773 J0.742
G2 X2.7954 Y5.7704 I-0.1214 J2.3287
G2 X3.63 Y5.7526 I-0.0042 J-19.7523
G1 X3.5957 Y5.7542
G2 X3.5161 Y5.7929 I0.0054 J0.1123
G1 X3.4607 Y5.8569
G0 Z0.125
G0 X2.9413 Y6.555
G1 F10.0 Z-0.0625
G2 F30.0 X2.942 Y6.5557 I0.0793 J-0.092
G2 X2.9425 Y6.5561 I0.0727 J-0.0857
G2 X2.9514 Y6.563 I0.086 J-0.1026
G3 X2.9331 Y6.5631 I-0.1554 J-19.091
G2 X2.9413 Y6.555 I-0.0747 J-0.084
G0 Z0.125
G0 X2.1874 Y6.5539
G1 F10.0 Z-0.0625
G3 F30.0 X2.0427 Y6.5487 I0.6087 J-19.0819
G2 X2.086 Y6.4829 I-0.0663 J-0.0908
G2 X2.0896 Y6.4865 I0.2223 J-0.217
G2 X2.0904 Y6.4873 I0.0792 J-0.0798
G2 X2.161 Y6.54 I0.2368 J-0.2436
G2 X2.1639 Y6.5416 I0.0582 J-0.1001
G2 X2.1874 Y6.5539 I0.1982 J-0.3505
G0 Z0.125
G0 X1.5742 Y6.5244
G1 F10.0 Z-0.0625
G3 F30.0 X1.5416 Y6.5223 I1.2218 J-19.0525
G2 X1.5614 Y6.5091 I-0.052 J-0.0997
G2 X1.5711 Y6.5211 I0.1109 J-0.08
G2 X1.5731 Y6.5233 I0.0832 J-0.0756
G2 X1.5742 Y6.5244 I0.0926 J-0.0888
G0 Z0.125
G0 X1.4313 Y5.877
G1 F10.0 Z-0.0625
G1 F30.0 X1.4017 Y5.8738
G2 X1.4001 Y5.8736 I-0.0228 J0.2112
G1 X1.3736 Y5.871
G2 X1.3722 Y5.8708 I-0.0212 J0.2113
G1 X1.3325 Y5.8671
G2 X1.3311 Y5.867 I-0.0198 J0.2115
G1 X1.2913 Y5.8635
G2 X1.2906 I-0.0184 J0.2116
G1 X1.2831 Y5.8628
G2 X1.2821 Y5.8476 I-1.1323 J0.0701
G2 X1.2819 Y5.8458 I-0.2118 J0.016
G1 X1.2809 Y5.8333
G2 X1.2806 Y5.8306 I-0.2117 J0.0178
G1 X1.2804 Y5.8283
G2 X1.2801 Y5.8258 I-0.2114 J0.0204
G1 X1.2792 Y5.817
G2 X1.2787 Y5.8127 I-0.2112 J0.023
G2 X1.4374 Y5.8242 I1.5125 J-19.7946
G2 X1.4336 Y5.8497 I0.2929 J0.0566
G2 X1.4335 Y5.851 I0.2112 J0.0221
G2 X1.4313 Y5.877 I0.8986 J0.0882
G1 F10.0 X1.4812 Y5.8804
G2 F30.0 X1.4801 Y5.8984 I0.8509 J0.0588
G2 X1.4793 Y5.9171 I0.6632 J0.0398
G1 X1.4787 Y5.9332
G1 X1.4731 Y5.9324
G2 X1.4714 Y5.9321 I-0.0225 J0.1608
G1 X1.4603 Y5.9307
G2 X1.4595 Y5.9306 I-0.0208 J0.1611
G2 X1.4373 Y5.928 I-0.325 J2.6241
G2 X1.4371 Y5.9279 I-0.0186 J0.1613
G1 X1.4326 Y5.9274
G2 X1.4316 Y5.9273 I-0.0184 J0.1614
G1 X1.3963 Y5.9235
G2 X1.3951 Y5.9234 I-0.0174 J0.1615
G1 X1.3686 Y5.9207
G2 X1.3676 Y5.9206 I-0.0162 J0.1616
G1 X1.3278 Y5.9169
G2 X1.3267 Y5.9168 I-0.0152 J0.1617
G1 X1.2869 Y5.9133
G2 X1.2864 I-0.0141 J0.1618
G1 X1.235 Y5.909
G2 X1.2322 Y5.8513 I-1.0842 J0.0239
G2 X1.2321 Y5.85 I-0.1619 J0.0122
G1 X1.231 Y5.8375
G2 X1.2309 Y5.8355 I-0.1618 J0.0136
G1 X1.2306 Y5.8331
G2 X1.2304 Y5.8312 I-0.1616 J0.0156
G1 X1.2295 Y5.8224
G2 X1.2291 Y5.8189 I-0.1614 J0.0176
G1 X1.2282 Y5.8124
G2 X1.2277 Y5.8086 I-0.161 J0.021
G1 X1.2269 Y5.8037
G2 X1.2263 Y5.7997 I-0.1605 J0.0247
G1 X1.2256 Y5.796
G2 X1.2252 Y5.7938 I-0.1598 J0.0288
G2 X1.2217 Y5.7785 I-0.2478 J0.0481
G2 X1.2197 Y5.7714 I-0.1572 J0.0408
G1 X1.2189 Y5.7688
G2 X1.2179 Y5.7658 I-0.1552 J0.0479
G2 X1.215 Y5.7575 I-0.1658 J0.0546
G2 X1.5069 Y5.7787 I1.5762 J-19.7395
G2 X1.4871 Y5.8305 I0.1445 J0.0849
G2 X1.4833 Y5.8549 I0.2432 J0.0502
G2 X1.4832 Y5.8559 I0.1615 J0.0169
G2 X1.4812 Y5.8804 I0.8488 J0.0833
G1 F10.0 X1.5311 Y5.8839
G2 F30.0 X1.53 Y5.9011 I0.801 J0.0553
G2 X1.5292 Y5.9189 I0.6132 J0.0371
G1 X1.5282 Y5.9476
G2 Y5.9484 I0.1123 J0.0041
G1 X1.5278 Y5.9611
G2 Y5.9614 I0.1123 J0.0034
G2 X1.5269 Y5.9952 I6.2785 J0.1685
G2 X1.5059 Y5.9886 I-0.0475 J0.1137
G2 X1.4849 Y5.9846 I-0.0557 J0.2381
G1 X1.4794 Y5.9838
G2 X1.478 Y5.9835 I-0.017 J0.1111
G1 X1.4662 Y5.9819
G2 X1.465 Y5.9817 I-0.0156 J0.1113
G1 X1.4539 Y5.9803
G2 X1.4533 Y5.9802 I-0.0144 J0.1115
G2 X1.4316 Y5.9776 I-0.3189 J2.5744
G2 X1.4315 I-0.0129 J0.1117
G1 X1.4269 Y5.9771
G2 X1.4262 Y5.977 I-0.0127 J0.1117
G1 X1.3909 Y5.9732
G2 X1.3901 Y5.9731 I-0.012 J0.1118
G1 X1.3636 Y5.9705
G2 X1.3629 Y5.9704 I-0.0112 J0.1118
G1 X1.3231 Y5.9667
G2 X1.3224 Y5.9666 I-0.0105 J0.1119
G1 X1.2826 Y5.9632
G2 X1.2823 Y5.9631 I-0.0097 J0.112
G1 X1.1855 Y5.955
G1 Y5.944
G2 Y5.9433 I-0.1124 J0.0002
G1 X1.1854 Y5.927
G2 X1.185 Y5.9105 I-0.6437 J0.0044
G2 X1.1824 Y5.8551 I-1.0342 J0.0224
G2 X1.1823 Y5.8542 I-0.1121 J0.0085
G1 X1.1812 Y5.8417
G2 X1.1811 Y5.8403 I-0.112 J0.0094
G1 X1.1809 Y5.8379
G2 X1.1807 Y5.8366 I-0.1119 J0.0108
G1 X1.1798 Y5.8278
G2 X1.1795 Y5.8254 I-0.1117 J0.0122
G1 X1.1786 Y5.8188
G2 X1.1783 Y5.8163 I-0.1115 J0.0145
G1 X1.1775 Y5.8113
G2 X1.177 Y5.8086 I-0.1111 J0.0171
G1 X1.1764 Y5.8049
G2 X1.1761 Y5.8034 I-0.1106 J0.0199
G2 X1.1733 Y5.7911 I-0.1987 J0.0386
G2 X1.1719 Y5.7862 I-0.1088 J0.0283
G1 X1.1711 Y5.7835
G2 X1.1705 Y5.7815 I-0.1074 J0.0331
G2 X1.1584 Y5.7554 I-0.1183 J0.039
G2 X1.1495 Y5.7429 I-0.0958 J0.0587
G2 X1.1103 Y5.7113 I-0.0954 J0.0781
G2 X1.087 Y5.7013 I-0.0784 J0.1507
G1 X1.0829 Y5.6999
G2 X1.0801 Y5.699 I-0.0365 J0.1063
G2 X1.0667 Y5.6949 I-0.1443 J0.4593
G2 X1.6939 Y5.7399 I1.7246 J-19.6769
G2 X1.6882 Y5.7401 I0.0384 J0.9625
G2 X1.6861 Y5.7402 I0.0051 J0.1123
G1 X1.6743 Y5.741
G2 X1.6736 I0.0073 J0.1122
G2 X1.6468 Y5.7441 I0.0231 J0.3247
G2 X1.6443 Y5.7445 I0.0173 J0.1111
G1 X1.6407 Y5.7451
G2 X1.6279 Y5.7479 I0.0229 J0.1365
G2 X1.6171 Y5.7511 I0.0303 J0.1234
G2 X1.6033 Y5.7565 I0.043 J0.1297
G2 X1.5722 Y5.7768 I0.051 J0.112
G2 X1.5556 Y5.7954 I0.075 J0.0837
G2 X1.5361 Y5.8405 I0.0957 J0.0682
G2 X1.5331 Y5.8601 I0.1942 J0.0402
G2 X1.533 Y5.8608 I0.1118 J0.0117
G2 X1.5311 Y5.8839 I0.7991 J0.0784
G0 Z0.125
G0 X1.9327 Y5.7517
G1 F10.0 Z-0.0625
G2 F30.0 X2.4437 Y5.7673 I0.8585 J-19.7337
G2 X2.4129 Y5.7676 I0.0552 J6.5714
G2 X2.4128 Y5.7677 I0.0015 J0.1124
G1 X2.4065
G2 X2.4063 I0.0016 J0.1124
G1 X2.4002 Y5.7678
G2 X2.3996 Y5.7679 I0.0018 J0.1124
G1 X2.376 Y5.7684
G2 X2.3748 I0.0024 J0.1124
G1 X2.3542 Y5.769
G2 X2.3127 Y5.7713 I0.0259 J0.8703
G2 X2.2802 Y5.7745 I0.0524 J0.6829
G2 X2.2775 Y5.7749 I0.0139 J0.1115
G1 X2.2674 Y5.7764
G2 X2.2635 Y5.7771 I0.0166 J0.1112
G1 X2.2546 Y5.7787
G2 X2.2531 Y5.779 I0.0206 J0.1105
G2 X2.2045 Y5.7932 I0.0583 J0.2904
G2 X2.2036 Y5.7935 I0.0406 J0.1048
G2 X2.1652 Y5.8112 I0.1486 J0.3741
G2 X2.1204 Y5.8379 I0.1677 J0.3325
G2 X2.0887 Y5.8632 I0.1663 J0.2407
G2 X1.9881 Y5.7575 I-0.1122 J0.0061
G1 X1.9327 Y5.7517
G0 Z0.125
G0 X0.7205 Y5.6615
G1 F10.0 Z-0.0625
G2 F30.0 X0.7106 Y5.6647 I0.0532 J0.1867
G2 X0.671 Y5.6846 I0.0535 J0.1555
G2 X0.6691 Y5.6859 I0.0636 J0.0927
G2 X0.6469 Y5.7055 I0.0862 J0.1202
G2 X0.6464 Y5.706 I0.0824 J0.0765
G2 X0.6249 Y5.7376 I0.0973 J0.0891
G3 X0.6265 Y5.6514 I33.1343 J0.5486
G2 X0.7205 Y5.6615 I2.1647 J-19.6334
G0 Z0.125
G0 X0.6207 Y6.1529
G1 F10.0 Z-0.0625
G2 F30.0 X0.6236 Y6.174 I0.5814 J-0.0697
G2 X0.6341 Y6.2263 I0.4982 J-0.0732
G2 X0.6346 Y6.228 I0.1089 J-0.028
G1 X0.6367 Y6.2357
G2 X0.6369 Y6.2363 I0.1084 J-0.0297
G2 X0.6712 Y6.3171 I0.3308 J-0.0927
G2 X0.6715 Y6.3177 I0.097 J-0.0568
G2 X0.6948 Y6.3524 I0.3285 J-0.1951
G2 X0.707 Y6.3679 I0.3476 J-0.2612
G2 X0.719 Y6.382 I0.4101 J-0.3367
G2 X0.7607 Y6.4207 I0.2074 J-0.1821
G2 X0.7619 Y6.4215 I0.0675 J-0.0899
G1 X0.7683 Y6.4262
G2 X0.7705 Y6.4277 I0.0663 J-0.0908
G2 X0.8096 Y6.4512 I0.199 J-0.2869
G2 X0.8101 Y6.4515 I0.0515 J-0.0999
G2 X0.8331 Y6.4624 I0.205 J-0.4026
G3 X0.6208 Y6.4393 I1.9629 J-18.9904
G3 X0.6207 Y6.1529 I33.1384 J-0.1531
G0 Z0.125
G0 X4.9185 Y5.7056
G1 F10.0 Z-0.0625
G3 F30.0 X4.9472 Y5.7024 I0.5058 J4.4037
G3 X4.9482 Y5.7338 I-10.0261 J0.3574
G2 X4.9356 Y5.7209 I-0.2381 J0.2201
G1 Y5.7208
G2 X4.9185 Y5.7056 I-0.1978 J0.2044
G1 F10.0 X4.9128 Y5.6559
G3 F30.0 X4.9951 Y5.6472 I0.5115 J4.4534
G3 X4.9963 Y6.4415 I-10.0741 J0.4126
G3 X4.7956 Y6.4663 I-1.835 J-14.0166
G2 X4.8249 Y6.4523 I-0.1446 J-0.3394
G2 X4.8256 Y6.452 I-0.053 J-0.0991
G2 X4.873 Y6.4197 I-0.1381 J-0.2542
G2 X4.8731 Y6.4196 I-0.0721 J-0.0862
G2 X4.9051 Y6.3879 I-0.1717 J-0.2048
G2 X4.9242 Y6.363 I-0.2251 J-0.1928
G2 X4.9247 Y6.3623 I-0.0926 J-0.0637
G2 X4.9353 Y6.3459 I-0.3797 J-0.2567
G2 X4.9363 Y6.3442 I-0.0957 J-0.0589
G2 X4.9623 Y6.2938 I-0.4276 J-0.253
G2 X4.9749 Y6.2613 I-0.2705 J-0.1233
G2 X4.9887 Y6.2087 I-0.4506 J-0.1459
G2 Y6.2085 I-0.1102 J-0.0221
G2 X5.0005 Y6.1233 I-0.7018 J-0.1402
G2 X5.0012 Y5.9971 I-0.8226 J-0.0678
G2 X5.0011 Y5.9955 I-0.1121 J0.008
G1 X4.9999 Y5.9818
G2 X4.9998 Y5.9813 I-0.112 J0.0095
G2 X4.9907 Y5.9205 I-0.514 J0.0462
G2 X4.9904 Y5.919 I-0.11 J0.0233
G1 X4.9891 Y5.9132
G2 X4.9888 Y5.9119 I-0.1096 J0.0248
G2 X4.9805 Y5.8828 I-0.3491 J0.0831
G2 X4.9648 Y5.8458 I-0.2193 J0.0711
G2 X4.9429 Y5.8084 I-0.4068 J0.2137
G2 X4.9424 Y5.8076 I-0.0941 J0.0614
G2 X4.9314 Y5.7918 I-0.3759 J0.2501
G2 X4.9311 Y5.7914 I-0.0908 J0.0662
G2 X4.9009 Y5.7568 I-0.2209 J0.1625
G1 X4.9008
G2 X4.8255 Y5.7079 I-0.163 J0.1685
G2 X4.7965 Y5.698 I-0.0966 J0.2364
G2 X4.7533 Y5.6891 I-0.0882 J0.3199
G2 X4.7454 Y5.6881 I-0.022 J0.1406
G1 X4.7353 Y5.687
G2 X4.7329 Y5.6867 I-0.0125 J0.1117
G2 X4.6862 Y5.6841 I-0.0599 J0.6591
G2 X4.6858 I-0.0022 J0.1124
G1 X4.6764 Y5.684
G2 X4.6583 Y5.6839 I-0.0109 J0.506
G1 X4.6441 Y5.684
G2 X4.6432 Y5.6841 I0.001 J0.1124
G1 X4.6387
G2 X4.6383 I0.0018 J0.1124
G1 X4.6361 Y5.6842
G2 X4.6353 I0.0022 J0.1124
G1 X4.634
G2 X4.8894 Y5.6586 I-1.8428 J-19.6662
G2 X4.8909 Y5.6585 I-0.012 J-0.1119
G3 X4.9128 Y5.6559 I0.5334 J4.4508
G1 F10.0 X4.9071 Y5.6062
G3 F30.0 X5.0428 Y5.5927 I0.5172 J4.503
G3 X5.0446 Y6.4856 I-10.1217 J0.4671
G3 X3.1096 Y6.611 I-1.8832 J-14.0606
G2 X3.1084 I-0.0002 J0.0625
G3 X0.571 Y6.4838 I-0.3124 J-19.1391
G3 X0.5776 Y5.5955 I33.1882 J-0.1976
G3 X0.5996 Y5.5981 I-0.3009 J2.6679
G2 X0.6002 Y5.5982 I0.0075 J-0.062
G2 X4.8841 Y5.6089 I2.191 J-19.5801
G2 X4.8849 Y5.6088 I-0.0066 J-0.0621
G3 X4.9071 Y5.6062 I0.5393 J4.5004
G0 Z0.125
G0 X4.4533 Y6.1996
G1 F10.0 Z-0.0625
G1 F30.0 X4.4513 Y6.1998
G1 F10.0 X4.4517
G1 F30.0 X4.4497 Y6.2
G1 F10.0 X4.45
G1 F30.0 X4.448 Y6.2002
G1 F10.0 X4.4483
G1 F30.0 X4.4463 Y6.2004
G1 F10.0 X4.4466 Y6.2003
G1 F30.0 X4.4446 Y6.2005
G3 X4.433 Y6.2016 I-0.0753 J-0.73
G1 X4.4328 Y6.1981
G1 X4.4322 Y6.1861
G1 X4.4318 Y6.1728
G1 X4.4316 Y6.1581
G3 X4.4314 Y6.1432 I1.3567 J-0.0199
G1 Y6.1431
G1 Y6.1349
G1 Y6.1266
G1 Y6.1194
G1 Y6.1122
G1 Y6.098
G1 X4.4318 Y6.0689
G1 Y6.069
G1 Y6.0689
G1 X4.4323 Y6.0487
G2 Y6.0483 I-0.1125 J-0.0032
G3 X4.4326 Y6.0419 I0.138 J0.0033
G2 X4.4328 Y6.0394 I-0.1122 J-0.0079
G3 X4.4333 Y6.0319 I0.1764 J0.0084
G3 X4.4361 Y6.0304 I0.0263 J0.0442
G2 X4.4362 Y6.0303 I-0.0514 J-0.1
G1 X4.4373 Y6.0297
G1 X4.4402 Y6.0283
G3 X4.4413 Y6.0279 I0.0177 J0.041
G3 X4.4664 Y6.0241 I0.0828 J0.4708
G2 X4.4667 I-0.0136 J-0.1117
G3 X4.478 Y6.0231 I0.0217 J0.1758
G3 X4.4784 Y6.0482 I-0.5969 J0.0227
G1 X4.4783 Y6.0654
G1 X4.4781 Y6.0847
G1 X4.4777 Y6.107
G1 X4.4771 Y6.1326
G3 X4.4766 Y6.149 I-2.5201 J-0.0683
G1 X4.4758 Y6.1656
G1 X4.4756 Y6.17
G2 X4.4755 Y6.1704 I0.1123 J0.0069
G3 X4.4728 Y6.1968 I-0.2983 J-0.0173
G3 X4.456 Y6.1993 I-0.0409 J-0.2174
G2 X4.4549 Y6.1994 I0.0122 J0.1118
G1 X4.4529 Y6.1996
G0 Z0.125
G0 X4.4764 Y6.4729
G1 F10.0 Z-0.0625
G2 F30.0 X4.5347 Y6.4676 I-0.5179 J-6.0289
G2 X4.5595 Y6.4651 I-0.1084 J-1.1798
G2 X4.6051 Y6.4597 I-0.3043 J-2.8019
G2 X4.6057 I-0.0078 J-0.062
G1 X4.6253 Y6.457
G2 X4.6255 I-0.0084 J-0.0619
G2 X4.6647 Y6.4508 I-0.1395 J-1.0115
G2 X4.6648 I-0.0109 J-0.0615
G2 X4.6991 Y6.444 I-0.1817 J-1.0095
G2 X4.6998 Y6.4439 I-0.0132 J-0.0611
G2 X4.7304 Y6.4362 I-0.1569 J-0.6919
G2 X4.7306 Y6.4361 I-0.0165 J-0.0603
G2 X4.7452 Y6.4318 I-0.1 J-0.36
G1 X4.7479 Y6.4309
G2 X4.8013 Y6.4083 I-0.0969 J-0.304
G2 X4.8017 Y6.4081 I-0.0294 J-0.0551
G2 X4.841 Y6.3814 I-0.1143 J-0.2104
G1 X4.8411
G2 X4.8671 Y6.3555 I-0.1396 J-0.1665
G2 X4.8831 Y6.3347 I-0.1872 J-0.1604
G2 X4.8833 Y6.3343 I-0.0515 J-0.0354
G2 X4.8928 Y6.3197 I-0.3383 J-0.2288
G2 X4.8934 Y6.3187 I-0.0532 J-0.0328
G2 X4.9169 Y6.2733 I-0.3847 J-0.2276
G2 X4.9274 Y6.246 I-0.2251 J-0.1028
G2 X4.9398 Y6.1988 I-0.4031 J-0.1306
G2 X4.9507 Y6.1193 I-0.6529 J-0.1304
G2 X4.9514 Y6.0006 I-0.7729 J-0.0638
G2 X4.9513 Y5.9997 I-0.0623 J0.0044
G1 X4.9502 Y5.986
G2 X4.9501 Y5.9857 I-0.0623 J0.0053
G2 X4.9419 Y5.9309 I-0.4643 J0.0417
G2 X4.9417 Y5.93 I-0.0611 J0.013
G1 X4.9404 Y5.9242
G2 X4.9402 Y5.9235 I-0.061 J0.0138
G2 X4.9331 Y5.8983 I-0.3006 J0.0715
G2 X4.9207 Y5.8691 I-0.1719 J0.0556
G2 X4.9011 Y5.8357 I-0.3626 J0.1904
G2 X4.9008 Y5.8352 I-0.0523 J0.0341
G2 X4.891 Y5.8212 I-0.3343 J0.2225
G2 X4.8909 Y5.8209 I-0.0505 J0.0368
G2 X4.8662 Y5.7927 I-0.1807 J0.1329
G1 X4.8661 Y5.7926
G2 X4.8068 Y5.7541 I-0.1283 J0.1326
G2 X4.7832 Y5.7461 I-0.0778 J0.1902
G2 X4.746 Y5.7385 I-0.075 J0.2718
G2 X4.7402 Y5.7377 I-0.0147 J0.0912
G1 X4.7297 Y5.7366
G2 X4.7284 Y5.7364 I-0.0069 J0.0621
G2 X4.6852 Y5.734 I-0.0554 J0.6094
G2 X4.685 I-0.0012 J0.0625
G1 X4.6754 Y5.7339
G2 X4.6589 Y5.7338 I-0.01 J0.4561
G1 X4.6445 Y5.7339
G2 X4.644 I0.0006 J0.0625
G1 X4.6395 Y5.734
G2 X4.6393 I0.001 J0.0625
G1 X4.6371 Y5.7341
G2 X4.6366 I0.0012 J0.0625
G1 X4.6188 Y5.7345
G2 X4.6185 I0.0016 J0.0625
G2 X4.5504 Y5.7376 I0.0862 J2.7285
G2 X4.3482 Y5.7527 I0.2526 J4.7352
G2 X4.3478 I0.006 J0.0622
G1 X4.3138 Y5.7562
G2 X4.3133 I0.0063 J0.0622
G1 X4.2834 Y5.7595
G2 X4.283 Y5.7596 I0.0068 J0.0621
G1 X4.2797 Y5.7599
G1 X4.2796
G1 X4.2764 Y5.7603
G2 X4.2763 I0.0073 J0.0621
G1 X4.2731 Y5.7607
G2 X4.2728 Y5.7608 I0.0074 J0.0621
G1 X4.2603 Y5.7623
G2 X4.2598 Y5.7624 I0.0077 J0.062
G1 X4.2481 Y5.7639
G2 X4.2475 Y5.764 I0.0082 J0.062
G1 X4.2365 Y5.7656
G2 X4.2358 Y5.7657 I0.0088 J0.0619
G1 X4.2255 Y5.7672
G2 X4.2249 Y5.7673 I0.0095 J0.0618
G1 X4.2201 Y5.7681
G2 X4.2197 Y5.7682 I0.0101 J0.0617
G1 X4.215 Y5.769
G2 X4.2146 Y5.7691 I0.0105 J0.0616
G1 X4.2101 Y5.7699
G2 X4.1903 Y5.7738 I0.0711 J0.4078
G2 X4.1809 Y5.776 I0.0416 J0.2009
G2 X4.1463 Y5.7865 I0.0692 J0.2905
G2 X4.0918 Y5.8161 I0.0731 J0.1992
G2 X4.091 Y5.8168 I0.0376 J0.05
G1 X4.0867 Y5.8201
G2 X4.0861 Y5.8205 I0.0384 J0.0493
G2 X4.0668 Y5.8377 I0.148 J0.1861
G1 X4.0635 Y5.841
G2 X4.0627 Y5.8418 I0.0438 J0.0446
G1 X4.0576 Y5.8469
G2 X4.0569 Y5.8477 I0.0446 J0.0438
G1 X4.0519 Y5.8529
G2 X4.0518 Y5.853 I0.0454 J0.043
G2 X4.0023 Y5.9231 I0.2218 J0.2092
G2 X4.0021 Y5.9236 I0.0556 J0.0285
G2 X3.9794 Y5.9817 I0.2976 J0.1498
G2 X3.9736 Y6.0045 I0.3009 J0.0889
G2 X3.9735 Y6.0046 I0.0611 J0.0132
G2 X3.97 Y6.0223 I0.8254 J0.1762
G2 X3.9698 Y6.0234 I0.0614 J0.0117
G2 X3.9621 Y6.0882 I0.5866 J0.1019
G1 X3.9619 Y6.0919
G2 Y6.0923 I0.0624 J0.0039
G1 X3.9615 Y6.0992
G2 Y6.0997 I0.0624 J0.0035
G2 X3.9603 Y6.1506 I1.0627 J0.049
G2 X3.9612 Y6.1893 I0.8849 J-0.0003
G1 Y6.1894
G2 X3.9634 Y6.2235 I0.8309 J-0.0374
G2 X3.9724 Y6.2857 I0.5279 J-0.0442
G2 X3.9859 Y6.3346 I0.3552 J-0.0718
G2 Y6.3347 I0.0589 J-0.0208
G2 X4.0019 Y6.3715 I0.2791 J-0.0992
G2 X4.0401 Y6.4248 I0.2011 J-0.1038
G2 X4.0403 Y6.425 I0.045 J-0.0434
G2 X4.0949 Y6.4652 I0.1491 J-0.145
G2 X4.0955 Y6.4656 I0.0284 J-0.0557
G1 X4.1033 Y6.4694
G2 X4.104 Y6.4697 I0.0278 J-0.056
G2 X4.1516 Y6.4853 I0.0822 J-0.1705
G2 X4.1719 Y6.4882 I0.0401 J-0.215
G2 X4.1724 I0.0057 J-0.0622
G1 X4.1792 Y6.4888
G2 X4.1804 Y6.4889 I0.0052 J-0.0623
G2 X4.2112 Y6.4898 I0.0286 J-0.4439
G2 X4.2606 Y6.4883 I-0.0046 J-1.0097
G1 X4.2779 Y6.4874
G2 X4.2784 I-0.0033 J-0.0624
G1 X4.3088 Y6.4855
G2 X4.3092 I-0.0038 J-0.0624
G1 X4.332 Y6.484
G2 X4.3323 Y6.4839 I-0.0042 J-0.0624
G1 X4.4006 Y6.4789
G2 X4.4007 I-0.0046 J-0.0623
G1 X4.4047 Y6.4786
G1 X4.4086 Y6.4783
G2 X4.4764 Y6.4729 I-0.4501 J-6.0344
G0 Z0.125
G0 X4.4553 Y6.2497
G1 F10.0 Z-0.0625
G1 F30.0 X4.4573 Y6.2495
G1 F10.0 X4.4571
G1 F30.0 X4.459 Y6.2493
G1 F10.0 X4.4588
G1 F30.0 X4.4608 Y6.249
G3 X4.4614 I0.0074 J0.0621
G2 X4.4864 Y6.245 I-0.0295 J-0.2696
G3 X4.4868 I0.0126 J0.0612
G2 X4.5043 Y6.2401 I-0.0239 J-0.1201
G2 X4.5112 Y6.2366 I-0.0115 J-0.0313
G2 X4.5152 Y6.2315 I-0.0077 J-0.01
G3 X4.5153 Y6.2312 I0.0576 J0.0242
G2 X4.5204 Y6.2145 I-0.0761 J-0.0324
G3 X4.5207 Y6.2134 I0.0614 J0.0119
G2 X4.5213 Y6.2102 I-0.0818 J-0.0174
G3 Y6.2101 I0.0616 J0.0106
G1 X4.5217 Y6.2079
G2 X4.5254 Y6.1733 I-0.3445 J-0.0548
G3 X4.5255 Y6.173 I0.0624 J0.0036
G1 X4.5257 Y6.1683
G1 X4.5266 Y6.151
G2 X4.5271 Y6.1338 I-2.5695 J-0.0867
G1 X4.5277 Y6.108
G1 X4.5281 Y6.0854
G1 X4.5283 Y6.0658
G1 X4.5284 Y6.0484
G2 X4.5279 Y6.0204 I-0.6474 J-0.0027
G1 X4.5274 Y6.0099
G1 X4.5267 Y6.0013
G2 X4.525 Y5.9899 I-0.1477 J0.0157
G2 X4.5239 Y5.9858 I-0.0436 J0.0097
G2 X4.5231 Y5.985 I-0.017 J0.0157
G1 X4.5207 Y5.9828
G1 X4.5178 Y5.9804
G2 X4.5077 Y5.9751 I-0.0184 J0.0227
G2 X4.5022 Y5.9739 I-0.0123 J0.0417
G3 X4.5021 I0.0099 J-0.0617
G2 X4.4885 Y5.9728 I-0.0134 J0.0821
G3 X4.4884 I-0.0001 J-0.0625
G2 X4.4605 Y5.9745 I0.0 J0.2271
G3 X4.4604 I-0.0077 J-0.062
G2 X4.4292 Y5.9792 I0.0636 J0.5242
G2 X4.4276 Y5.9796 I0.0035 J0.0175
G2 X4.4192 Y5.9829 I0.0304 J0.0896
G1 X4.415 Y5.985
G1 X4.4132 Y5.9859
G2 X4.3923 Y6.0002 I0.0464 J0.0902
G3 X4.3915 Y6.001 I-0.0438 J-0.0446
G2 X4.3875 Y6.0052 I0.0439 J0.0464
G3 X4.3872 Y6.0055 I-0.0469 J-0.0413
G2 X4.3857 Y6.0105 I0.0244 J0.0098
G1 Y6.0106
G1 X4.3852 Y6.0136
G2 X4.3828 Y6.037 I0.224 J0.0342
G3 Y6.0384 I-0.0624 J-0.003
G2 X4.3823 Y6.0471 I0.1875 J0.0132
G3 Y6.0473 I-0.0625 J-0.0015
G1 X4.3818 Y6.0676
G3 Y6.0679 I-0.0625 J-0.0018
G3 Y6.0684 I-0.0625 J-0.0002
G1 X4.3814 Y6.0976
G1 Y6.112
G1 Y6.1193
G1 Y6.1266
G1 Y6.135
G1 Y6.1433
G2 X4.3816 Y6.1589 I1.4069 J-0.0051
G1 X4.3818 Y6.174
G1 X4.3823 Y6.188
G1 X4.3828 Y6.2009
G1 X4.3837 Y6.2134
G2 X4.3858 Y6.233 I0.2526 J-0.0176
G1 X4.3865 Y6.2375
G1 X4.3874 Y6.242
G3 Y6.2422 I-0.0615 J0.0114
G2 X4.3901 Y6.2522 I0.0617 J-0.0113
G2 X4.3924 Y6.2525 I0.0044 J-0.0241
G3 X4.3934 Y6.2526 I-0.0054 J0.0623
G2 X4.3983 Y6.253 I0.0096 J-0.0922
G2 X4.4218 Y6.2527 I0.0082 J-0.2289
G2 X4.4498 Y6.2503 I-0.0525 J-0.7822
G1 X4.4518 Y6.2501
G1 X4.4536 Y6.2499
G1 X4.4555 Y6.2497
G0 Z0.125
G0 X3.9086 Y6.2549
G1 F10.0 Z-0.0625
G2 F30.0 Y6.2542 I-0.0625 J0.0006
G1 X3.9082 Y6.238
G2 Y6.2372 I-0.0625 J0.0012
G2 X3.9074 Y6.2208 I-0.4343 J0.0141
G2 X3.9018 Y6.1849 I-0.1978 J0.0125
G2 X3.9015 Y6.1837 I-0.0606 J0.0152
G2 X3.8881 Y6.1516 I-0.1312 J0.0359
G2 X3.8872 Y6.1501 I-0.0541 J0.0312
G2 X3.8738 Y6.1315 I-0.1376 J0.0848
G2 X3.8732 Y6.1307 I-0.0481 J0.04
G2 X3.8533 Y6.1103 I-0.1759 J0.151
G2 X3.8364 Y6.0952 I-0.4657 J0.5038
G1 X3.8318 Y6.0912
G1 X3.875 Y6.0393
G2 X3.8751 Y6.0392 I-0.048 J-0.04
G1 X3.8817 Y6.0312
G2 X3.8819 Y6.031 I-0.0481 J-0.0399
G1 X3.8881 Y6.0235
G2 X3.9009 Y6.0076 I-0.5499 J-0.4568
G1 X3.9115 Y5.994
G2 X3.9122 Y5.9932 I-0.0492 J-0.0386
G1 X3.9219 Y5.9804
G1 Y5.9803
G2 X3.9417 Y5.9521 I-0.3759 J-0.2838
G2 X3.9504 Y5.9379 I-0.2154 J-0.1416
G2 X3.9585 Y5.9224 I-0.1513 J-0.0892
G2 X3.9652 Y5.9056 I-0.1345 J-0.0637
G2 X3.9702 Y5.8818 I-0.0986 J-0.0331
G2 X3.9664 Y5.8482 I-0.0829 J-0.0076
G2 X3.966 Y5.847 I-0.0594 J0.0196
G2 X3.9457 Y5.8161 I-0.073 J0.0257
G2 X3.9443 Y5.8148 I-0.0426 J0.0457
G2 X3.908 Y5.7957 I-0.0581 J0.0663
G2 X3.8764 Y5.7913 I-0.0348 J0.1336
G2 X3.8533 Y5.7916 I-0.0083 J0.2537
G1 X3.815 Y5.7935
G1 X3.6994 Y5.7992
G1 X3.5981 Y5.804
G2 X3.5539 Y5.8256 I0.003 J0.0624
G1 X3.4322 Y5.966
G1 X3.4168 Y5.9838
G2 X3.4158 Y5.985 I0.0472 J0.041
G3 X3.4145 Y5.9865 I-0.0302 J-0.025
G2 X3.4135 Y5.9876 I0.0461 J0.0422
G1 X3.4148 Y5.8872
G2 X3.3523 Y5.8239 I-0.0625 J-0.0008
G1 X3.19
G1 X3.0277
G2 X2.9653 Y5.8839 I0.0 J0.0625
G1 X2.9538 Y6.1643
G1 Y6.1644
G1 X2.9531 Y6.1831
G2 Y6.1833 I0.0625 J0.0025
G1 X2.9518 Y6.2183
G1 Y6.2184
G2 X2.9483 Y6.3422 I8.2184 J0.2917
G2 X2.9475 Y6.4045 I4.1284 J0.0825
G2 X2.9477 Y6.4368 I1.1897 J0.0102
G2 Y6.4373 I0.0625 J-0.0012
G1 X2.9481 Y6.4527
G2 X2.9482 Y6.4545 I0.0625 J-0.0017
G1 X2.9486 Y6.4622
G2 X2.9488 Y6.4646 I0.0624 J-0.0035
G1 X2.9491 Y6.468
G2 X2.9526 Y6.4854 I0.0783 J-0.0066
G2 X2.9538 Y6.4886 I0.0595 J-0.0191
G2 X2.9743 Y6.5176 I0.0668 J-0.0256
G2 X2.9746 Y6.5179 I0.0404 J-0.0477
G2 X3.0019 Y6.5331 I0.0539 J-0.0643
G2 X3.0177 Y6.5374 I0.0373 J-0.1063
G2 X3.0376 Y6.5405 I0.0416 J-0.204
G2 X3.044 Y6.5411 I0.0123 J-0.0914
G2 X3.0605 Y6.5423 I0.0282 J-0.2881
G1 X3.0738 Y6.5428
G2 X3.0748 Y6.5429 I0.0027 J-0.0624
G1 X3.0874 Y6.5432
G2 X3.0881 I0.0017 J-0.0625
G2 X3.1366 Y6.5435 I0.0354 J-2.2315
G2 X3.1368 I-0.0004 J-0.0625
G2 X3.2787 Y6.5406 I-0.0729 J-7.204
G2 X3.2882 Y6.5404 I-0.0018 J-0.2369
G2 X3.4168 Y6.5366 I-1.1928 J-43.2053
G2 X3.5145 Y6.5332 I-0.3845 J-12.2637
G2 X3.5148 I-0.0025 J-0.0625
G1 X3.5514 Y6.5315
G2 X3.5517 I-0.0028 J-0.0624
G1 X3.5597 Y6.5311
G2 X3.5601 I-0.0031 J-0.0624
G1 X3.5912 Y6.5294
G2 X3.5914 I-0.0034 J-0.0624
G2 X3.6479 Y6.5252 I-0.0985 J-1.706
G2 X3.6923 Y6.52 I-0.0728 J-0.8132
G2 X3.693 Y6.5199 I-0.009 J-0.0619
G1 X3.7006 Y6.5187
G1 X3.7007
G2 X3.735 Y6.5116 I-0.0572 J-0.3648
G2 X3.7627 Y6.5029 I-0.0617 J-0.2435
G2 X3.8052 Y6.4805 I-0.0696 J-0.1837
G2 X3.8057 Y6.4802 I-0.0357 J-0.0513
G2 X3.8225 Y6.4672 I-0.1587 J-0.2243
G2 X3.8231 Y6.4668 I-0.0399 J-0.0481
G1 X3.8262 Y6.4641
G2 X3.8274 Y6.4631 I-0.0405 J-0.0476
G1 X3.8366 Y6.4549
G2 X3.8523 Y6.4402 I-0.3221 J-0.3605
G2 X3.8662 Y6.426 I-0.2546 J-0.2637
G2 X3.8664 Y6.4258 I-0.0458 J-0.0425
G2 X3.8804 Y6.4085 I-0.1346 J-0.1239
G2 X3.8806 Y6.4084 I-0.0508 J-0.0364
G2 X3.9007 Y6.3666 I-0.1126 J-0.0802
G2 X3.9009 Y6.3661 I-0.06 J-0.0174
G2 X3.9064 Y6.337 I-0.167 J-0.0468
G2 X3.9065 Y6.3366 I-0.0622 J-0.0064
G1 X3.9071 Y6.3296
G2 X3.9073 Y6.3277 I-0.0622 J-0.006
G2 X3.9085 Y6.2999 I-0.5735 J-0.0382
G2 Y6.2996 I-0.0625 J-0.0011
G1 X3.9086 Y6.2934
G2 Y6.2928 I-0.0625 J-0.0009
G1 Y6.2742
G2 Y6.2737 I-0.0625 J-0.0003
G1 Y6.2552
G2 Y6.2549 I-0.0625 J0.0003
G0 Z0.125
G0 X2.9284 Y6.2408
G1 F10.0 Z-0.0625
G2 F30.0 X2.9283 Y6.2341 I-0.1442 J-0.0021
G1 X2.9282 Y6.2285
G2 Y6.2281 I-0.0625 J0.0011
G1 X2.928 Y6.2191
G1 X2.9279 Y6.2147
G2 Y6.2136 I-0.0625 J0.0009
G3 Y6.2123 I0.025 J-0.0008
G2 Y6.211 I-0.0625 J-0.0013
G1 Y6.1475
G2 X2.8907 Y6.0903 I-0.0625 J0.0
G2 X2.9246 Y6.041 I-0.0283 J-0.0557
G1 X2.9308 Y5.9811
G2 X2.9326 Y5.9596 I-0.5239 J-0.0545
G2 X2.9334 Y5.9426 I-0.3236 J-0.0243
G2 X2.9336 Y5.9169 I-0.3668 J-0.0146
G2 X2.9328 Y5.9033 I-0.269 J0.0077
G2 X2.9287 Y5.8797 I-0.1121 J0.0075
G2 X2.9258 Y5.8717 I-0.0601 J0.0173
G2 X2.8954 Y5.8386 I-0.0641 J0.0285
G2 X2.8721 Y5.8294 I-0.0479 J0.087
G2 X2.872 I-0.0155 J0.0605
G2 X2.8468 Y5.8246 I-0.0512 J0.2012
G2 X2.8465 I-0.0078 J0.062
G1 X2.8382 Y5.8236
G2 X2.8371 Y5.8234 I-0.0075 J0.062
G2 X2.8015 Y5.8206 I-0.0721 J0.6924
G2 X2.7722 Y5.8193 I-0.1188 J2.2788
G2 X2.772 I-0.0025 J0.0625
G2 X2.7211 Y5.818 I-0.1023 J2.9028
G2 X2.7209 Y5.8179 I-0.0011 J0.0625
G1 X2.6835 Y5.8174
G2 X2.6833 I-0.0009 J0.0625
G1 X2.6693 Y5.8173
G2 X2.6691 I-0.0006 J0.0625
G1 X2.6446 Y5.8171
G2 X2.6444 I-0.0005 J0.0625
G1 X2.6076 Y5.8169
G2 X2.6074 I-0.0003 J0.0625
G1 X2.5706
G2 X2.5705 I-0.0001 J0.0625
G1 X2.4813 Y5.817
G1 X2.4812
G2 X2.4136 Y5.8175 I0.0176 J6.5217
G1 X2.4135
G1 X2.4072 Y5.8176
G2 X2.4071 I0.0009 J0.0625
G1 X2.401 Y5.8177
G2 X2.4007 I0.001 J0.0625
G1 X2.377 Y5.8182
G2 X2.3764 Y5.8183 I0.0013 J0.0625
G1 X2.3557 Y5.8189
G2 X2.3165 Y5.821 I0.0243 J0.8204
G2 X2.2864 Y5.824 I0.0486 J0.6331
G2 X2.2849 Y5.8242 I0.0077 J0.062
G1 X2.2748 Y5.8258
G2 X2.2726 Y5.8261 I0.0093 J0.0618
G1 X2.2638 Y5.8278
G2 X2.2629 Y5.8279 I0.0114 J0.0614
G2 X2.2225 Y5.8397 I0.0485 J0.2414
G2 X2.222 Y5.8399 I0.0226 J0.0583
G2 X2.188 Y5.8556 I0.1302 J0.3278
G2 X2.1488 Y5.8789 I0.1449 J0.2881
G2 X2.115 Y5.907 I0.1379 J0.1997
G1 Y5.9071
G2 X2.07 Y5.9719 I0.1582 J0.1577
G1 Y5.972
G2 X2.0523 Y6.0228 I0.2632 J0.12
G2 X2.0449 Y6.0597 I0.3743 J0.0943
G2 X2.0392 Y6.1122 I0.5975 J0.0916
G2 X2.0389 Y6.116 I0.9493 J0.066
G1 Y5.8693
G2 X1.9829 Y5.8071 I-0.0625 J0.0
G1 X1.8962 Y5.7981
G2 X1.8961 I-0.0065 J0.0622
G2 X1.7704 Y5.7896 I-0.1833 J1.7874
G2 X1.7701 I-0.002 J0.0625
G1 X1.7627 Y5.7894
G2 X1.7543 Y5.7892 I-0.0107 J0.3064
G1 X1.7411 Y5.789
G2 X1.7408 I-0.0008 J0.0625
G2 X1.6905 Y5.79 I-0.0085 J0.9133
G2 X1.6893 I0.0029 J0.0624
G1 X1.6776 Y5.7908
G2 X1.6772 I0.004 J0.0624
G2 X1.6544 Y5.7934 I0.0196 J0.275
G2 X1.653 Y5.7936 I0.0096 J0.0618
G1 X1.6492 Y5.7943
G2 X1.6403 Y5.7963 I0.0144 J0.0874
G2 X1.633 Y5.7984 I0.0179 J0.0751
G2 X1.624 Y5.8019 I0.0271 J0.0824
G2 X1.6055 Y5.814 I0.0303 J0.0666
G2 X1.5963 Y5.8243 I0.0417 J0.0466
G2 X1.585 Y5.8504 I0.0551 J0.0392
G2 X1.5827 Y5.8653 I0.1453 J0.0303
G2 X1.5826 Y5.8657 I0.0622 J0.0065
G2 X1.5799 Y5.9038 I0.7494 J0.0735
G2 X1.5791 Y5.9205 I0.5634 J0.0344
G1 X1.578 Y5.9495
G2 Y5.9499 I0.0625 J0.0023
G1 X1.5776 Y5.9626
G2 Y5.9628 I0.0625 J0.0019
G2 X1.5758 Y6.0592 I6.2286 J0.1671
G2 Y6.0594 I0.0625 J0.0007
G1 X1.5754 Y6.1071
G2 Y6.1074 I0.0625 J0.0005
G1 X1.5753 Y6.1313
G2 Y6.1314 I0.0625 J0.0003
G1 Y6.1553
G2 Y6.1555 I0.0625 J0.0001
G1 X1.5754 Y6.2294
G2 Y6.2297 I0.0625 J-0.0001
G1 X1.5758 Y6.2852
G2 Y6.2855 I0.0625 J-0.0004
G1 Y6.2907
G1 Y6.2908
G1 X1.5759 Y6.2959
G1 X1.576 Y6.3008
G1 Y6.3009
G1 Y6.3056
G1 Y6.3057
G1 X1.5761 Y6.3103
G1 Y6.3104
G1 X1.5762 Y6.3147
G2 X1.577 Y6.3503 I1.5811 J-0.0197
G2 X1.5801 Y6.4055 I1.0133 J-0.0279
G2 X1.5849 Y6.4392 I0.2805 J-0.0229
G2 X1.5936 Y6.466 I0.1184 J-0.0239
G2 X1.5941 Y6.4669 I0.0567 J-0.0262
G2 X1.608 Y6.4875 I0.0782 J-0.0378
G2 X1.6092 Y6.4888 I0.0463 J-0.042
G2 X1.6378 Y6.5078 I0.0566 J-0.0543
G2 X1.6401 Y6.5086 I0.0222 J-0.0584
G2 X1.6545 Y6.5123 I0.0311 J-0.0921
G1 X1.657 Y6.5127
G2 X1.6589 Y6.513 I0.0107 J-0.0616
G1 X1.6639 Y6.5137
G2 X1.666 Y6.514 I0.0088 J-0.0619
G1 X1.6757 Y6.515
G2 X1.6771 Y6.5152 I0.0068 J-0.0621
G1 X1.6863 Y6.516
G2 X1.6875 Y6.5161 I0.0054 J-0.0623
G1 X1.7037 Y6.5172
G2 X1.7084 Y6.5174 I0.007 J-0.0788
G1 X1.7148 Y6.5178
G2 X1.7152 I0.0034 J-0.0624
G2 X1.8294 Y6.5204 I0.1125 J-2.4079
G1 X1.9764
G2 X2.0389 Y6.4579 I0.0 J-0.0625
G1 Y6.2391
G2 X2.0393 Y6.2436 I0.5895 J-0.0479
G2 X2.0434 Y6.278 I0.4823 J-0.0396
G2 X2.0577 Y6.3398 I0.3883 J-0.0573
G1 Y6.3399
G2 X2.0775 Y6.3871 I0.2801 J-0.0893
G1 Y6.3872
G2 X2.1247 Y6.451 I0.2309 J-0.1212
G2 X2.1252 Y6.4515 I0.044 J-0.0444
G2 X2.1858 Y6.4967 I0.202 J-0.2078
G2 X2.188 Y6.4979 I0.0334 J-0.0568
G2 X2.2109 Y6.5098 I0.174 J-0.3069
G2 X2.211 Y6.5099 I0.0268 J-0.0565
G2 X2.2655 Y6.5275 I0.0954 J-0.2023
G2 X2.2766 Y6.5294 I0.0543 J-0.2755
G2 X2.277 Y6.5295 I0.0096 J-0.0618
G2 X2.3154 Y6.5338 I0.0803 J-0.537
G2 X2.3195 Y6.5341 I0.0084 J-0.0854
G2 X2.3821 Y6.5371 I0.1072 J-1.6221
G2 X2.3823 I0.0017 J-0.0625
G1 X2.4051 Y6.5376
G2 X2.4054 I0.0016 J-0.0625
G1 X2.4254 Y6.538
G2 X2.4256 I0.0012 J-0.0625
G1 X2.4343 Y6.5382
G2 X2.4345 I0.001 J-0.0625
G1 X2.4673 Y6.5386
G2 X2.4675 I0.0008 J-0.0625
G1 X2.4921 Y6.5389
G1 X2.4922
G1 X2.5106 Y6.5391
G1 X2.5107
G1 X2.566 Y6.5395
G1 X2.8579 Y6.5416
G2 X2.9207 Y6.4831 I0.0005 J-0.0625
G1 X2.925 Y6.4161
G1 X2.9293 Y6.3491
G2 X2.9106 Y6.3003 I-0.0624 J-0.004
G2 X2.925 Y6.2696 I-0.0667 J-0.0501
G2 X2.9282 Y6.2466 I-0.1069 J-0.0265
G2 X2.9284 Y6.2408 I-0.144 J-0.0078
G0 Z0.125
G0 X2.9038 Y4.9401
G1 F10.0 Z-0.0625
G2 F30.0 X3.5484 Y4.829 I-0.0408 J-2.1619
G2 X3.5529 Y4.8273 I-0.0198 J-0.0593
G2 X3.7948 Y4.2697 I-0.171 J-0.4055
G3 X3.8463 Y4.4021 I-0.1275 J0.1257
G3 X3.7841 Y4.6943 I-0.9914 J-0.0582
G2 X3.8199 Y4.7746 I0.0585 J0.0221
G2 X3.9094 Y4.7581 I0.0314 J-0.0807
G2 X4.2162 Y4.4902 I-0.5654 J-0.9571
G2 X4.3807 Y4.1485 I-0.4572 J-0.4305
G2 X4.3813 Y4.1369 I-0.0619 J-0.0088
G2 X4.3509 Y4.0124 I-0.3301 J0.0145
G3 X4.3984 Y4.1598 I-0.2633 J0.1662
G2 X4.5303 Y4.232 I0.0823 J0.0061
G2 X4.5364 Y4.2268 I-0.0375 J-0.05
G2 X4.7486 Y3.9001 I-0.6152 J-0.6318
G2 X4.7446 Y3.4197 I-0.489 J-0.2362
G2 X4.7403 Y3.4124 I-0.0558 J0.0281
G2 X4.5221 Y3.2201 I-0.4913 J0.3375
G3 X4.7248 Y3.3741 I-0.1561 J0.4159
G2 X4.7311 Y3.3815 I0.0505 J-0.0369
G2 X4.8549 Y3.4603 I0.2407 J-0.2413
G2 X4.9327 Y3.4286 I0.0215 J-0.0587
G2 X4.9364 Y3.2749 I-0.1693 J-0.0809
G2 X4.6831 Y2.7085 I-1.022 J0.1172
G2 X4.6773 Y2.7028 I-0.0467 J0.0415
G2 X4.0966 Y2.4138 I-0.8499 J0.9799
G2 X3.1483 Y2.2625 I-1.0714 J3.6676
G3 X2.4889 Y2.2007 I0.2505 J-6.2195
G2 X3.0769 Y2.1377 I-0.2251 J-4.8787
G2 X3.0771 I-0.0104 J-0.0616
G2 X3.435 Y1.9433 I-0.107 J-0.6235
G2 X3.4526 Y1.808 I-0.0658 J-0.0774
G2 X3.3955 Y1.7814 I-0.0513 J0.0356
G2 X3.1452 Y1.8245 I0.1498 J1.6164
G3 X2.0954 Y1.8263 I-0.5296 J-2.87
G2 X1.8339 Y1.7415 I-0.8364 J2.1338
G2 X1.8179 Y1.6477 I-0.0479 J-0.0401
G2 X1.5754 Y1.566 I-0.3108 J0.5221
G2 X1.1578 Y1.7686 I-0.0774 J0.3723
G2 X1.1536 Y1.7791 I0.0559 J0.0279
G2 X1.2059 Y2.128 I0.4063 J0.1176
G2 X1.7318 Y2.6311 I1.086 J-0.6089
G2 X1.7369 Y2.6334 I0.0281 J-0.0558
G3 X1.8074 Y2.7546 I-0.0417 J0.1053
G3 X1.6427 Y2.9153 I-0.2849 J-0.1272
G3 X1.5229 Y2.9305 I-0.1241 J-0.5008
G2 X1.4665 Y2.7182 I-0.1795 J-0.0659
G2 X1.2509 Y2.5866 I-0.3869 J0.3914
G3 X1.1252 Y2.4533 I0.1184 J-0.2377
G2 X0.9591 Y2.301 I-0.1999 J0.0512
G2 X0.8866 Y2.3571 I-0.0103 J0.0617
G2 X0.885 Y2.3812 I0.5079 J0.0455
G3 X0.8824 Y2.3751 I0.0366 J-0.0193
G2 X0.7791 Y2.3508 I-0.0592 J0.0199
G2 X0.6881 Y2.4735 I0.3626 J0.364
G2 X0.7141 Y2.6291 I0.0973 J0.0637
G3 X0.783 Y2.7538 I-0.134 J0.1555
G2 X0.7898 Y2.774 I0.0618 J-0.0094
G3 X0.9013 Y3.0148 I-1.9391 J1.0439
G2 X0.9059 Y3.0243 I0.0582 J-0.0228
G3 X1.0622 Y3.2845 I-61.9658 J37.4004
G2 X1.27 Y3.561 I0.8192 J-0.399
G2 X1.3671 Y3.544 I0.0419 J-0.0463
G2 X1.4011 Y3.4194 I-0.2598 J-0.1378
G3 X1.441 Y3.4269 I-0.0182 J0.2062
G2 X1.8375 Y3.6687 I1.6299 J-2.2273
G2 X1.9552 Y3.6285 I0.045 J-0.0606
G2 X2.3829 Y3.7392 I0.787 J-2.1592
G2 X2.4429 Y3.6402 I0.0098 J-0.0617
G2 X2.9044 Y3.6142 I0.1874 J-0.7812
G2 X2.888 Y3.4931 I-0.0213 J-0.0588
G3 X2.8733 Y3.4919 I0.1188 J-1.5277
G2 X2.8789 Y3.4895 I-0.0215 J-0.0587
G2 X3.1026 Y3.378 I-3.7497 J-7.7961
G2 X3.133 Y3.3426 I-0.0287 J-0.0555
G2 X3.0348 Y3.2523 I-0.069 J-0.0235
G2 X2.8725 Y3.2599 I0.1369 J4.6419
G3 X2.9143 Y3.228 I0.0908 J0.0754
G2 X2.9215 Y3.2241 I-0.026 J-0.0568
G2 X3.1535 Y3.0135 I-0.473 J-0.7545
G2 X3.1656 Y2.9863 I-0.0495 J-0.0382
G2 X3.1682 Y2.9502 I-0.174 J-0.031
G3 X3.2472 Y3.0777 I-0.7 J0.5218
G2 X3.4669 Y3.2984 I0.3728 J-0.1514
G2 X3.2946 Y3.4483 I0.0605 J0.2435
G2 X3.2915 Y3.4584 I0.058 J0.0233
G3 X2.9719 Y3.8493 I-0.542 J-0.1171
G2 X2.9713 Y3.8495 I0.0251 J0.0573
G3 X2.5232 Y3.98 I-0.6865 J-1.5233
G2 X2.5205 Y3.9804 I0.0089 J0.0619
G2 X1.6735 Y4.174 I2.0884 J11.0866
G2 X1.6707 Y4.1748 I0.0163 J0.0603
G2 X0.7233 Y4.9307 I0.5193 J1.6225
G2 X0.8134 Y5.0134 I0.0538 J0.0318
G3 X1.2241 Y4.8547 I0.5169 J0.727
G2 X1.2252 Y4.8545 I-0.0074 J-0.0621
G3 X1.8473 Y4.8599 I0.2928 J2.114
G2 X1.8498 Y4.8602 I0.0096 J-0.0618
G2 X2.468 Y4.9224 I2.5254 J-22.0028
G2 X2.4754 Y4.9226 I0.0054 J-0.0623
G2 X2.9168 Y4.5579 I-0.0155 J-0.4682
G3 X2.9072 Y4.6834 I-0.1834 J0.0491
G3 X2.7783 Y4.8285 I-0.4736 J-0.2909
G2 X2.8157 Y4.94 I0.0388 J0.049
G2 X2.9038 Y4.9401 I0.0473 J-2.1618
G0 Z0.125
G0 X1.5349 Y6.0616
G1 F10.0 Z-0.0625
G2 F30.0 X1.52 Y6.0479 I-0.0559 J0.0458
G2 X1.5138 Y6.0441 I-0.0354 J0.0515
G2 X1.4949 Y6.0372 I-0.0343 J0.0648
G2 X1.4776 Y6.034 I-0.0447 J0.1894
G1 X1.4719 Y6.0331
G2 X1.4711 Y6.033 I-0.0095 J0.0618
G1 X1.4593 Y6.0313
G2 X1.4586 Y6.0312 I-0.0087 J0.0619
G1 X1.4475 Y6.0298
G2 X1.4472 I-0.008 J0.062
G2 X1.4259 Y6.0272 I-0.3127 J2.5249
G1 X1.4258
G1 X1.4213 Y6.0267
G2 X1.4209 Y6.0266 I-0.0071 J0.0621
G1 X1.3856 Y6.0228
G2 X1.3851 I-0.0067 J0.0621
G1 X1.3586 Y6.0201
G2 X1.3582 I-0.0062 J0.0622
G1 X1.3185 Y6.0164
G2 X1.3181 Y6.0163 I-0.0058 J0.0622
G1 X1.2783 Y6.0129
G2 X1.2781 I-0.0054 J0.0623
G1 X1.1357 Y6.0009
G1 X1.1356 Y5.9441
G2 Y5.9437 I-0.0625 J0.0001
G1 X1.1355 Y5.9274
G2 X1.1352 Y5.9119 I-0.5938 J0.004
G2 X1.1326 Y5.8589 I-0.9844 J0.021
G2 Y5.8583 I-0.0623 J0.0047
G1 X1.1315 Y5.8458
G2 X1.1314 Y5.8451 I-0.0623 J0.0052
G1 X1.1312 Y5.8427
G2 X1.1311 Y5.842 I-0.0622 J0.006
G1 X1.1302 Y5.8332
G2 X1.13 Y5.8319 I-0.0621 J0.0068
G1 X1.1292 Y5.8253
G2 X1.129 Y5.8239 I-0.062 J0.0081
G1 X1.1282 Y5.8189
G2 X1.1279 Y5.8174 I-0.0618 J0.0095
G1 X1.1273 Y5.8137
G2 X1.1271 Y5.8129 I-0.0615 J0.0111
G2 X1.125 Y5.8036 I-0.1497 J0.0291
G2 X1.1242 Y5.8009 I-0.0605 J0.0157
G1 X1.1234 Y5.7982
G2 X1.1231 Y5.7971 I-0.0597 J0.0184
G2 X1.1158 Y5.7815 I-0.0709 J0.0234
G2 X1.1109 Y5.7745 I-0.0533 J0.0326
G2 X1.0874 Y5.7556 I-0.0568 J0.0465
G2 X1.0708 Y5.7485 I-0.0555 J0.1063
G1 X1.0667 Y5.7471
G2 X1.0651 Y5.7466 I-0.0203 J0.0591
G2 X1.0262 Y5.7363 I-0.1294 J0.4117
G1 X1.0115 Y5.7331
G2 X1.0108 Y5.733 I-0.0132 J0.0611
G1 X1.004 Y5.7316
G2 X0.9893 Y5.7287 I-0.1078 J0.517
G2 X0.9632 Y5.7241 I-0.2592 J1.3782
G2 X0.9171 Y5.7169 I-0.2566 J1.4928
G2 X0.9169 I-0.0087 J0.0619
G1 X0.9003 Y5.7146
G2 X0.8998 Y5.7145 I-0.0086 J0.0619
G1 X0.8925 Y5.7136
G2 X0.8351 Y5.7072 I-0.183 J1.3923
G2 X0.8348 I-0.0056 J0.0622
G1 X0.8281 Y5.7066
G2 X0.7748 Y5.704 I-0.0581 J0.6425
G1 X0.7747
G2 X0.7268 Y5.7119 I-0.0009 J0.1442
G2 X0.6992 Y5.7257 I0.0373 J0.1084
G2 X0.6982 Y5.7265 I0.0354 J0.0515
G2 X0.6835 Y5.7394 I0.0572 J0.0796
G2 X0.6832 Y5.7397 I0.0458 J0.0425
G2 X0.6674 Y5.765 I0.0605 J0.0554
G2 X0.6657 Y5.7699 I0.0581 J0.023
G2 X0.6621 Y5.7871 I0.0945 J0.0286
G1 X0.6618 Y5.7901
G2 X0.6616 Y5.7917 I0.0621 J0.0074
G2 X0.6598 Y5.8201 I0.4739 J0.0443
G2 X0.6589 Y5.8655 I1.3464 J0.0503
G1 X0.6588 Y5.8818
G2 Y5.8823 I0.0625 J0.0002
G1 X0.6589 Y5.9108
G2 Y5.9111 I0.0625 J-0.0003
G2 X0.6607 Y5.9982 I3.5128 J-0.029
G1 X0.6611 Y6.0084
G2 Y6.0085 I0.0625 J-0.0021
G1 X0.6614 Y6.0184
G2 Y6.0186 I0.0625 J-0.0022
G1 X0.6618 Y6.0282
G2 Y6.0284 I0.0625 J-0.0024
G1 X0.6622 Y6.0377
G2 Y6.0379 I0.0624 J-0.0026
G1 X0.6626 Y6.0469
G2 Y6.0471 I0.0624 J-0.0028
G1 X0.663 Y6.0559
G2 X0.668 Y6.1264 I1.5294 J-0.0724
G2 X0.6681 Y6.1272 I0.0622 J-0.0058
G1 X0.6694 Y6.1399
G2 X0.6729 Y6.1665 I0.5327 J-0.0567
G2 X0.6825 Y6.2139 I0.4489 J-0.0657
G2 X0.6827 Y6.2148 I0.0605 J-0.0156
G1 X0.6848 Y6.2225
G2 X0.6849 Y6.2228 I0.0603 J-0.0165
G2 X0.7142 Y6.2919 I0.2827 J-0.0792
G2 X0.7144 Y6.2922 I0.0539 J-0.0316
G2 X0.7347 Y6.3224 I0.2856 J-0.1696
G2 X0.7455 Y6.3362 I0.3077 J-0.2312
G2 X0.7564 Y6.349 I0.3716 J-0.305
G2 X0.7907 Y6.3807 I0.17 J-0.1491
G2 X0.7913 Y6.3812 I0.0375 J-0.05
G1 X0.7977 Y6.3859
G2 X0.7989 Y6.3867 I0.0369 J-0.0505
G2 X0.8324 Y6.4069 I0.1706 J-0.2459
G2 X0.8327 Y6.407 I0.0286 J-0.0556
G2 X0.8638 Y6.4212 I0.1824 J-0.3582
G2 X0.8643 Y6.4214 I0.0235 J-0.0579
G2 X0.8931 Y6.4319 I0.1984 J-0.5017
G2 X0.8932 I0.0197 J-0.0593
G2 X0.9207 Y6.4401 I0.1649 J-0.5025
G2 X0.9209 Y6.4402 I0.0162 J-0.0604
G2 X0.9709 Y6.4518 I0.2129 J-0.8013
G2 X0.9713 Y6.4519 I0.0123 J-0.0613
G2 X1.0576 Y6.4653 I0.2248 J-1.1605
G2 X1.122 Y6.4718 I0.185 J-1.5148
G1 X1.1221
G1 X1.1453 Y6.4736
G2 X1.1458 I0.0049 J-0.0623
G2 X1.1664 Y6.4751 I0.3175 J-4.4931
G2 X1.1667 I0.0041 J-0.0624
G1 X1.1846 Y6.4762
G2 X1.1849 I0.0038 J-0.0624
G2 X1.3118 Y6.4811 I0.2093 J-3.7669
G1 X1.4882 Y6.4851
G2 X1.5519 Y6.4278 I0.0014 J-0.0625
G1 X1.5564 Y6.373
G2 Y6.3728 I-0.0623 J-0.0051
G2 X1.5569 Y6.3307 I-0.3139 J-0.0249
G2 Y6.33 I-0.0624 J0.0034
G2 X1.5543 Y6.3073 I-0.2384 J0.0156
G2 X1.5505 Y6.291 I-0.1165 J0.0185
G2 X1.5458 Y6.2786 I-0.0813 J0.0237
G2 X1.5352 Y6.2617 I-0.0683 J0.0312
G2 X1.5422 Y6.2517 I-0.0549 J-0.0459
G2 X1.5513 Y6.2301 I-0.0793 J-0.0463
G2 X1.556 Y6.2076 I-0.1596 J-0.0452
G2 X1.5561 Y6.2073 I-0.0619 J-0.0086
G2 X1.5587 Y6.1758 I-0.3107 J-0.0415
G2 X1.5574 Y6.1303 I-0.3768 J-0.0122
G2 Y6.1299 I-0.0623 J0.0055
G2 X1.5537 Y6.1048 I-0.2541 J0.0242
G2 X1.5534 Y6.1035 I-0.0613 J0.0121
G2 X1.549 Y6.0874 I-0.1452 J0.0317
G2 X1.5478 Y6.0843 I-0.0592 J0.0201
G2 X1.5435 Y6.0749 I-0.1087 J0.0435
G2 X1.5349 Y6.0616 I-0.0646 J0.0326
( Profile1 )
G0 Z0.125
( T2 : 0.0625 )
T2 M6
M3 S1000
G0 X1.3945 Y6.2537
G1 F10.0 Z-0.0625
G3 F30.0 X1.4254 Y6.2574 I-0.275 J2.4393
G3 X1.4698 Y6.2641 I-0.0951 J0.7754
G3 X1.4703 Y6.2642 I-0.0056 J0.0307
G3 X1.4821 Y6.2667 I-0.1247 J0.6277
G3 X1.4905 Y6.2689 I-0.0205 J0.0937
G3 X1.4954 Y6.2707 I-0.0207 J0.0672
G3 X1.4956 I-0.0114 J0.0291
G3 X1.5054 Y6.2762 I-0.016 J0.0401
G3 X1.5096 Y6.28 I-0.0186 J0.0251
G3 X1.5174 Y6.2918 I-0.0321 J0.0298
G3 X1.5205 Y6.3 I-0.0483 J0.0229
G3 X1.5234 Y6.3123 I-0.0827 J0.0258
G3 X1.5257 Y6.3321 I-0.205 J0.0333
G3 Y6.3324 I-0.0312 J0.002
G3 X1.5252 Y6.3704 I-0.2832 J0.0156
G1 X1.5207 Y6.4252
G3 X1.4889 Y6.4539 I-0.0311 J-0.0026
G1 X1.3125 Y6.4498
G3 X1.1866 Y6.445 I0.0817 J-3.7406
G3 X1.1865 I0.0017 J-0.0312
G1 X1.1686 Y6.4439
G3 X1.1685 I0.0019 J-0.0312
G3 X1.148 Y6.4425 I0.2948 J-4.4633
G3 X1.1478 I0.0022 J-0.0312
G1 X1.1245 Y6.4406
G3 X1.0613 Y6.4343 I0.1181 J-1.4901
G3 X0.9772 Y6.4212 I0.1347 J-1.1429
G3 X0.977 I0.0059 J-0.0307
G3 X0.9289 Y6.41 I0.1568 J-0.7822
G1 X0.9288 Y6.4099
G3 X0.903 Y6.4022 I0.1293 J-0.4806
G1 X0.9029
G3 X0.8758 Y6.3924 I0.1599 J-0.4825
G3 X0.8756 Y6.3923 I0.0115 J-0.0291
G3 X0.8469 Y6.3792 I0.1395 J-0.3434
G3 X0.8467 Y6.3791 I0.0142 J-0.0278
G3 X0.8167 Y6.3611 I0.1228 J-0.2382
G3 X0.8161 Y6.3606 I0.0178 J-0.0257
G1 X0.8098 Y6.356
G3 X0.8094 Y6.3557 I0.0184 J-0.0252
G3 X0.7799 Y6.3284 I0.117 J-0.1559
G3 X0.7697 Y6.3163 I0.3372 J-0.2972
G3 X0.7597 Y6.3037 I0.2727 J-0.2251
G3 X0.7413 Y6.2763 I0.2404 J-0.1811
G3 X0.7412 Y6.2761 I0.0269 J-0.016
G3 X0.715 Y6.2144 I0.2264 J-0.1325
G3 Y6.2142 I0.0301 J-0.0084
G1 X0.7129 Y6.2066
G3 X0.7127 Y6.2061 I0.0301 J-0.0083
G3 X0.7038 Y6.1618 I0.4091 J-0.1053
G3 X0.7005 Y6.1366 I0.4983 J-0.0786
G1 X0.6991 Y6.1239
G3 Y6.1235 I0.0311 J-0.0033
G3 X0.6942 Y6.0544 I1.4933 J-0.14
G1 X0.6938 Y6.0457
G3 Y6.0455 I0.0312 J-0.0015
G1 X0.6934 Y6.0365
G3 Y6.0364 I0.0312 J-0.0014
G1 X0.693 Y6.0271
G1 Y6.027
G1 X0.6927 Y6.0174
G1 Y6.0173
G1 X0.6923 Y6.0074
G1 Y6.0073
G1 X0.692 Y5.9971
G3 X0.6902 Y5.9108 I3.4798 J-0.1151
G3 Y5.9107 I0.0312 J-0.0003
G1 X0.6901 Y5.8822
G3 Y5.8819 I0.0312 J-0.0001
G1 Y5.8656
G3 X0.691 Y5.8212 I1.3161 J0.0047
G3 X0.6927 Y5.7946 I0.4444 J0.0148
G3 X0.6928 Y5.7938 I0.0311 J0.0029
G1 X0.6932 Y5.7907
G3 X0.6956 Y5.7789 I0.067 J0.0077
G3 X0.6965 Y5.7765 I0.0299 J0.009
G3 X0.7062 Y5.7608 I0.0472 J0.0187
G3 X0.7064 Y5.7607 I0.023 J0.0211
G3 X0.7164 Y5.7519 I0.0489 J0.0454
G3 X0.7169 Y5.7515 I0.0182 J0.0254
G3 X0.737 Y5.7414 I0.0472 J0.0687
G3 X0.7745 Y5.7352 I0.0368 J0.1068
G3 X0.8253 Y5.7377 I-0.0046 J0.6139
G1 X0.8321 Y5.7383
G3 X0.8323 I-0.0027 J0.0311
G3 X0.8885 Y5.7445 I-0.1228 J1.3676
G1 X0.8958 Y5.7455
G3 X0.896 I-0.0041 J0.031
G1 X0.9127 Y5.7478
G3 X0.958 Y5.7549 I-0.2061 J1.469
G3 X0.9836 Y5.7595 I-0.2279 J1.352
G3 X0.9977 Y5.7622 I-0.0874 J0.4891
G1 X1.0046 Y5.7636
G3 X1.0049 Y5.7637 I-0.0062 J0.0306
G1 X1.0197 Y5.7669
G3 X1.0558 Y5.7764 I-0.0839 J0.3914
G3 X1.0566 Y5.7766 I-0.0094 J0.0298
G1 X1.0607 Y5.778
G3 X1.0731 Y5.7834 I-0.0288 J0.0839
G3 X1.0867 Y5.7943 I-0.019 J0.0376
G3 X1.0892 Y5.7978 I-0.0242 J0.0198
G3 X1.0934 Y5.8069 I-0.037 J0.0227
G3 X1.0936 Y5.8074 I-0.0297 J0.0098
G1 X1.0944 Y5.8101
G3 X1.0948 Y5.8115 I-0.0299 J0.0092
G3 X1.0964 Y5.8188 I-0.1174 J0.0305
G3 X1.0965 Y5.8193 I-0.0307 J0.006
G1 X1.0972 Y5.8229
G3 X1.0973 Y5.8237 I-0.0308 J0.0055
G1 X1.0981 Y5.8286
G3 X1.0982 Y5.8293 I-0.0309 J0.0048
G1 X1.099 Y5.8359
G3 X1.0991 Y5.8366 I-0.031 J0.004
G1 X1.1001 Y5.8453
G3 Y5.8457 I-0.0311 J0.0034
G1 X1.1003 Y5.8481
G3 X1.1004 Y5.8485 I-0.0311 J0.003
G1 X1.1014 Y5.8609
G3 Y5.8612 I-0.0311 J0.0026
G3 X1.1039 Y5.9127 I-0.9506 J0.0717
G3 X1.1042 Y5.9276 I-0.5623 J0.0187
G1 X1.1043 Y5.9439
G3 X1.1044 Y5.9441 I-0.0312 J0.0003
G1 X1.1045 Y6.0297
G1 X1.2755 Y6.044
G3 X1.2756 I-0.0026 J0.0311
G1 X1.3154 Y6.0475
G3 X1.3156 I-0.0027 J0.0311
G1 X1.3553 Y6.0512
G3 X1.3555 I-0.0029 J0.0311
G1 X1.382 Y6.0539
G3 X1.3822 I-0.0031 J0.0311
G1 X1.4175 Y6.0577
G3 X1.4177 I-0.0033 J0.0311
G1 X1.4223 Y6.0582
G1 Y6.0583
G3 X1.4434 Y6.0608 I-0.2878 J2.4964
G3 X1.4435 I-0.0038 J0.031
G1 X1.4546 Y6.0622
G3 X1.4549 Y6.0623 I-0.004 J0.031
G1 X1.4667 Y6.0639
G3 X1.4671 Y6.064 I-0.0043 J0.0309
G1 X1.473 Y6.0649
G3 X1.4881 Y6.0677 I-0.0228 J0.1617
G3 X1.4992 Y6.0717 I-0.0086 J0.0411
G3 X1.5022 Y6.0736 I-0.0146 J0.0276
G3 X1.5156 Y6.089 I-0.0233 J0.0338
G3 X1.5188 Y6.0959 I-0.0765 J0.0388
G3 X1.5194 Y6.0974 I-0.029 J0.0116
G3 X1.5229 Y6.1102 I-0.1112 J0.0378
G3 X1.523 Y6.1108 I-0.0305 J0.0067
G3 X1.5262 Y6.1329 I-0.2198 J0.0433
G3 X1.5263 Y6.1331 I-0.0311 J0.003
G3 X1.5274 Y6.1748 I-0.3444 J0.0306
G3 X1.5251 Y6.2032 I-0.2821 J-0.009
G3 Y6.2033 I-0.031 J-0.0041
G3 X1.5212 Y6.2216 I-0.1334 J-0.0184
G3 X1.5152 Y6.236 I-0.0584 J-0.0162
G3 X1.503 Y6.2492 I-0.0349 J-0.0202
G3 X1.4987 Y6.2516 I-0.0176 J-0.0258
G3 X1.487 Y6.255 I-0.0165 J-0.0349
G1 X1.4847 Y6.2553
G3 X1.4829 Y6.2555 I-0.004 J-0.031
G1 X1.4782 Y6.2558
G3 X1.4775 I-0.0021 J-0.0312
G3 X1.4669 Y6.2561 I-0.0107 J-0.2347
G3 X1.4472 Y6.2559 I-0.0046 J-0.4809
G1 X1.4348 Y6.2555
G3 X1.4346 I0.0009 J-0.0312
G1 X1.4275 Y6.2553
G3 X1.4273 I0.0011 J-0.0312
G1 X1.4084 Y6.2544
G3 X1.4081 I0.0013 J-0.0312
G1 X1.3945 Y6.2537
G0 Z0.125
G0 X1.6068 Y6.2522
G1 F10.0 Z-0.0625
G1 F30.0 X1.6066 Y6.2295
G3 Y6.2293 I0.0312 J-0.0002
G1 X1.6065 Y6.1554
G1 Y6.1553
G1 Y6.1315
G1 Y6.1314
G1 X1.6066 Y6.1075
G3 Y6.1074 I0.0312 J0.0001
G1 X1.6071 Y6.0597
G1 Y6.0596
G3 X1.6089 Y5.9636 I6.1992 J0.0704
G1 Y5.9635
G1 X1.6093 Y5.9508
G3 Y5.9506 I0.0312 J0.0009
G1 X1.6103 Y5.9216
G3 X1.6111 Y5.9055 I0.533 J0.0166
G3 X1.6137 Y5.8687 I0.721 J0.0337
G3 X1.6138 Y5.8685 I0.0311 J0.0031
G3 X1.6156 Y5.8566 I0.1165 J0.0122
G3 X1.6217 Y5.8424 I0.0357 J0.0069
G3 X1.6263 Y5.8373 I0.0255 J0.0181
G3 X1.637 Y5.8303 I0.028 J0.0312
G3 X1.643 Y5.828 I0.0232 J0.0504
G3 X1.6478 Y5.8266 I0.0152 J0.0434
G1 X1.6482 Y5.8265
G3 X1.6544 Y5.8251 I0.0154 J0.0552
G1 X1.6585 Y5.8244
G3 X1.6592 Y5.8243 I0.0055 J0.0308
G3 X1.6794 Y5.822 I0.0375 J0.2415
G3 X1.6796 I0.0022 J0.0312
G1 X1.6913 Y5.8212
G3 X1.6919 I0.002 J0.0312
G3 X1.7406 Y5.8203 I0.0404 J0.8812
G3 X1.7407 I-0.0003 J0.0312
G1 X1.754 Y5.8205
G3 X1.7618 Y5.8206 I-0.0019 J0.2753
G1 X1.7692 Y5.8208
G3 X1.7694 I-0.0008 J0.0312
G3 X1.8929 Y5.8291 I-0.0566 J1.7646
G1 X1.9797 Y5.8382
G3 X2.0077 Y5.8693 I-0.0032 J0.0311
G1 Y6.1636
G1 Y6.4579
G3 X1.9764 Y6.4892 I-0.0313 J0.0
G1 X1.8294
G3 X1.7167 Y6.4866 I-0.0016 J-2.3792
G3 X1.7165 I0.0015 J-0.0312
G1 X1.7097 Y6.4862
G3 X1.7062 Y6.486 I0.0011 J-0.0478
G1 X1.6896 Y6.4849
G3 X1.689 Y6.4848 I0.0021 J-0.0312
G1 X1.6798 Y6.484
G3 X1.6791 I0.0027 J-0.0311
G1 X1.6694 Y6.4829
G3 X1.6684 Y6.4828 I0.0034 J-0.0311
G1 X1.6634 Y6.4821
G3 X1.6624 Y6.4819 I0.0044 J-0.0309
G1 X1.6599 Y6.4815
G3 X1.6501 Y6.479 I0.0113 J-0.0649
G3 X1.649 Y6.4786 I0.01 J-0.0296
G3 X1.6317 Y6.4672 I0.0168 J-0.0441
G3 X1.6311 Y6.4665 I0.0226 J-0.0216
G3 X1.6222 Y6.4533 I0.0412 J-0.0374
G3 X1.622 Y6.4529 I0.0281 J-0.0136
G3 X1.6155 Y6.4329 I0.0813 J-0.0376
G3 X1.6112 Y6.4029 I0.2451 J-0.0503
G3 X1.6083 Y6.3493 I0.9791 J-0.0805
G3 X1.6074 Y6.3142 I1.549 J-0.0543
G1 Y6.3099
G1 Y6.3098
G1 X1.6073 Y6.3052
G1 X1.6072 Y6.3004
G1 X1.6071 Y6.2955
G1 Y6.2904
G1 X1.607 Y6.2852
G3 Y6.285 I0.0312 J-0.0004
G1 X1.6068 Y6.2522
G0 Z0.125
G0 X2.0692 Y6.2246
G1 F10.0 Z-0.0625
G3 F30.0 X2.0684 Y6.2044 I0.5592 J-0.0334
G3 X2.0683 Y6.1633 I0.751 J-0.0228
G3 X2.0704 Y6.1143 I0.9203 J0.0149
G3 X2.0758 Y6.0644 I0.5721 J0.037
G3 X2.0826 Y6.0304 I0.3508 J0.0528
G3 X2.0984 Y5.9849 I0.2505 J0.0616
G3 X2.1371 Y5.9292 I0.1747 J0.0799
G1 Y5.9291
G3 X2.1666 Y5.9046 I0.1495 J0.1495
G3 X2.2023 Y5.8833 I0.1663 J0.2391
G3 X2.2335 Y5.869 I0.1499 J0.2843
G3 X2.2338 Y5.8689 I0.0115 J0.029
G3 X2.269 Y5.8586 I0.0776 J0.2005
G3 X2.2695 Y5.8585 I0.0062 J0.0306
G1 X2.2783 Y5.8569
G3 X2.2794 Y5.8567 I0.0057 J0.0307
G1 X2.2895 Y5.8552
G3 X2.2903 Y5.855 I0.0046 J0.0309
G3 X2.3189 Y5.8522 I0.0748 J0.5991
G3 X2.3566 Y5.8501 I0.0611 J0.7871
G1 X2.3773 Y5.8495
G3 X2.3777 I0.001 J0.0312
G1 X2.4013 Y5.849
G3 X2.4015 I0.0007 J0.0312
G1 X2.4076 Y5.8489
G1 X2.4139 Y5.8488
G1 X2.414
G3 X2.4813 Y5.8483 I0.0849 J6.49
G1 X2.4814
G1 X2.5705 Y5.8481
G1 X2.5706
G1 X2.6074 Y5.8482
G1 X2.6075
G1 X2.6442 Y5.8483
G3 X2.6443 I-0.0001 J0.0312
G1 X2.6689 Y5.8485
G1 X2.6829 Y5.8487
G3 X2.6831 I-0.0003 J0.0312
G1 X2.7204 Y5.8492
G1 X2.7205
G3 X2.7709 Y5.8505 I-0.0508 J2.8729
G3 X2.771 I-0.0011 J0.0312
G3 X2.7998 Y5.8519 I-0.0884 J2.2489
G1 X2.7999
G3 X2.8339 Y5.8545 I-0.0348 J0.664
G3 X2.8344 Y5.8546 I-0.0032 J0.0311
G1 X2.8427 Y5.8556
G3 X2.8429 I-0.0038 J0.031
G3 X2.8643 Y5.8597 I-0.0221 J0.175
G1 X2.8644
G3 X2.8803 Y5.866 I-0.0169 J0.0659
G3 X2.8972 Y5.8843 I-0.0187 J0.0341
G3 X2.8987 Y5.8884 I-0.0286 J0.0127
G3 X2.9017 Y5.9056 I-0.0779 J0.0225
G3 X2.9023 Y5.9179 I-0.2371 J0.0191
G3 X2.9022 Y5.9417 I-0.3357 J0.0102
G3 X2.9014 Y5.9574 I-0.2932 J-0.0064
G3 X2.8997 Y5.9779 I-0.4946 J-0.0308
G1 X2.8935 Y6.0378
G3 X2.8625 Y6.0659 I-0.0311 J-0.0032
G1 X2.6763
G1 X2.6464
G1 X2.6166 Y6.0661
G1 X2.5968 Y6.0665
G1 X2.5916 Y6.0666
G2 X2.5638 Y6.0676 I0.0389 J1.5272
G2 X2.5283 Y6.0703 I0.0284 J0.6026
G1 X2.5188 Y6.0716
G2 X2.5014 Y6.0755 I0.0157 J0.1116
G2 X2.494 Y6.0785 I0.0191 J0.0574
G3 X2.4937 Y6.0786 I-0.0137 J-0.0281
G2 X2.49 Y6.0827 I0.0031 J0.0065
G2 X2.4882 Y6.0913 I0.0343 J0.0117
G3 X2.4881 Y6.0919 I-0.0311 J-0.0026
G2 X2.4875 Y6.1064 I0.1219 J0.0127
G3 Y6.1075 I-0.0312 J0.0005
G3 Y6.108 I-0.0312 J0.0005
G1 Y6.1162
G1 X2.6608
G1 X2.8654
G3 X2.8967 Y6.1475 I0.0 J0.0313
G1 Y6.211
G3 Y6.2117 I-0.0313 J0.0
G2 Y6.2146 I0.0563 J0.0012
G3 Y6.2152 I-0.0312 J0.001
G1 X2.8968 Y6.2197
G1 X2.897 Y6.2288
G3 Y6.229 I-0.0312 J0.0007
G1 X2.8971 Y6.2349
G3 X2.8969 Y6.2452 I-0.1129 J0.0038
G3 X2.8946 Y6.2622 I-0.0789 J-0.0021
G3 X2.8739 Y6.2928 I-0.0507 J-0.0121
G3 X2.8735 Y6.293 I-0.018 J-0.0255
G3 X2.858 Y6.3008 I-0.036 J-0.0528
G3 X2.8577 Y6.3009 I-0.01 J-0.0296
G3 X2.8443 Y6.3044 I-0.0359 J-0.1104
G3 X2.8433 Y6.3046 I-0.0061 J-0.0307
G1 X2.838 Y6.3054
G3 X2.8368 Y6.3056 I-0.0051 J-0.0308
G1 X2.8312 Y6.3063
G3 X2.8302 Y6.3064 I-0.0038 J-0.031
G3 X2.799 Y6.3081 I-0.0384 J-0.4111
G3 X2.7626 Y6.3083 I-0.0229 J-1.2332
G1 X2.7533 Y6.3082
G3 X2.7325 Y6.3079 I0.0174 J-1.8993
G1 X2.7096 Y6.3075
G1 X2.6511 Y6.3063
G1 X2.6356 Y6.306
G3 X2.6352 I0.0006 J-0.0312
G2 X2.6181 Y6.3057 I-0.0215 J0.7646
G3 X2.6178 I0.0002 J-0.0312
G1 X2.6 Y6.3055
G1 X2.5646 Y6.3051
G1 X2.541
G3 X2.5403 I0.0 J-0.0312
G2 X2.5395 I-0.0016 J0.0793
G1 X2.54
G2 X2.5426 Y6.3054 I0.0425 J-0.4603
G1 X2.5561 Y6.3064
G1 X2.5715 Y6.3074
G1 X2.5796 Y6.3078
G1 X2.5984 Y6.3087
G1 X2.6032 Y6.3089
G1 X2.6253 Y6.3096
G1 X2.6505 Y6.3103
G1 X2.6569 Y6.3105
G1 X2.6636 Y6.3106
G1 X2.6942 Y6.3112
G1 X2.7291 Y6.3118
G1 X2.8674 Y6.3138
G3 X2.8982 Y6.3471 I-0.0005 J0.0312
G1 X2.8939 Y6.4141
G1 X2.8896 Y6.4811
G3 X2.8581 Y6.5104 I-0.0312 J-0.002
G1 X2.5663 Y6.5082
G1 X2.5662
G1 X2.5109 Y6.5078
G1 X2.4924 Y6.5076
G1 X2.4678 Y6.5074
G1 X2.4677
G1 X2.4349 Y6.5069
G1 X2.4261 Y6.5068
G1 X2.426
G1 X2.406 Y6.5064
G3 X2.4059 I0.0006 J-0.0312
G1 X2.383 Y6.5058
G3 X2.3213 Y6.5029 I0.0438 J-1.5938
G3 X2.3182 Y6.5027 I0.0025 J-0.0545
G3 X2.2816 Y6.4986 I0.039 J-0.5103
G3 X2.2814 Y6.4985 I0.0046 J-0.0309
G3 X2.2714 Y6.4968 I0.0385 J-0.2466
G3 X2.2243 Y6.4816 I0.035 J-0.1892
G3 X2.2031 Y6.4705 I0.1378 J-0.2905
G3 X2.2014 Y6.4696 I0.0161 J-0.0307
G3 X2.1469 Y6.4291 I0.1258 J-0.2259
G3 X2.1467 Y6.4289 I0.0218 J-0.0224
G3 X2.1052 Y6.3726 I0.1616 J-0.1629
G1 X2.1051
G3 X2.0875 Y6.3304 I0.2327 J-0.1221
G3 X2.0743 Y6.2733 I0.3442 J-0.1097
G3 X2.0705 Y6.2409 I0.4474 J-0.0693
G3 X2.0692 Y6.2246 I0.558 J-0.0498
G0 Z0.125
G0 X3.3482 Y6.2775
G1 F10.0 Z-0.0625
G1 F30.0 Y6.3021
G1 Y6.3279
G1 X3.4211
G2 X3.4617 Y6.327 I-0.0005 J-0.9238
G2 X3.4917 Y6.3242 I-0.0131 J-0.3001
G3 X3.4918 I0.0045 J0.0309
G2 X3.5119 Y6.3195 I-0.0168 J-0.1192
G1 X3.512
G2 X3.5209 Y6.3151 I-0.01 J-0.0311
G2 X3.5238 Y6.3102 I-0.0047 J-0.0061
G3 X3.5239 Y6.31 I0.0308 J0.005
G2 X3.5245 Y6.3013 I-0.0443 J-0.0075
G3 Y6.3011 I0.0312 J-0.0008
G2 X3.5236 Y6.2907 I-0.0756 J0.0014
G3 X3.5235 Y6.2905 I0.0309 J-0.0049
G2 X3.523 Y6.2871 I-0.1051 J0.0157
G2 X3.5198 Y6.2863 I-0.0096 J0.0347
G1 X3.5197
G2 X3.5002 Y6.2838 I-0.0326 J0.1765
G3 X3.4999 I0.0023 J-0.0312
G2 X3.4668 Y6.2818 I-0.0582 J0.6906
G1 X3.4322 Y6.2805
G1 X3.3482 Y6.2775
G0 Z0.125
G0 X3.3816 Y6.0712
G1 F10.0 Z-0.0625
G2 F30.0 X3.3848 Y6.0676 I-2.2153 J-1.9643
G1 X3.3849 Y6.0675
G1 X3.3925 Y6.0589
G1 X3.3966 Y6.0543
G1 X3.4009 Y6.0494
G1 X3.4239 Y6.0232
G1 X3.437 Y6.0082
G3 X3.4375 Y6.0076 I0.0235 J0.0205
G2 X3.4399 Y6.0049 I-0.0519 J-0.0476
G3 X3.4404 Y6.0043 I0.0241 J0.0199
G1 X3.4558 Y5.9865
G1 X3.5775 Y5.846
G3 X3.5996 Y5.8353 I0.0236 J0.0205
G1 X3.7009 Y5.8304
G1 X3.8166 Y5.8247
G1 X3.855 Y5.8228
G3 X3.8755 Y5.8225 I0.0131 J0.2222
G3 X3.9002 Y5.8259 I-0.0023 J0.1068
G3 X3.9237 Y5.8383 I-0.014 J0.0552
G3 X3.9244 Y5.8389 I-0.0206 J0.0235
G3 X3.9365 Y5.8574 I-0.0315 J0.0338
G3 X3.9367 Y5.858 I-0.0295 J0.0104
G3 X3.9391 Y5.879 I-0.0494 J0.0163
G3 X3.9356 Y5.8957 I-0.0725 J-0.0065
G3 X3.9302 Y5.9091 I-0.1116 J-0.037
G3 X3.9233 Y5.9222 I-0.1311 J-0.0605
G3 X3.9155 Y5.935 I-0.1971 J-0.1118
G3 X3.897 Y5.9615 I-0.3694 J-0.2385
G1 X3.8873 Y5.9743
G3 X3.887 Y5.9747 I-0.0249 J-0.0189
G1 X3.8763 Y5.9883
G3 X3.864 Y6.0036 I-0.5381 J-0.4216
G1 X3.8577 Y6.0112
G3 Y6.0113 I-0.0242 J-0.0198
G1 X3.851 Y6.0193
G1 X3.7883 Y6.0946
G1 X3.8159 Y6.1188
G3 X3.8322 Y6.1333 I-0.4283 J0.4954
G3 X3.8495 Y6.1511 I-0.1349 J0.1484
G3 X3.8498 Y6.1515 I-0.0237 J0.0204
G3 X3.8605 Y6.1664 I-0.1003 J0.0834
G3 X3.861 Y6.1672 I-0.0266 J0.0164
G3 X3.8713 Y6.1919 I-0.0908 J0.0524
G3 X3.8715 Y6.1925 I-0.0301 J0.0082
G3 X3.8762 Y6.2229 I-0.1619 J0.0407
G3 X3.877 Y6.2382 I-0.4023 J0.0284
G3 Y6.2386 I-0.0312 J0.001
G1 X3.8773 Y6.2549
G3 Y6.2554 I-0.0312 J0.0006
G1 X3.8774 Y6.2738
G3 Y6.2741 I-0.0312 J0.0001
G1 X3.8773 Y6.2927
G3 Y6.293 I-0.0312 J-0.0001
G1 X3.8772 Y6.2992
G3 Y6.2994 I-0.0312 J-0.0004
G3 X3.8761 Y6.3257 I-0.5434 J-0.0098
G3 X3.876 Y6.3266 I-0.0312 J-0.0021
G1 X3.8754 Y6.3336
G3 X3.8753 Y6.3338 I-0.0311 J-0.003
G3 X3.8708 Y6.3577 I-0.1414 J-0.0146
G3 X3.8707 Y6.3579 I-0.0301 J-0.0084
G3 X3.8551 Y6.3902 I-0.1028 J-0.0298
G3 Y6.3903 I-0.0255 J-0.0181
G3 X3.8434 Y6.4046 I-0.1232 J-0.0884
G3 X3.8433 Y6.4047 I-0.023 J-0.0212
G3 X3.8305 Y6.4177 I-0.2456 J-0.2282
G3 X3.8157 Y6.4316 I-0.316 J-0.3234
G1 X3.8065 Y6.4398
G3 X3.806 Y6.4403 I-0.0208 J-0.0233
G1 X3.8028 Y6.443
G3 X3.8026 Y6.4432 I-0.0202 J-0.0238
G3 X3.7876 Y6.4547 I-0.1556 J-0.1873
G3 X3.7874 Y6.4548 I-0.018 J-0.0255
G3 X3.7516 Y6.4737 I-0.0943 J-0.1356
G3 X3.7273 Y6.4813 I-0.0783 J-0.2055
G3 X3.6958 Y6.4878 I-0.0838 J-0.3275
G1 X3.6881 Y6.489
G3 X3.6878 Y6.4891 I-0.0048 J-0.0309
G3 X3.6451 Y6.4941 I-0.1127 J-0.7771
G3 X3.5896 Y6.4982 I-0.1523 J-1.6707
G1 X3.5895
G1 X3.5584 Y6.4999
G3 X3.5582 I-0.0017 J-0.0312
G1 X3.5502 Y6.5003
G3 X3.55 I-0.0015 J-0.0312
G1 X3.5134 Y6.5019
G3 X3.5133 Y6.502 I-0.0014 J-0.0312
G3 X3.4158 Y6.5054 I-0.4809 J-12.229
G3 X3.287 Y6.5091 I-1.3205 J-43.1703
G3 X3.2781 Y6.5094 I-0.0101 J-0.2054
G3 X3.1365 Y6.5122 I-0.2142 J-7.1699
G3 X3.1364 I-0.0003 J-0.0312
G3 X3.0886 Y6.512 I-0.0129 J-2.2004
G3 X3.0882 I0.0005 J-0.0312
G1 X3.0756 Y6.5116
G3 X3.0751 I0.0008 J-0.0312
G1 X3.0618 Y6.511
G3 X3.0465 Y6.51 I0.0104 J-0.258
G3 X3.0413 Y6.5095 I0.0035 J-0.0609
G3 X3.0238 Y6.5068 I0.0179 J-0.176
G3 X3.012 Y6.5036 I0.0155 J-0.0799
G3 X2.9947 Y6.4939 I0.0165 J-0.0501
G3 X2.9945 Y6.4938 I0.0201 J-0.024
G3 X2.983 Y6.4775 I0.0261 J-0.0307
G3 X2.9824 Y6.4758 I0.0292 J-0.0112
G3 X2.9803 Y6.4652 I0.0451 J-0.0145
G1 X2.9799 Y6.4616
G3 X2.9798 Y6.4604 I0.0311 J-0.003
G1 X2.9794 Y6.4528
G3 Y6.4518 I0.0312 J-0.0018
G1 X2.979 Y6.4365
G3 X2.9789 Y6.4362 I0.0312 J-0.0008
G3 X2.9788 Y6.4047 I1.1583 J-0.0215
G3 X2.9796 Y6.3428 I4.098 J0.0201
G3 X2.983 Y6.2195 I8.1906 J0.1674
G1 X2.9843 Y6.1844
G1 Y6.1843
G1 X2.9851 Y6.1656
G1 X2.9965 Y5.8852
G3 X3.0277 Y5.8552 I0.0312 J0.0013
G1 X3.19
G1 X3.3523
G3 X3.3835 Y5.8868 I0.0 J0.0313
G1 X3.3819 Y6.0173
G1 X3.3818 Y6.0224
G1 Y6.0276
G3 Y6.0281 I-0.0312 J-0.0003
G2 X3.3817 Y6.0372 I0.2315 J0.0065
G3 Y6.0378 I-0.0312 J0.0004
G1 Y6.0446
G1 X3.3816 Y6.0712
G0 Z0.125
G0 X4.3504 Y6.0817
G1 F10.0 Z-0.0625
G1 F30.0 X4.3502 Y6.0974
G1 X4.3501 Y6.112
G1 Y6.1193
G1 Y6.1266
G1 Y6.1351
G1 X4.3502 Y6.1434
G1 Y6.1435
G2 X4.3503 Y6.1594 I1.4381 J-0.0052
G1 X4.3506 Y6.1748
G1 X4.351 Y6.1892
G1 X4.3516 Y6.2027
G1 X4.3525 Y6.2155
G2 X4.3549 Y6.2378 I0.2838 J-0.0197
G1 X4.3557 Y6.2428
G1 X4.3566 Y6.2477
G1 Y6.2478
G2 X4.3608 Y6.263 I0.0924 J-0.0169
G3 X4.361 Y6.2636 I-0.0294 J0.0107
G2 X4.3655 Y6.2728 I0.0371 J-0.0127
G3 X4.3656 Y6.2729 I-0.0259 J0.0175
G2 X4.3752 Y6.2804 I0.0164 J-0.0109
G2 X4.3897 Y6.2837 I0.0194 J-0.0523
G3 X4.3902 I-0.0027 J0.0311
G2 X4.3969 Y6.2842 I0.0128 J-0.1233
G2 X4.4239 Y6.2838 I0.0096 J-0.2602
G2 X4.453 Y6.2814 I-0.0546 J-0.8133
G1 X4.4549 Y6.2812
G1 X4.4569 Y6.2809
G1 X4.4588 Y6.2807
G1 X4.4607 Y6.2805
G1 X4.4625 Y6.2803
G1 X4.4645 Y6.2801
G3 X4.4648 Y6.28 I0.0037 J0.031
G2 X4.4927 Y6.2757 I-0.0329 J-0.3007
G3 X4.4929 Y6.2756 I0.0063 J0.0306
G2 X4.515 Y6.2695 I-0.03 J-0.1508
G2 X4.5292 Y6.2622 I-0.0221 J-0.0607
G2 X4.544 Y6.2436 I-0.0256 J-0.0356
G3 X4.5441 Y6.2434 I0.0288 J0.0121
G2 X4.5511 Y6.2205 I-0.1049 J-0.0446
G3 X4.5512 Y6.2199 I0.0307 J0.006
G2 X4.5521 Y6.2155 I-0.1124 J-0.0239
G1 X4.5525 Y6.213
G2 X4.5566 Y6.1751 I-0.3753 J-0.0599
G3 Y6.1749 I0.0312 J0.0018
G1 X4.557 Y6.17
G1 X4.5578 Y6.1523
G2 X4.5583 Y6.1346 I-2.6007 J-0.088
G1 X4.5589 Y6.1087
G1 X4.5593 Y6.0859
G1 X4.5596 Y6.0661
G1 X4.5597 Y6.0485
G2 X4.5591 Y6.019 I-0.6786 J-0.0028
G1 X4.5586 Y6.0079
G1 X4.5578 Y5.9984
G2 X4.5556 Y5.9837 I-0.1788 J0.0186
G2 X4.5532 Y5.9747 I-0.0743 J0.0159
G2 X4.5484 Y5.9664 I-0.0274 J0.01
G2 X4.5443 Y5.962 I-0.0415 J0.0351
G1 X4.5412 Y5.9592
G1 X4.5377 Y5.9564
G2 X4.5166 Y5.9451 I-0.0383 J0.0468
G1 X4.5165
G2 X4.5072 Y5.943 I-0.0212 J0.0717
G1 X4.5071
G2 X4.4885 Y5.9415 I-0.0184 J0.113
G1 X4.4884
G2 X4.4567 Y5.9435 I0.0 J0.2584
G1 X4.4566
G2 X4.4234 Y5.9485 I0.0674 J0.5552
G2 X4.418 Y5.9499 I0.0093 J0.0482
G2 X4.406 Y5.9546 I0.04 J0.1194
G1 X4.401 Y5.957
G1 X4.3989 Y5.9581
G2 X4.3714 Y5.977 I0.0607 J0.1179
G3 X4.3709 Y5.9774 I-0.0208 J-0.0233
G3 X4.37 Y5.9783 I-0.0224 J-0.0218
G2 X4.364 Y5.9845 I0.0654 J0.0691
G3 X4.3639 Y5.9846 I-0.0234 J-0.0207
G2 X4.3583 Y5.9936 I0.0233 J0.0208
G2 X4.355 Y6.0049 I0.0533 J0.0216
G1 X4.3544 Y6.0085
G2 X4.3516 Y6.0355 I0.2548 J0.0394
G3 Y6.0362 I-0.0312 J-0.0015
G2 X4.3511 Y6.0463 I0.2187 J0.0154
G3 Y6.0464 I-0.0312 J-0.0008
G1 X4.3505 Y6.0667
G3 Y6.0673 I-0.0312 J-0.0009
G3 Y6.0681 I-0.0312 J0.0004
G1 X4.3504 Y6.0817
G0 Z0.125
G0 X4.3204 Y5.7869
G1 F10.0 Z-0.0625
G1 F30.0 X4.351 Y5.7838
G3 X4.3512 I0.0032 J0.0311
G3 X4.5521 Y5.7688 I0.4518 J4.689
G3 X4.6195 Y5.7658 I0.1526 J2.6942
G3 X4.6196 I0.001 J0.0312
G1 X4.6374 Y5.7653
G3 X4.6377 I0.0008 J0.0312
G1 X4.6399
G1 X4.64
G1 X4.6445 Y5.7652
G3 X4.6448 I0.0005 J0.0312
G1 X4.6593 Y5.7651
G3 X4.6748 I0.0062 J0.4249
G1 X4.6845 Y5.7653
G1 X4.6846
G3 X4.7256 Y5.7675 I-0.0115 J0.5805
G3 X4.7262 Y5.7676 I-0.0028 J0.0311
G1 X4.7369 Y5.7688
G3 X4.7414 Y5.7694 I-0.0057 J0.0609
G3 X4.775 Y5.7762 I-0.0331 J0.2485
G3 X4.795 Y5.7831 I-0.046 J0.1681
G3 X4.8444 Y5.8151 I-0.0572 J0.1422
G3 X4.8657 Y5.8395 I-0.1343 J0.1388
G3 X4.8658 Y5.8396 I-0.0252 J0.0185
G3 X4.8748 Y5.8525 I-0.2993 J0.2181
G3 X4.875 Y5.8528 I-0.026 J0.0173
G3 X4.8931 Y5.8837 I-0.3169 J0.2067
G3 X4.9034 Y5.908 I-0.1319 J0.0702
G3 X4.9098 Y5.9307 I-0.2638 J0.087
G3 X4.9099 Y5.9311 I-0.0304 J0.0072
G1 X4.9112 Y5.9369
G3 X4.9113 Y5.9373 I-0.0305 J0.0069
G3 X4.919 Y5.9885 I-0.4255 J0.0901
G3 Y5.9887 I-0.0311 J0.0028
G1 X4.9202 Y6.0024
G3 Y6.0028 I-0.0311 J0.0026
G3 X4.9196 Y6.1168 I-0.7424 J0.0527
G3 X4.9091 Y6.1926 I-0.6327 J-0.0485
G1 Y6.1927
G3 X4.8977 Y6.2364 I-0.3848 J-0.0773
G3 X4.8884 Y6.2604 I-0.2059 J-0.0659
G3 X4.8665 Y6.3028 I-0.3797 J-0.1693
G3 X4.8662 Y6.3033 I-0.0269 J-0.0159
G3 X4.8575 Y6.3168 I-0.3212 J-0.1978
G3 X4.8573 Y6.317 I-0.0259 J-0.0175
G3 X4.8433 Y6.3352 I-0.1774 J-0.1219
G3 X4.821 Y6.3574 I-0.1419 J-0.1204
G3 X4.7868 Y6.3807 I-0.1335 J-0.1597
G3 X4.7866 Y6.3808 I-0.0149 J-0.0275
G3 X4.7384 Y6.4011 I-0.1356 J-0.2538
G1 X4.7356 Y6.402
G3 X4.7223 Y6.406 I-0.105 J-0.3259
G3 X4.7222 I-0.0084 J-0.0301
G3 X4.6928 Y6.4134 I-0.1793 J-0.6541
G3 X4.6925 Y6.4135 I-0.0069 J-0.0305
G3 X4.6593 Y6.42 I-0.2093 J-0.9722
G1 X4.6592
G3 X4.6212 Y6.426 I-0.1732 J-0.9745
G1 X4.6211
G1 X4.6015 Y6.4287
G3 X4.6012 I-0.0042 J-0.031
G3 X4.5561 Y6.434 I-0.3459 J-2.7655
G3 X4.5318 Y6.4365 I-0.1298 J-1.1462
G3 X4.4063 Y6.4472 I-0.5732 J-5.9925
G1 X4.4024 Y6.4475
G1 X4.4023
G1 X4.3984 Y6.4478
G1 X4.3983
G1 X4.33 Y6.4528
G3 X4.3299 I-0.0023 J-0.0312
G1 X4.3071 Y6.4543
G3 X4.3069 I-0.0021 J-0.0312
G1 X4.2765 Y6.4562
G3 X4.2762 I-0.0019 J-0.0312
G1 X4.2589 Y6.4571
G3 X4.211 Y6.4585 I-0.0523 J-0.977
G3 X4.1824 Y6.4577 I-0.0021 J-0.4136
G3 X4.1818 Y6.4576 I0.002 J-0.0312
G1 X4.175 Y6.4571
G3 X4.1747 Y6.457 I0.0026 J-0.0311
G3 X4.1574 Y6.4546 I0.0171 J-0.1867
G3 X4.1175 Y6.4416 I0.0288 J-0.1554
G3 X4.1172 Y6.4414 I0.0136 J-0.0282
G1 X4.1094 Y6.4376
G3 X4.1091 Y6.4374 I0.0139 J-0.028
G3 X4.0627 Y6.4032 I0.0803 J-0.1574
G3 X4.0626 Y6.4031 I0.0224 J-0.0218
G3 X4.0297 Y6.3572 I0.1404 J-0.1354
G3 X4.0154 Y6.3242 I0.2353 J-0.1216
G3 X4.003 Y6.2795 I0.3123 J-0.1102
G3 X3.9946 Y6.2208 I0.4883 J-0.1002
G3 X3.9924 Y6.188 I0.7976 J-0.0688
G3 X3.9916 Y6.1506 I0.8528 J-0.0376
G3 X3.9927 Y6.1012 I1.0326 J-0.0018
G3 Y6.1009 I0.0312 J0.0014
G1 X3.9931 Y6.0941
G3 Y6.0938 I0.0312 J0.0017
G1 X3.9933 Y6.0902
G3 X4.0006 Y6.0287 I0.563 J0.035
G3 X4.0007 Y6.0282 I0.0308 J0.0053
G3 X4.0041 Y6.0112 I0.7983 J0.1527
G1 Y6.0111
G3 X4.0094 Y5.9904 I0.2762 J0.0595
G3 X4.03 Y5.9376 I0.2903 J0.0829
G3 X4.0301 Y5.9374 I0.0279 J0.014
G3 X4.0746 Y5.8745 I0.2435 J0.1249
G1 Y5.8744
G1 X4.0796 Y5.8692
G3 X4.0799 Y5.8688 I0.0227 J0.0215
G1 X4.085 Y5.8637
G3 X4.0854 Y5.8633 I0.0223 J0.0219
G1 X4.0888 Y5.86
G3 X4.1056 Y5.845 I0.1454 J0.1467
G3 X4.1059 Y5.8448 I0.0195 J0.0245
G1 X4.1102 Y5.8414
G3 X4.1106 Y5.8411 I0.0192 J0.0247
G3 X4.1571 Y5.8158 I0.1087 J0.1446
G3 X4.1884 Y5.8063 I0.093 J0.2507
G3 X4.1969 Y5.8044 I0.0436 J0.1684
G3 X4.2156 Y5.8006 I0.0843 J0.3733
G1 X4.22 Y5.7998
G3 X4.2203 I0.0055 J0.0308
G1 X4.2249 Y5.799
G3 X4.2251 I0.0053 J0.0308
G1 X4.23 Y5.7982
G3 X4.2303 Y5.7981 I0.005 J0.0308
G1 X4.2406 Y5.7966
G3 X4.2409 Y5.7965 I0.0047 J0.0309
G1 X4.2519 Y5.7949
G3 X4.2522 I0.0044 J0.0309
G1 X4.2639 Y5.7933
G3 X4.2642 I0.0041 J0.031
G1 X4.2767 Y5.7918
G3 X4.2768 Y5.7917 I0.0038 J0.031
G1 X4.28 Y5.7914
G1 X4.2801
G1 X4.2833 Y5.791
G1 X4.2866 Y5.7906
G3 X4.2868 I0.0036 J0.031
G1 X4.3167 Y5.7873
G3 X4.3169 I0.0034 J0.0311
G1 X4.3204 Y5.7869
G0 Z0.125
G0 X3.8731 Y4.7447
G1 F10.0 Z-0.0625
G3 F30.0 X3.8312 Y4.7455 I-0.0218 J-0.0508
G3 X3.8133 Y4.7053 I0.0113 J-0.0291
G2 X3.8775 Y4.4036 I-0.9584 J-0.3614
G2 X3.7199 Y4.1917 I-0.2101 J-0.0082
G3 X3.5407 Y4.7985 I-0.338 J0.23
G3 X3.5385 Y4.7994 I-0.0121 J-0.0288
G3 X2.8164 Y4.9087 I-0.6755 J-2.0211
G3 X2.7977 Y4.853 I0.0007 J-0.0312
G2 X2.9349 Y4.698 I-0.3641 J-0.4604
G2 X2.903 Y4.4652 I-0.2016 J-0.0909
G2 X2.8966 Y4.4683 I-0.0026 J0.0028
G3 X2.8967 Y4.4724 I-0.0311 J0.0028
G3 X2.4744 Y4.8914 I-0.4368 J-0.018
G3 X2.4707 Y4.8913 I-0.001 J-0.0312
G3 X1.8533 Y4.8292 I1.9045 J-22.0338
G3 X1.8521 Y4.829 I0.0036 J-0.031
G2 X1.2209 Y4.8236 I-0.3341 J2.1395
G3 X1.2204 I-0.0043 J-0.031
G2 X0.7953 Y4.9879 I0.1099 J0.9167
G3 X0.7502 Y4.9466 I-0.0181 J-0.0255
G3 X1.6802 Y4.2046 I1.4397 J0.8508
G3 X1.6816 Y4.2042 I0.0095 J0.0298
G3 X2.5263 Y4.0111 I2.9273 J10.8629
G3 X2.5276 Y4.0109 I0.0058 J0.0307
G2 X2.9842 Y3.878 I-0.2428 J-1.6847
G3 X2.9845 Y3.8779 I0.0128 J0.0285
G2 X3.322 Y3.465 I-0.2349 J-0.5365
G3 X3.3236 Y3.46 I0.0305 J0.0066
G3 X3.526 Y3.3222 I0.2038 J0.082
G3 X3.5356 Y3.3237 I0.0002 J0.0312
G2 X3.5876 Y3.3176 I0.0192 J-0.0613
G2 X3.5664 Y3.2934 I-0.0229 J-0.0014
G3 X3.5642 Y3.2932 I0.0024 J-0.0312
G3 X3.2757 Y3.0647 I0.0558 J-0.3669
G2 X2.845 Y2.6498 I-0.8074 J0.4072
G2 X2.1628 Y2.3979 I-7.6672 J19.7139
G3 X1.7772 Y2.2125 I0.2324 J-0.9767
G3 X1.5888 Y1.9408 I0.2512 J-0.3754
G3 X1.5887 Y1.9403 I0.0304 J-0.0072
G3 X1.7619 Y1.7562 I0.1496 J-0.0328
G3 X1.7641 Y1.7566 I-0.0048 J0.0309
G3 X2.0868 Y1.8565 I-0.505 J2.2035
G2 X3.1519 Y1.8551 I0.5287 J-2.902
G3 X3.3984 Y1.8125 I0.3934 J1.5427
G3 X3.4269 Y1.8258 I0.0029 J0.0311
G3 X3.4134 Y1.9206 I-0.0578 J0.0401
G3 X3.0718 Y2.1069 I-0.4433 J-0.4064
G1 X3.0717
G3 X2.3647 Y2.1736 I-0.8079 J-4.7849
G3 X2.3538 Y2.1719 I-0.0006 J-0.0312
G2 X2.2983 Y2.1773 I-0.0219 J0.0631
G2 X2.3284 Y2.2066 I0.0423 J-0.0134
G2 X3.1471 Y2.2938 I1.0704 J-6.1635
G3 X4.089 Y2.4442 I-0.1219 J3.7876
G3 X4.6568 Y2.7264 I-0.2616 J1.2386
G3 X4.6597 Y2.7293 I-0.0205 J0.0236
G3 X4.9058 Y3.2831 I-0.7453 J0.6628
G3 X4.9045 Y3.4151 I-0.1424 J0.0646
G3 X4.8656 Y3.431 I-0.0282 J-0.0135
G3 X4.7532 Y3.3593 I0.1063 J-0.2908
G3 X4.75 Y3.3557 I0.0221 J-0.0221
G2 X4.4815 Y3.1748 I-0.384 J0.2804
G2 X4.2931 Y3.1655 I-0.1662 J1.4485
G2 X4.2991 Y3.1874 I0.0386 J0.0011
G3 X4.7145 Y3.4301 I-0.0501 J0.5626
G3 X4.7167 Y3.4338 I-0.0258 J0.0177
G3 X4.7198 Y3.8879 I-0.4571 J0.2302
G3 X4.5146 Y4.2044 I-0.7986 J-0.2929
G3 X4.5115 Y4.207 I-0.0218 J-0.0224
G3 X4.4298 Y4.1604 I-0.0308 J-0.0411
G2 X4.1863 Y3.8505 I-0.3421 J0.0183
G3 X4.1804 Y3.8481 I0.009 J-0.0299
G2 X4.0709 Y3.8214 I-0.105 J0.1927
G2 X4.1128 Y3.8586 I0.0646 J-0.0305
G3 X4.35 Y4.1383 I-0.0617 J0.2928
G3 X4.3498 Y4.1441 I-0.0312 J0.0014
G3 X4.1925 Y4.4698 I-0.5908 J-0.0844
G3 X3.8905 Y4.733 I-0.8485 J-0.6688
G3 X3.8731 Y4.7447 I-0.0392 J-0.039
G0 Z0.125
G0 X2.9031 Y3.5795
G1 F10.0 Z-0.0625
G3 F30.0 X2.8938 Y3.5848 I-0.02 J-0.024
G3 X2.3884 Y3.5922 I-0.2634 J-0.7258
G3 X2.3825 Y3.5896 I0.0098 J-0.0297
G2 X2.2925 Y3.5591 I-0.1203 J0.207
G2 X2.3481 Y3.6147 I0.0989 J-0.0433
G3 X2.3516 Y3.6165 I-0.0125 J0.0286
G1 X2.4087 Y3.6506
G3 X2.3878 Y3.7083 I-0.016 J0.0268
G3 X1.9365 Y3.5881 I0.3545 J-2.239
G3 X1.9272 Y3.5826 I0.0111 J-0.0292
G2 X1.9092 Y3.5719 I-0.0399 J0.0464
G2 X1.9099 Y3.5733 I0.047 J-0.0219
G3 X1.8542 Y3.6421 I-0.0274 J0.0348
G3 X1.4552 Y3.3986 I1.2166 J-2.4425
G2 X1.3695 Y3.3878 I-0.0722 J0.227
G3 X1.3395 Y3.5293 I-0.2622 J0.0184
G3 X1.291 Y3.5379 I-0.0276 J-0.0146
G3 X1.0897 Y3.2696 I0.5905 J-0.6524
G2 X0.9327 Y3.0081 I-62.1496 J37.1551
G3 X0.9304 Y3.0034 I0.0268 J-0.0161
G2 X0.8173 Y2.7592 I-2.0796 J0.8145
G3 X0.8139 Y2.7491 I0.0275 J-0.0148
G2 X0.7338 Y2.6049 I-0.2338 J0.0355
G3 X0.7149 Y2.4895 I0.0515 J-0.0677
G3 X0.8011 Y2.3729 I0.4267 J0.2252
G3 X0.8528 Y2.3851 I0.0221 J0.0221
G2 X0.9169 Y2.4344 I0.0688 J-0.0231
G3 X0.9177 Y2.3599 I0.4776 J-0.0319
G3 X0.954 Y2.3318 I0.0311 J0.0028
G3 X1.0954 Y2.4633 I-0.0288 J0.1727
G2 X1.2391 Y2.6156 I0.2739 J-0.1144
G3 X1.4454 Y2.7413 I-0.1595 J0.4939
G3 X1.4859 Y2.9373 I-0.102 J0.1232
G3 X1.4738 Y2.9501 I-0.0278 J-0.0142
G2 X1.4313 Y2.9892 I0.067 J0.1154
G2 X1.4861 Y2.9678 I-0.0105 J-0.1079
G3 X1.5056 Y2.9616 I0.0188 J0.025
G2 X1.6526 Y2.9451 I0.013 J-0.547
G2 X1.8376 Y2.7635 I-0.13 J-0.3176
G2 X1.7484 Y2.6043 I-0.1424 J-0.0248
G3 X1.7458 Y2.6032 I0.0115 J-0.0291
G3 X1.2326 Y2.1118 I0.546 J-1.0841
G3 X1.1837 Y1.7878 I0.3273 J-0.2151
G3 X1.1857 Y1.7825 I0.03 J0.0087
G3 X1.5705 Y1.5969 I0.3123 J0.1558
G3 X1.8019 Y1.6745 I-0.0634 J0.5729
G3 X1.7783 Y1.7317 I-0.016 J0.0269
G2 X1.5936 Y1.7775 I-0.0494 J0.1963
G2 X1.6276 Y2.1057 I0.2537 J0.1396
G3 X1.6278 Y2.106 I-0.0237 J0.0204
G2 X2.0281 Y2.3823 I0.7011 J-0.5877
G3 X2.7844 Y2.6589 I-2.0394 J6.7465
G3 X3.0648 Y2.8296 I-0.2422 J0.7136
G3 X3.1348 Y2.9808 I-0.0732 J0.1258
G3 X3.1288 Y2.9944 I-0.0308 J-0.0055
G3 X2.9049 Y3.1976 I-0.6803 J-0.5249
G3 X2.9013 Y3.1995 I-0.0166 J-0.0265
G2 X2.8196 Y3.295 I0.0621 J0.1358
G3 X3.0426 Y3.2833 I0.3521 J4.5992
G3 X3.1035 Y3.3325 I0.0214 J0.0358
G3 X3.0882 Y3.3502 I-0.0296 J-0.0101
G3 X2.8654 Y3.4614 I-3.959 J-7.6567
G3 X2.8572 Y3.464 I-0.0135 J-0.0282
G2 X2.7059 Y3.4994 I0.2289 J1.318
G2 X2.7066 Y3.4999 I0.0014 J-0.0012
G2 X2.8855 Y3.5243 I0.3002 J-1.5345
G3 X2.9031 Y3.5795 I-0.0024 J0.0312
( Profile2 )
G0 Z0.125
( T3 : 0.125 )
T3 M6
M3 S1000
G0 X2.0287 Y6.9776
G1 F10.0 Z-0.125
G3 F30.0 X0.529 Y6.8577 I0.4672 J-15.2851
G3 X0.1967 Y6.546 I0.0147 J-0.3486
G3 X0.1964 Y6.5395 I0.0621 J-0.0066
G3 X0.1969 Y5.855 I123.7209 J-0.2533
G3 X0.2247 Y5.4312 I2.1754 J-0.07
G3 X0.195 Y5.2973 I0.2828 J-0.1329
G3 X0.2064 Y2.6979 I576.2746 J1.2172
G3 Y2.6974 I0.0625 J0.0004
G3 X0.3292 Y1.8797 I3.1008 J0.0478
G3 X0.3297 Y1.8782 I0.06 J0.0174
G3 X1.2239 Y0.8007 I1.7825 J0.5695
G3 X1.2245 Y0.8004 I0.0297 J0.055
G3 X2.6057 Y0.1412 I9.02 J17.1246
G3 X2.6071 Y0.1407 I0.0247 J0.0574
G3 X3.0225 Y0.1487 I0.1982 J0.4941
G3 X4.4006 Y0.8076 I-6.2677 J14.8807
G3 X4.4009 Y0.8077 I-0.0296 J0.055
G3 X5.1094 Y1.4664 I-0.9327 J1.7137
G3 X5.1112 Y1.4693 I-0.0526 J0.0338
G3 X5.4086 Y2.5925 I-1.9794 J1.1251
G3 X5.4195 Y5.1835 I-65.0749 J1.57
G3 X5.3928 Y5.4154 I-0.6534 J0.0421
G3 X5.4146 Y5.5201 I-0.3013 J0.1175
G3 X5.4191 Y6.5251 I-8.7988 J0.5414
G3 X5.0944 Y6.8572 I-0.3426 J-0.0102
G3 X3.7856 Y6.9695 I-1.7422 J-12.6304
G3 X2.0287 Y6.9776 I-0.9708 J-19.9247
G1 F10.0 Z-0.25
G3 F30.0 X0.529 Y6.8577 I0.4672 J-15.2851
G3 X0.1967 Y6.546 I0.0147 J-0.3486
G3 X0.1964 Y6.5395 I0.0621 J-0.0066
G3 X0.1969 Y5.855 I123.7209 J-0.2533
G3 X0.2247 Y5.4312 I2.1754 J-0.07
G3 X0.195 Y5.2973 I0.2828 J-0.1329
G3 X0.2064 Y2.6979 I576.2746 J1.2172
G3 Y2.6974 I0.0625 J0.0004
G3 X0.3292 Y1.8797 I3.1008 J0.0478
G3 X0.3297 Y1.8782 I0.06 J0.0174
G3 X1.2239 Y0.8007 I1.7825 J0.5695
G3 X1.2245 Y0.8004 I0.0297 J0.055
G3 X2.6057 Y0.1412 I9.02 J17.1246
G3 X2.6071 Y0.1407 I0.0247 J0.0574
G3 X3.0225 Y0.1487 I0.1982 J0.4941
G3 X4.4006 Y0.8076 I-6.2677 J14.8807
G3 X4.4009 Y0.8077 I-0.0296 J0.055
G3 X5.1094 Y1.4664 I-0.9327 J1.7137
G3 X5.1112 Y1.4693 I-0.0526 J0.0338
G3 X5.4086 Y2.5925 I-1.9794 J1.1251
G3 X5.4195 Y5.1835 I-65.0749 J1.57
G3 X5.3928 Y5.4154 I-0.6534 J0.0421
G3 X5.4146 Y5.5201 I-0.3013 J0.1175
G3 X5.4191 Y6.5251 I-8.7988 J0.5414
G3 X5.0944 Y6.8572 I-0.3426 J-0.0102
G3 X3.7856 Y6.9695 I-1.7422 J-12.6304
G3 X2.0287 Y6.9776 I-0.9708 J-19.9247
G1 F10.0 Z-0.375
G3 F30.0 X0.529 Y6.8577 I0.4672 J-15.2851
G3 X0.1967 Y6.546 I0.0147 J-0.3486
G3 X0.1964 Y6.5395 I0.0621 J-0.0066
G3 X0.1969 Y5.855 I123.7209 J-0.2533
G3 X0.2247 Y5.4312 I2.1754 J-0.07
G3 X0.195 Y5.2973 I0.2828 J-0.1329
G3 X0.2064 Y2.6979 I576.2746 J1.2172
G3 Y2.6974 I0.0625 J0.0004
G3 X0.3292 Y1.8797 I3.1008 J0.0478
G3 X0.3297 Y1.8782 I0.06 J0.0174
G3 X1.2239 Y0.8007 I1.7825 J0.5695
G3 X1.2245 Y0.8004 I0.0297 J0.055
G3 X2.6057 Y0.1412 I9.02 J17.1246
G3 X2.6071 Y0.1407 I0.0247 J0.0574
G3 X3.0225 Y0.1487 I0.1982 J0.4941
G3 X4.4006 Y0.8076 I-6.2677 J14.8807
G3 X4.4009 Y0.8077 I-0.0296 J0.055
G3 X5.1094 Y1.4664 I-0.9327 J1.7137
G3 X5.1112 Y1.4693 I-0.0526 J0.0338
G3 X5.4086 Y2.5925 I-1.9794 J1.1251
G3 X5.4195 Y5.1835 I-65.0749 J1.57
G3 X5.3928 Y5.4154 I-0.6534 J0.0421
G3 X5.4146 Y5.5201 I-0.3013 J0.1175
G3 X5.4191 Y6.5251 I-8.7988 J0.5414
G3 X5.0944 Y6.8572 I-0.3426 J-0.0102
G3 X3.7856 Y6.9695 I-1.7422 J-12.6304
G3 X2.0287 Y6.9776 I-0.9708 J-19.9247
G1 F10.0 Z-0.5
G3 F30.0 X0.529 Y6.8577 I0.4672 J-15.2851
G3 X0.1967 Y6.546 I0.0147 J-0.3486
G3 X0.1964 Y6.5395 I0.0621 J-0.0066
G3 X0.1969 Y5.855 I123.7209 J-0.2533
G3 X0.2247 Y5.4312 I2.1754 J-0.07
G3 X0.195 Y5.2973 I0.2828 J-0.1329
G3 X0.2064 Y2.6979 I576.2746 J1.2172
G3 Y2.6974 I0.0625 J0.0004
G3 X0.3292 Y1.8797 I3.1008 J0.0478
G3 X0.3297 Y1.8782 I0.06 J0.0174
G3 X1.2239 Y0.8007 I1.7825 J0.5695
G3 X1.2245 Y0.8004 I0.0297 J0.055
G3 X2.6057 Y0.1412 I9.02 J17.1246
G3 X2.6071 Y0.1407 I0.0247 J0.0574
G3 X3.0225 Y0.1487 I0.1982 J0.4941
G3 X4.4006 Y0.8076 I-6.2677 J14.8807
G3 X4.4009 Y0.8077 I-0.0296 J0.055
G3 X5.1094 Y1.4664 I-0.9327 J1.7137
G3 X5.1112 Y1.4693 I-0.0526 J0.0338
G3 X5.4086 Y2.5925 I-1.9794 J1.1251
G3 X5.4195 Y5.1835 I-65.0749 J1.57
G3 X5.3928 Y5.4154 I-0.6534 J0.0421
G3 X5.4146 Y5.5201 I-0.3013 J0.1175
G3 X5.4191 Y6.5251 I-8.7988 J0.5414
G3 X5.0944 Y6.8572 I-0.3426 J-0.0102
G3 X3.7856 Y6.9695 I-1.7422 J-12.6304
G3 X2.0287 Y6.9776 I-0.9708 J-19.9247
G1 F10.0 Z-0.625
G3 F30.0 X0.529 Y6.8577 I0.4672 J-15.2851
G3 X0.1967 Y6.546 I0.0147 J-0.3486
G3 X0.1964 Y6.5395 I0.0621 J-0.0066
G3 X0.1969 Y5.855 I123.7209 J-0.2533
G3 X0.2247 Y5.4312 I2.1754 J-0.07
G3 X0.195 Y5.2973 I0.2828 J-0.1329
G3 X0.2064 Y2.6979 I576.2746 J1.2172
G3 Y2.6974 I0.0625 J0.0004
G3 X0.3292 Y1.8797 I3.1008 J0.0478
G3 X0.3297 Y1.8782 I0.06 J0.0174
G3 X1.2239 Y0.8007 I1.7825 J0.5695
G3 X1.2245 Y0.8004 I0.0297 J0.055
G3 X2.6057 Y0.1412 I9.02 J17.1246
G3 X2.6071 Y0.1407 I0.0247 J0.0574
G3 X3.0225 Y0.1487 I0.1982 J0.4941
G3 X4.4006 Y0.8076 I-6.2677 J14.8807
G3 X4.4009 Y0.8077 I-0.0296 J0.055
G3 X5.1094 Y1.4664 I-0.9327 J1.7137
G3 X5.1112 Y1.4693 I-0.0526 J0.0338
G3 X5.4086 Y2.5925 I-1.9794 J1.1251
G3 X5.4195 Y5.1835 I-65.0749 J1.57
G3 X5.3928 Y5.4154 I-0.6534 J0.0421
G3 X5.4146 Y5.5201 I-0.3013 J0.1175
G3 X5.4191 Y6.5251 I-8.7988 J0.5414
G3 X5.0944 Y6.8572 I-0.3426 J-0.0102
G3 X3.7856 Y6.9695 I-1.7422 J-12.6304
G3 X2.0287 Y6.9776 I-0.9708 J-19.9247
G1 F10.0 Z-0.75
G3 F30.0 X0.529 Y6.8577 I0.4672 J-15.2851
G3 X0.1967 Y6.546 I0.0147 J-0.3486
G3 X0.1964 Y6.5395 I0.0621 J-0.0066
G3 X0.1969 Y5.855 I123.7209 J-0.2533
G3 X0.2247 Y5.4312 I2.1754 J-0.07
G3 X0.195 Y5.2973 I0.2828 J-0.1329
G3 X0.2064 Y2.6979 I576.2746 J1.2172
G3 Y2.6974 I0.0625 J0.0004
G3 X0.3292 Y1.8797 I3.1008 J0.0478
G3 X0.3297 Y1.8782 I0.06 J0.0174
G3 X1.2239 Y0.8007 I1.7825 J0.5695
G3 X1.2245 Y0.8004 I0.0297 J0.055
G3 X2.6057 Y0.1412 I9.02 J17.1246
G3 X2.6071 Y0.1407 I0.0247 J0.0574
G3 X3.0225 Y0.1487 I0.1982 J0.4941
G3 X4.4006 Y0.8076 I-6.2677 J14.8807
G3 X4.4009 Y0.8077 I-0.0296 J0.055
G3 X5.1094 Y1.4664 I-0.9327 J1.7137
G3 X5.1112 Y1.4693 I-0.0526 J0.0338
G3 X5.4086 Y2.5925 I-1.9794 J1.1251
G3 X5.4195 Y5.1835 I-65.0749 J1.57
G3 X5.3928 Y5.4154 I-0.6534 J0.0421
G3 X5.4146 Y5.5201 I-0.3013 J0.1175
G3 X5.4191 Y6.5251 I-8.7988 J0.5414
G3 X5.0944 Y6.8572 I-0.3426 J-0.0102
G3 X3.7856 Y6.9695 I-1.7422 J-12.6304
G3 X2.0287 Y6.9776 I-0.9708 J-19.9247
G0 Z0.125
M5
M30
