( Made using CamBam - http://www.cambam.co.uk )
( merryChristmas 12/11/2011 5:18:45 PM )
( T2 : 0.0625 )
( T3 : 0.125 )
G20 G90 
G0 Z0.125
( T2 : 0.0625 )
T2 M6
( Pocket1 )
G17
M3 S1000
G0 X4.1437 Y2.8558
G1 F10.0 Z-0.015
G1 F30.0 X4.1504 Y2.8436
G3 X4.1456 Y2.8402 I0.0594 J-0.0881
G1 X4.1437 Y2.8558
G1 F10.0 X4.1189 Y2.8527
G1 F30.0 X4.1122 Y2.907
G1 X4.144
G2 X4.1548 Y2.8876 I-0.224 J-0.1375
G3 X4.1562 Y2.885 I0.0726 J0.0365
G1 X4.1848 Y2.8328
G3 X4.1294 Y2.7674 I0.025 J-0.0773
G1 X4.1189 Y2.8527
G0 Z0.125
G0 X4.8423 Y2.8563
G1 F10.0 Z-0.015
G1 F30.0 X4.8487 Y2.8797
G1 X4.8518 Y2.8587
G3 X4.8423 Y2.8563 I0.0218 J-0.104
G1 F10.0 X4.8496 Y2.8324
G3 F30.0 X4.7952 Y2.7761 I0.0239 J-0.0776
G1 X4.6277 Y2.1616
G1 X4.6002 Y2.2118
G3 X4.6544 Y2.2678 I-0.0242 J0.0776
G1 X4.8289 Y2.902
G2 X4.8304 Y2.907 I0.4288 J-0.1248
G1 X4.8709
G3 X4.8718 Y2.8948 I0.0812 J-0.0004
G1 X4.8804 Y2.8357
G3 X4.8496 Y2.8324 I-0.0068 J-0.081
G1 F10.0 X4.857 Y2.8085
G3 F30.0 X4.8193 Y2.7696 I0.0166 J-0.0538
G1 X4.6355 Y2.0953
G1 X4.5585 Y2.2359
G3 X4.6303 Y2.2744 I0.0175 J0.0535
G1 X4.8049 Y2.9088
G2 X4.8122 Y2.932 I0.4528 J-0.1316
G1 X4.902
G3 X4.8965 Y2.8984 I0.0502 J-0.0254
G1 X4.9114 Y2.7964
G3 X4.857 Y2.8085 I-0.0379 J-0.0416
G0 Z0.125
G0 X5.016 Y2.1024
G1 F10.0 Z-0.015
G3 F30.0 X5.0286 Y2.0832 I0.0746 J0.0349
G1 X5.0047
G3 X5.016 Y2.1024 I-0.0574 J0.0469
G0 Z0.125
G0 X4.2084 Y2.1082
G1 F10.0 Z-0.015
G1 F30.0 X4.2054
G3 X4.2068 Y2.1155 I-0.097 J0.0228
G3 X4.2084 Y2.1082 I0.0801 J0.0137
G1 F10.0 Y2.0832
G1 F30.0 X4.1657
G3 X4.1826 Y2.1236 I-0.0573 J0.0478
G3 X4.1825 Y2.1361 I-0.056 J0.0055
G1 X4.0856 Y2.9181
G3 X4.082 Y2.932 I-0.0558 J-0.0069
G1 X4.1577
G2 X4.1597 Y2.9289 I-0.057 J-0.0397
G3 X4.1605 Y2.9276 I0.0478 J0.0296
G2 X4.1771 Y2.8988 I-0.2405 J-0.1581
G3 X4.1781 Y2.8971 I0.0502 J0.0253
G1 X4.2263 Y2.8093
G3 X4.154 Y2.7487 I-0.0164 J-0.0538
G1 X4.231 Y2.1223
G3 X4.2345 Y2.1086 I0.0558 J0.0069
G3 X4.2502 Y2.0832 I0.0778 J0.0305
G1 X4.2084
G1 F10.0 Y2.0582
G1 F30.0 X4.0647
G1 X4.0646 Y2.0586
G3 X4.1176 Y2.0779 I-0.0919 J0.3345
G3 X4.1199 Y2.0791 I-0.0131 J0.0284
G3 X4.1363 Y2.0899 I-0.0675 J0.1193
G3 X4.1578 Y2.1261 I-0.0279 J0.041
G3 X4.1577 Y2.133 I-0.0311 J0.0031
G1 X4.0608 Y2.915
G3 X4.0415 Y2.9401 I-0.031 J-0.0038
G3 X3.9886 Y2.957 I-0.1345 J-0.3309
G1 X4.1679
G3 X4.168 I0.0 J0.0313
G2 X4.1697 Y2.9567 I0.0 J-0.0054
G2 X4.1699 Y2.9566 I-0.0004 J-0.0007
G3 X4.1701 Y2.9563 I0.0232 J0.021
G2 X4.181 Y2.942 I-0.0694 J-0.0641
G3 X4.1814 Y2.9413 I0.0266 J0.0165
G2 X4.1995 Y2.9101 I-0.2614 J-0.1718
G3 X4.2 Y2.9091 I0.0279 J0.014
G1 X4.5486 Y2.2743
G3 X4.6062 Y2.2811 I0.0274 J0.015
G1 X4.7808 Y2.9156
G2 X4.7908 Y2.9463 I0.4769 J-0.1384
G3 X4.7911 Y2.9472 I-0.0294 J0.0106
G2 X4.7953 Y2.957 I0.0606 J-0.0199
G1 X4.9903
G3 X4.9346 Y2.9325 I0.0392 J-0.1644
G3 X4.9212 Y2.9021 I0.0175 J-0.0259
G1 X5.0349 Y2.1246
G3 X5.0362 Y2.1194 I0.0309 J0.0045
G3 X5.0604 Y2.0886 I0.0545 J0.0179
G3 X5.0796 Y2.0774 I0.0854 J0.1247
G3 X5.0813 Y2.0767 I0.0137 J0.0281
G3 X5.136 Y2.0582 I0.1596 J0.3822
G1 X4.9088
G1 Y2.0588
G3 X4.9194 Y2.0619 I-0.126 J0.4585
G3 X4.9605 Y2.079 I-0.053 J0.1854
G3 X4.9619 Y2.0798 I-0.0153 J0.0273
G3 X4.9774 Y2.0913 I-0.0662 J0.1057
G3 X4.9963 Y2.1275 I-0.0302 J0.0388
G3 X4.996 Y2.1337 I-0.0312 J0.0016
G1 X4.9045 Y2.7593
G3 X4.8434 Y2.763 I-0.0309 J-0.0045
G1 X4.6513 Y2.0582
G1 X4.6273
G1 X4.2372 Y2.7705
G3 X4.1788 Y2.7517 I-0.0274 J-0.015
G1 X4.2559 Y2.1253
G3 X4.2578 Y2.1178 I0.031 J0.0038
G3 X4.2854 Y2.0871 I0.0545 J0.0214
G3 X4.3059 Y2.0767 I0.0889 J0.1506
G3 X4.307 Y2.0763 I0.0122 J0.0288
G3 X4.3638 Y2.0582 I0.1896 J0.4956
G1 X4.2084
G0 Z0.125
G0 X3.8271 Y2.1808
G1 F10.0 Z-0.015
G2 F30.0 X3.8221 Y2.1668 I-0.2157 J0.0694
G2 X3.7851 Y2.113 I-0.1656 J0.0744
G2 X3.7463 Y2.0883 I-0.0903 J0.0987
G3 X3.7622 Y2.1073 I-0.1577 J0.1486
G3 X3.7642 Y2.1101 I-0.0651 J0.0486
G3 X3.7989 Y2.1783 I-0.2458 J0.1677
G3 X3.799 Y2.1786 I-0.0766 J0.0272
G3 X3.8188 Y2.2607 I-0.4016 J0.1403
G3 X3.8084 Y2.3129 I-0.0805 J0.0111
G3 X3.8225 Y2.3616 I-0.067 J0.0458
G3 X3.8224 Y2.364 I-0.4636 J-0.016
G2 X3.8261 Y2.3511 I-0.3778 J-0.1132
G1 Y2.351
G2 X3.8379 Y2.2584 I-0.345 J-0.091
G3 Y2.256 I0.0812 J-0.0004
G2 X3.8271 Y2.1808 I-0.2265 J-0.0059
G1 F10.0 X3.8509 Y2.1731
G2 F30.0 X3.8452 Y2.1571 I-0.2395 J0.077
G2 X3.8024 Y2.095 I-0.1886 J0.0841
G2 X3.75 Y2.0629 I-0.1076 J0.1167
G3 X3.7485 Y2.0623 I0.0196 J-0.0527
G2 X3.6996 Y2.0519 I-0.0537 J0.1325
G2 X3.6486 Y2.0595 I0.002 J0.1891
G3 X3.6943 Y2.077 I-0.0213 J0.1239
G3 X3.6958 Y2.0779 I-0.03 J0.0476
G3 X3.7422 Y2.1222 I-0.1072 J0.1589
G3 X3.7436 Y2.1242 I-0.0451 J0.0336
G3 X3.7753 Y2.1866 I-0.2251 J0.1536
G3 X3.7754 Y2.1869 I-0.053 J0.0188
G3 X3.794 Y2.2641 I-0.378 J0.1321
G3 X3.7754 Y2.3141 I-0.0557 J0.0077
G3 X3.7975 Y2.3607 I-0.0341 J0.0447
G3 X3.766 Y2.5095 I-0.4386 J-0.0152
G3 X3.7656 Y2.5106 I-0.0521 J-0.021
G3 X3.7549 Y2.5338 I-0.4108 J-0.1754
G2 X3.755 Y2.5337 I-0.506 J-0.4314
G3 X3.7553 Y2.5333 I0.0428 J0.0365
G2 X3.8141 Y2.4493 I-0.3783 J-0.3273
G2 X3.8502 Y2.3575 I-0.3695 J-0.1985
G1 X3.8503 Y2.3574
G2 X3.8629 Y2.2583 I-0.3692 J-0.0974
G3 Y2.2566 I0.0562 J-0.0002
G2 X3.8509 Y2.1731 I-0.2515 J-0.0065
G0 Z0.125
G0 X3.4387 Y2.5289
G1 F10.0 Z-0.015
G2 F30.0 X3.4215 Y2.5534 I0.1478 J0.1219
G3 X3.4208 Y2.5546 I-0.07 J-0.0413
G2 X3.4111 Y2.5788 I0.0663 J0.0406
G3 X3.4108 Y2.5802 I-0.0794 J-0.0171
G2 X3.4076 Y2.6069 I0.1205 J0.0281
G2 X3.411 Y2.6229 I0.042 J-0.0005
G3 X3.4114 Y2.6239 I-0.0747 J0.0319
G2 X3.4211 Y2.6379 I0.0368 J-0.0151
G2 X3.4453 Y2.6518 I0.0466 J-0.0531
G3 X3.4469 Y2.6524 I-0.0258 J0.077
G2 X3.4592 Y2.6561 I0.0427 J-0.1187
G3 X3.4413 Y2.614 I0.1176 J-0.0747
G3 X3.4359 Y2.5668 I0.1866 J-0.0455
G3 X3.4387 Y2.5289 I0.2476 J-0.0005
G1 F10.0 X3.4634 Y2.5326
G3 F30.0 X3.4701 Y2.503 I0.22 J0.0337
G3 X3.4709 Y2.5005 I0.0539 J0.016
G3 X3.5055 Y2.441 I0.1711 J0.0597
G2 X3.4978 Y2.4458 I0.5187 J0.8351
G2 X3.4338 Y2.4972 I0.2195 J0.3391
G2 X3.4 Y2.5407 I0.1527 J0.1536
G3 X3.3995 Y2.5415 I-0.0484 J-0.0286
G2 X3.3867 Y2.5736 I0.0876 J0.0536
G3 X3.3865 Y2.5745 I-0.055 J-0.0118
G2 X3.3826 Y2.6068 I0.1448 J0.0337
G2 X3.388 Y2.6327 I0.067 J-0.0005
G3 X3.3883 Y2.6334 I-0.0517 J0.0221
G2 X3.4044 Y2.6565 I0.0599 J-0.0247
G2 X3.4373 Y2.6755 I0.0634 J-0.0717
G3 X3.4385 Y2.6759 I-0.0179 J0.0533
G2 X3.493 Y2.6848 I0.0512 J-0.1422
G3 X3.4939 I0.0012 J0.0562
G2 X3.5221 Y2.6824 I-0.001 J-0.179
G3 X3.4896 Y2.6553 I0.0478 J-0.0907
G3 X3.4656 Y2.6081 I0.0872 J-0.0739
G3 X3.4609 Y2.5669 I0.1623 J-0.0396
G3 X3.4634 Y2.5326 I0.2226 J-0.0005
G0 Z0.125
G0 X3.4122 Y2.4835
G1 F10.0 Z-0.015
G2 F30.0 X3.3784 Y2.528 I0.1742 J0.1673
G3 X3.3782 Y2.5285 I-0.0269 J-0.0159
G2 X3.3622 Y2.5683 I0.1089 J0.0667
G3 X3.3621 Y2.5688 I-0.0306 J-0.0066
G2 X3.3576 Y2.6068 I0.1692 J0.0394
G2 X3.365 Y2.6425 I0.092 J-0.0004
G3 X3.3651 Y2.6429 I-0.0287 J0.0123
G2 X3.3877 Y2.6751 I0.083 J-0.0342
G2 X3.4294 Y2.6992 I0.0801 J-0.0903
G3 X3.43 Y2.6994 I-0.0099 J0.0296
G2 X3.4935 Y2.7098 I0.0597 J-0.1658
G3 X3.494 I0.0007 J0.0312
G2 X3.5469 Y2.7025 I-0.0011 J-0.204
G3 X3.5478 Y2.7023 I0.0083 J0.0301
G2 X3.6027 Y2.6835 I-0.0755 J-0.3106
G3 X3.6034 Y2.6832 I0.0127 J0.0285
G2 X3.6535 Y2.6578 I-0.1482 J-0.3544
G3 X3.6544 Y2.6573 I0.0161 J0.0268
G2 X3.6915 Y2.6316 I-0.1191 J-0.2121
G1 X3.6916
G2 X3.774 Y2.5499 I-0.4427 J-0.5292
G3 X3.7742 Y2.5497 I0.0238 J0.0203
G2 X3.836 Y2.4613 I-0.3972 J-0.3436
G2 X3.8744 Y2.3638 I-0.3914 J-0.2105
G2 X3.8879 Y2.2582 I-0.3934 J-0.1038
G3 Y2.2573 I0.0312 J-0.0001
G2 X3.8682 Y2.1474 I-0.2765 J-0.0072
G2 X3.8197 Y2.0769 I-0.2116 J0.0938
G2 X3.7587 Y2.0394 I-0.1249 J0.1348
G3 X3.7579 Y2.0391 I0.0109 J-0.0293
G2 X3.6998 Y2.0269 I-0.0631 J0.1557
G2 X3.6391 Y2.0362 I0.0018 J0.2141
G3 X3.6387 Y2.0363 I-0.0091 J-0.0299
G2 X3.5661 Y2.067 I0.0925 J0.3197
G3 X3.566 Y2.0671 I-0.0155 J-0.0271
G2 X3.4764 Y2.1259 I0.4047 J0.715
G2 X3.3829 Y2.2009 I1.2246 J1.6224
G2 X3.3844 Y2.2034 I0.0909 J-0.054
G3 X3.4353 Y2.166 I0.8428 J1.0953
G3 X3.5191 Y2.1157 I0.3721 J0.5251
G3 X3.5194 Y2.1156 I0.014 J0.0279
G3 X3.5681 Y2.0949 I0.2155 J0.4406
G3 X3.6261 Y2.0827 I0.0676 J0.1767
G3 X3.6279 Y2.0826 I0.0016 J0.0312
G3 X3.681 Y2.0981 I-0.0006 J0.1007
G3 X3.6818 Y2.0987 I-0.0166 J0.0264
G3 X3.7222 Y2.1372 I-0.0932 J0.1382
G3 X3.7229 Y2.1382 I-0.025 J0.0187
G3 X3.7518 Y2.195 I-0.2045 J0.1395
G3 Y2.1951 I-0.0295 J0.0104
G3 X3.7693 Y2.2675 I-0.3544 J0.1239
G3 X3.7486 Y2.3013 I-0.031 J0.0043
G2 X3.593 Y2.3649 I0.5235 J1.5032
G2 X3.4843 Y2.4248 I0.4312 J0.9112
G2 X3.4162 Y2.4794 I0.2329 J0.3601
G2 X3.4122 Y2.4835 I0.1703 J0.1714
G0 Z0.125
G0 X3.4942 Y2.5095
G1 F10.0 Z-0.015
G3 F30.0 X3.4944 Y2.5087 I0.0298 J0.0095
G3 X3.5316 Y2.4496 I0.1475 J0.0515
G3 X3.5317 Y2.4495 I0.0221 J0.0221
G3 X3.6058 Y2.3929 I0.2591 J0.2622
G3 X3.729 Y2.3301 I0.5494 J0.926
G3 X3.7726 Y2.3599 I0.0124 J0.0287
G3 X3.7429 Y2.5002 I-0.4137 J-0.0143
G3 X3.7426 Y2.5008 I-0.029 J-0.0117
G3 X3.6754 Y2.6091 I-0.3879 J-0.1656
G3 X3.6503 Y2.6342 I-0.1268 J-0.1021
G3 X3.6496 Y2.6347 I-0.0195 J-0.0244
G3 X3.622 Y2.6525 I-0.1306 J-0.1721
G3 X3.5965 Y2.6636 I-0.0739 J-0.1355
G3 X3.5718 Y2.6692 I-0.0301 J-0.0747
G3 X3.5695 Y2.6693 I-0.0021 J-0.0312
G3 X3.5089 Y2.6395 I0.0004 J-0.0776
G3 X3.4899 Y2.6022 I0.0679 J-0.0581
G3 X3.4858 Y2.567 I0.138 J-0.0337
G3 X3.494 Y2.5101 I0.1976 J-0.0006
G3 X3.4942 Y2.5095 I0.03 J0.0089
G0 Z0.125
G0 X3.0833 Y2.4644
G1 F10.0 Z-0.015
G3 F30.0 X3.0838 Y2.4596 I1.0358 J0.1137
G3 X3.1019 Y2.3272 I2.6167 J0.2885
G3 X3.1273 Y2.1728 I5.2786 J0.7919
G3 X3.1372 Y2.1189 I6.4777 J1.1616
G3 X3.1167 Y2.1279 I-0.8822 J-1.985
G3 X3.1082 Y2.2115 I-0.7165 J-0.0301
G3 Y2.2119 I-0.0802 J-0.0129
G3 X3.0796 Y2.3409 I-1.2321 J-0.2053
G3 X3.0794 Y2.3416 I-0.0783 J-0.0217
G3 X3.0368 Y2.455 I-0.7312 J-0.2101
G3 X3.0269 Y2.4753 I-0.5646 J-0.2632
G3 X3.064 Y2.5567 I-0.0431 J0.0689
G2 X3.0598 Y2.5866 I1.1364 J0.1776
G3 X3.0551 Y2.6215 I-3.5907 J-0.4609
G2 X3.0527 Y2.6457 I0.3491 J0.0467
G2 X3.0911 Y2.6325 I-0.3325 J-1.0272
G3 X3.082 Y2.6054 I0.1017 J-0.0489
G3 X3.0773 Y2.5592 I0.1771 J-0.0417
G3 X3.0833 Y2.4644 I1.0418 J0.0189
G1 F10.0 X3.1082 Y2.4672
G3 F30.0 X3.1087 Y2.4624 I1.0109 J0.1109
G3 X3.1266 Y2.3311 I2.5919 J0.2858
G3 X3.152 Y2.1772 I5.2539 J0.788
G3 X3.1709 Y2.0762 I6.4531 J1.1572
G2 X3.1483 Y2.0864 I3.8237 J8.4055
G1 Y2.0865
G3 X3.0957 Y2.1097 I-0.8932 J-1.9525
G3 X3.0922 Y2.1113 I-1.438 J-3.1539
G3 X3.0836 Y2.2075 I-0.692 J-0.0135
G3 X3.0835 Y2.2078 I-0.0555 J-0.0089
G3 X3.0555 Y2.3342 I-1.2074 J-0.2012
G3 X3.0554 Y2.3347 I-0.0542 J-0.0151
G3 X3.0141 Y2.4444 I-0.7072 J-0.2032
G3 X2.9913 Y2.4885 I-0.542 J-0.2526
G3 X3.0393 Y2.5529 I-0.0076 J0.0557
G2 X3.035 Y2.5834 I1.1611 J0.1815
G3 X3.0304 Y2.6182 I-3.5659 J-0.4577
G2 X3.0277 Y2.6453 I0.3738 J0.0501
G3 X3.0274 Y2.6483 I-0.0561 J-0.0034
G2 X3.0263 Y2.6655 I0.1825 J0.021
G2 X3.0265 Y2.6801 I0.3243 J0.0024
G2 X3.0333 Y2.6779 I-0.0393 J-0.1357
G3 X3.0356 Y2.6772 I0.0183 J0.0532
G2 X3.103 Y2.6547 I-0.3154 J-1.0587
G2 X3.1295 Y2.6447 I-0.9784 J-2.6214
G3 X3.1236 Y2.6378 I0.0529 J-0.0506
G3 X3.1065 Y2.6001 I0.0691 J-0.0542
G3 X3.1022 Y2.5597 I0.1526 J-0.0364
G3 X3.1082 Y2.4672 I1.0168 J0.0184
G0 Z0.125
G0 X2.7892 Y2.6496
G1 F10.0 Z-0.015
G3 F30.0 X2.7487 Y2.6272 I0.0359 J-0.1126
G3 X2.7434 Y2.6228 I0.2275 J-0.2805
G2 X2.7428 Y2.6239 I0.3467 J0.2024
G3 X2.7413 Y2.6262 I-0.0703 J-0.0408
G2 X2.7293 Y2.6457 I2.4927 J1.5621
G3 X2.7294 Y2.6458 I-0.0423 J0.0694
G2 X2.7552 Y2.6595 I0.1275 J-0.208
G3 X2.7553 Y2.6596 I-0.0339 J0.0739
G2 X2.7755 Y2.6556 I-0.0056 J-0.082
G2 X2.7892 Y2.6496 I-0.0286 J-0.0836
G1 F10.0 X2.7967 Y2.6258
G3 F30.0 X2.7646 Y2.608 I0.0283 J-0.0888
G3 X2.7394 Y2.5854 I0.2116 J-0.2613
G2 X2.7382 Y2.5843 I-0.1643 J0.1902
G2 X2.7212 Y2.6113 I0.3519 J0.2409
G3 X2.7202 Y2.613 I-0.0487 J-0.0282
G2 X2.6987 Y2.6477 I2.5139 J1.5754
G3 X2.6948 Y2.6543 I-1.02 J-0.5939
G2 X2.7153 Y2.6665 I0.6798 J-1.1188
G3 X2.7164 Y2.6671 I-0.0283 J0.0486
G2 X2.7448 Y2.6823 I0.1405 J-0.2293
G3 X2.7469 Y2.6833 I-0.0235 J0.0511
G2 X2.752 Y2.6848 I0.0064 J-0.0125
G2 X2.7835 Y2.6793 I-0.0023 J-0.1072
G2 X2.8191 Y2.6595 I-0.0366 J-0.1073
G3 X2.8198 Y2.6589 I0.0358 J0.0434
G2 X2.8568 Y2.6243 I-0.2006 J-0.2519
G3 X2.8285 Y2.63 I-0.04 J-0.127
G3 X2.8213 Y2.6301 I-0.005 J-0.056
G3 X2.7967 Y2.6258 I0.0038 J-0.0931
G1 F10.0 X2.8043 Y2.602
G3 F30.0 X2.7806 Y2.5888 I0.0207 J-0.065
G3 X2.7564 Y2.567 I0.1956 J-0.242
G2 X2.7346 Y2.5499 I-0.1813 J0.2085
G3 X2.734 Y2.5495 I0.018 J-0.0255
G2 X2.7327 Y2.5486 I-0.0093 J0.0126
G2 X2.7202 Y2.5663 I0.1775 J0.1391
G3 X2.7195 Y2.5674 I-0.0263 J-0.0168
G2 X2.6995 Y2.5988 I0.3706 J0.2579
G3 X2.699 Y2.5997 I-0.027 J-0.0157
G2 X2.6772 Y2.6349 I2.5351 J1.5887
G3 X2.6605 Y2.6627 I-0.9985 J-0.5811
G3 X2.6663 Y2.666 I-0.1538 J0.2737
G3 X2.6669 Y2.6665 I-0.0159 J0.0269
G2 X2.7027 Y2.6881 I0.7077 J-1.1309
G3 X2.7033 Y2.6884 I-0.0157 J0.027
G2 X2.7344 Y2.705 I0.1536 J-0.2506
G3 X2.7355 Y2.7056 I-0.013 J0.0284
G2 X2.7515 Y2.7098 I0.0177 J-0.0348
G2 X2.7915 Y2.703 I-0.0018 J-0.1322
G2 X2.835 Y2.6788 I-0.0445 J-0.131
G3 X2.8354 Y2.6784 I0.0199 J0.0241
G2 X2.8907 Y2.6231 I-0.2162 J-0.2715
G3 X2.8909 Y2.6229 I0.0244 J0.0195
G2 X2.9569 Y2.5282 I-0.6086 J-0.495
G3 X3.0146 Y2.549 I0.0269 J0.0159
G2 X3.0102 Y2.5802 I1.1858 J0.1853
G3 X3.0056 Y2.6148 I-3.5411 J-0.4545
G2 X3.0028 Y2.6438 I0.3986 J0.0535
G3 X3.0026 Y2.6454 I-0.0312 J-0.0019
G2 X3.0013 Y2.6652 I0.2073 J0.0238
G2 X3.0027 Y2.6993 I0.3493 J0.0028
G3 Y2.6999 I-0.0311 J0.0028
G2 X3.005 Y2.7097 I0.032 J-0.0023
G2 X3.0415 Y2.7016 I-0.0178 J-0.1653
G3 X3.0428 Y2.7012 I0.0102 J0.0295
G2 X3.1117 Y2.6782 I-0.3225 J-1.0826
G2 X3.1909 Y2.6472 I-0.9871 J-2.6448
G1 X3.191
G2 X3.2033 Y2.6422 I-0.7864 J-1.9412
G3 X3.191 Y2.6433 I-0.0169 J-0.1185
G3 X3.19 I-0.0012 J-0.0312
G3 X3.1703 Y2.6408 I-0.0005 J-0.0728
G3 X3.1435 Y2.6226 I0.012 J-0.0467
G3 X3.1309 Y2.5949 I0.0493 J-0.0391
G3 X3.1272 Y2.5603 I0.1282 J-0.0312
G3 X3.1335 Y2.4652 I0.9918 J0.0178
G3 X3.1513 Y2.3349 I2.567 J0.283
G3 X3.1766 Y2.1816 I5.2292 J0.7842
G3 X3.2045 Y2.0353 I6.4285 J1.1528
G1 X3.2028 Y2.0337
G3 X3.1887 Y2.0407 I-0.289 J-0.5729
G3 X3.1881 Y2.0409 I-0.0134 J-0.0282
G2 X3.1379 Y2.0637 I3.8064 J8.4407
G3 X3.0856 Y2.0868 I-0.8828 J-1.9298
G3 X3.0673 Y2.0951 I-1.428 J-3.131
G3 X3.0589 Y2.2035 I-0.6671 J0.0027
G3 X3.0588 Y2.2037 I-0.0309 J-0.005
G3 X3.0314 Y2.3275 I-1.1828 J-0.1971
G3 Y2.3278 I-0.0301 J-0.0084
G3 X2.9915 Y2.4338 I-0.6831 J-0.1963
G3 X2.9424 Y2.5192 I-0.5193 J-0.242
G3 X2.8881 Y2.5787 I-0.238 J-0.1628
G3 X2.8263 Y2.6051 I-0.0713 J-0.0814
G3 X2.8223 Y2.6052 I-0.0028 J-0.0311
G3 X2.8043 Y2.602 I0.0028 J-0.0682
G0 Z0.125
G0 X2.4533 Y2.6325
G1 F10.0 Z-0.015
G3 F30.0 X2.4442 Y2.6054 I0.1017 J-0.0489
G3 X2.4394 Y2.5592 I0.1771 J-0.0417
G3 X2.446 Y2.4596 I1.0418 J0.0189
G3 X2.464 Y2.3272 I2.6167 J0.2885
G3 X2.4895 Y2.1728 I5.2786 J0.7919
G3 X2.4994 Y2.1189 I6.4777 J1.1616
G3 X2.4789 Y2.1279 I-0.8822 J-1.985
G3 X2.4704 Y2.2115 I-0.7165 J-0.0301
G3 Y2.2119 I-0.0802 J-0.0129
G3 X2.4418 Y2.3409 I-1.2321 J-0.2053
G3 X2.4416 Y2.3416 I-0.0783 J-0.0217
G3 X2.3989 Y2.455 I-0.7312 J-0.2101
G3 X2.389 Y2.4753 I-0.5646 J-0.2632
G3 X2.4262 Y2.5567 I-0.0431 J0.0689
G2 X2.422 Y2.5866 I1.1364 J0.1776
G3 X2.4173 Y2.6215 I-3.5907 J-0.4609
G2 X2.4149 Y2.6457 I0.3491 J0.0467
G2 X2.4533 Y2.6325 I-0.3325 J-1.0272
G1 F10.0 X2.4758 Y2.6217
G3 F30.0 X2.4687 Y2.6001 I0.0792 J-0.0381
G3 X2.4644 Y2.5597 I0.1526 J-0.0364
G3 X2.4709 Y2.4624 I1.0168 J0.0184
G3 X2.4887 Y2.3311 I2.5919 J0.2858
G3 X2.5141 Y2.1772 I5.2539 J0.788
G3 X2.5331 Y2.0762 I6.4531 J1.1572
G2 X2.5105 Y2.0864 I3.8237 J8.4055
G1 Y2.0865
G3 X2.4579 Y2.1097 I-0.8932 J-1.9525
G3 X2.4544 Y2.1113 I-1.438 J-3.1539
G3 X2.4457 Y2.2075 I-0.692 J-0.0135
G3 Y2.2078 I-0.0555 J-0.0089
G3 X2.4177 Y2.3342 I-1.2074 J-0.2012
G3 X2.4176 Y2.3347 I-0.0542 J-0.0151
G3 X2.3763 Y2.4444 I-0.7072 J-0.2032
G3 X2.3535 Y2.4885 I-0.542 J-0.2526
G3 X2.4015 Y2.5529 I-0.0076 J0.0557
G2 X2.3972 Y2.5834 I1.1611 J0.1815
G3 X2.3925 Y2.6182 I-3.5659 J-0.4577
G2 X2.3899 Y2.6453 I0.3738 J0.0501
G3 X2.3896 Y2.6483 I-0.0561 J-0.0034
G2 X2.3885 Y2.6655 I0.1825 J0.021
G2 X2.3887 Y2.6801 I0.3243 J0.0024
G2 X2.3955 Y2.6779 I-0.0393 J-0.1357
G3 X2.3978 Y2.6772 I0.0183 J0.0532
G2 X2.4652 Y2.6547 I-0.3154 J-1.0587
G2 X2.4917 Y2.6447 I-0.9784 J-2.6214
G3 X2.4858 Y2.6378 I0.0529 J-0.0506
G3 X2.4758 Y2.6217 I0.0691 J-0.0542
G0 Z0.125
G0 X2.1513 Y2.6496
G1 F10.0 Z-0.015
G3 F30.0 X2.1109 Y2.6272 I0.0359 J-0.1126
G3 X2.1056 Y2.6228 I0.2275 J-0.2805
G2 X2.105 Y2.6239 I0.3467 J0.2024
G3 X2.1035 Y2.6262 I-0.0703 J-0.0408
G2 X2.0914 Y2.6457 I2.4927 J1.5621
G3 X2.0916 Y2.6458 I-0.0423 J0.0694
G2 X2.1174 Y2.6595 I0.1275 J-0.208
G3 X2.1175 Y2.6596 I-0.0339 J0.0739
G2 X2.1377 Y2.6556 I-0.0056 J-0.082
G2 X2.1513 Y2.6496 I-0.0286 J-0.0836
G1 F10.0 X2.1589 Y2.6258
G3 F30.0 X2.1268 Y2.608 I0.0283 J-0.0888
G3 X2.1016 Y2.5854 I0.2116 J-0.2613
G2 X2.1004 Y2.5843 I-0.1643 J0.1902
G2 X2.0833 Y2.6113 I0.3519 J0.2409
G3 X2.0823 Y2.613 I-0.0487 J-0.0282
G2 X2.0609 Y2.6477 I2.5139 J1.5754
G3 X2.057 Y2.6543 I-1.02 J-0.5939
G2 X2.0775 Y2.6665 I0.6798 J-1.1188
G3 X2.0786 Y2.6671 I-0.0283 J0.0486
G2 X2.107 Y2.6823 I0.1405 J-0.2293
G3 X2.109 Y2.6833 I-0.0235 J0.0511
G2 X2.1142 Y2.6848 I0.0064 J-0.0125
G2 X2.1457 Y2.6793 I-0.0023 J-0.1072
G2 X2.1812 Y2.6595 I-0.0366 J-0.1073
G3 X2.182 Y2.6589 I0.0358 J0.0434
G2 X2.219 Y2.6243 I-0.2006 J-0.2519
G3 X2.1907 Y2.63 I-0.04 J-0.127
G3 X2.1835 Y2.6301 I-0.005 J-0.056
G3 X2.1589 Y2.6258 I0.0038 J-0.0931
G1 F10.0 X2.1665 Y2.602
G3 F30.0 X2.1428 Y2.5888 I0.0207 J-0.065
G3 X2.1186 Y2.567 I0.1956 J-0.242
G2 X2.0968 Y2.5499 I-0.1813 J0.2085
G3 X2.0962 Y2.5495 I0.018 J-0.0255
G2 X2.0949 Y2.5486 I-0.0093 J0.0126
G2 X2.0824 Y2.5663 I0.1775 J0.1391
G3 X2.0817 Y2.5674 I-0.0263 J-0.0168
G2 X2.0617 Y2.5988 I0.3706 J0.2579
G3 X2.0612 Y2.5997 I-0.027 J-0.0157
G2 X2.0394 Y2.6349 I2.5351 J1.5887
G3 X2.0227 Y2.6627 I-0.9985 J-0.5811
G3 X2.0284 Y2.666 I-0.1538 J0.2737
G3 X2.0291 Y2.6665 I-0.0159 J0.0269
G2 X2.0649 Y2.6881 I0.7077 J-1.1309
G3 X2.0655 Y2.6884 I-0.0157 J0.027
G2 X2.0965 Y2.705 I0.1536 J-0.2506
G3 X2.0977 Y2.7056 I-0.013 J0.0284
G2 X2.1137 Y2.7098 I0.0177 J-0.0348
G2 X2.1536 Y2.703 I-0.0018 J-0.1322
G2 X2.1971 Y2.6788 I-0.0445 J-0.131
G3 X2.1976 Y2.6784 I0.0199 J0.0241
G2 X2.2528 Y2.6231 I-0.2162 J-0.2715
G3 X2.253 Y2.6229 I0.0244 J0.0195
G2 X2.3191 Y2.5282 I-0.6086 J-0.495
G3 X2.3768 Y2.549 I0.0269 J0.0159
G2 X2.3724 Y2.5802 I1.1858 J0.1853
G3 X2.3678 Y2.6148 I-3.5411 J-0.4545
G2 X2.3649 Y2.6438 I0.3986 J0.0535
G3 X2.3648 Y2.6454 I-0.0312 J-0.0019
G2 X2.3635 Y2.6652 I0.2073 J0.0238
G2 X2.3649 Y2.6993 I0.3493 J0.0028
G3 Y2.6999 I-0.0311 J0.0028
G2 X2.3672 Y2.7097 I0.032 J-0.0023
G2 X2.4037 Y2.7016 I-0.0178 J-0.1653
G3 X2.4049 Y2.7012 I0.0102 J0.0295
G2 X2.4739 Y2.6782 I-0.3225 J-1.0826
G2 X2.5531 Y2.6472 I-0.9871 J-2.6448
G1 X2.5532
G2 X2.5654 Y2.6422 I-0.7864 J-1.9412
G3 X2.5532 Y2.6433 I-0.0169 J-0.1185
G3 X2.5522 I-0.0012 J-0.0312
G3 X2.5325 Y2.6408 I-0.0005 J-0.0728
G3 X2.5057 Y2.6226 I0.012 J-0.0467
G3 X2.4931 Y2.5949 I0.0493 J-0.0391
G3 X2.4894 Y2.5603 I0.1282 J-0.0312
G3 X2.4957 Y2.4652 I0.9918 J0.0178
G3 X2.5134 Y2.3349 I2.567 J0.283
G3 X2.5387 Y2.1816 I5.2292 J0.7842
G3 X2.5667 Y2.0353 I6.4285 J1.1528
G1 X2.565 Y2.0337
G3 X2.5508 Y2.0407 I-0.289 J-0.5729
G3 X2.5503 Y2.0409 I-0.0134 J-0.0282
G2 X2.5001 Y2.0637 I3.8064 J8.4407
G3 X2.4478 Y2.0868 I-0.8828 J-1.9298
G3 X2.4295 Y2.0951 I-1.428 J-3.131
G3 X2.4211 Y2.2035 I-0.6671 J0.0027
G3 X2.421 Y2.2037 I-0.0309 J-0.005
G3 X2.3936 Y2.3275 I-1.1828 J-0.1971
G3 X2.3935 Y2.3278 I-0.0301 J-0.0084
G3 X2.3537 Y2.4338 I-0.6831 J-0.1963
G3 X2.3045 Y2.5192 I-0.5193 J-0.242
G3 X2.2503 Y2.5787 I-0.238 J-0.1628
G3 X2.1885 Y2.6051 I-0.0713 J-0.0814
G3 X2.1845 Y2.6052 I-0.0028 J-0.0311
G3 X2.1665 Y2.602 I0.0028 J-0.0682
G0 Z0.125
G0 X1.8527 Y2.6412
G1 F10.0 Z-0.015
G3 F30.0 X1.8353 Y2.6137 I0.1487 J-0.1133
G3 X1.8201 Y2.5826 I0.4091 J-0.2202
G3 X1.8198 Y2.5819 I0.0742 J-0.0331
G3 X1.793 Y2.5126 I0.8088 J-0.3519
G3 X1.7636 Y2.4194 I1.6 J-0.5571
G3 X1.7341 Y2.3116 I3.3115 J-0.9634
G3 X1.7047 Y2.1963 I4.0157 J-1.0853
G3 X1.679 Y2.0826 I3.416 J-0.8319
G3 X1.6727 Y2.0523 I4.2696 J-0.9063
G2 X1.6328 Y2.1245 I2.3535 J1.3488
G3 X1.6891 Y2.1852 I-0.0231 J0.0779
G2 X1.7176 Y2.309 I4.7931 J-1.0387
G1 X1.7177 Y2.3091
G2 X1.7483 Y2.4262 I3.5186 J-0.8563
G3 X1.7486 Y2.4275 I-0.0783 J0.0218
G2 X1.7782 Y2.5319 I2.569 J-0.6724
G3 X1.7783 Y2.5323 I-0.0777 J0.0238
G2 X1.8061 Y2.6169 I1.6988 J-0.5096
G3 X1.8063 Y2.6177 I-0.0766 J0.0272
G2 X1.819 Y2.6506 I0.455 J-0.1564
G3 X1.8194 Y2.6516 I-0.0747 J0.032
G2 X1.8201 Y2.6532 I0.1126 J-0.0465
G2 X1.8527 Y2.6412 I-0.2206 J-0.6512
G1 F10.0 X1.8726 Y2.626
G3 F30.0 X1.8575 Y2.602 I0.1289 J-0.0981
G3 X1.8429 Y2.5724 I0.387 J-0.2085
G3 X1.8427 Y2.572 I0.0514 J-0.0229
G3 X1.8167 Y2.5045 I0.7858 J-0.3419
G3 X1.7876 Y2.4125 I1.5763 J-0.549
G3 X1.7583 Y2.3052 I3.2875 J-0.9565
G3 X1.729 Y2.1904 I3.9915 J-1.0789
G3 X1.7034 Y2.0774 I3.3917 J-0.826
G3 X1.6845 Y1.983 I4.2451 J-0.9012
G2 X1.609 Y2.1159 I2.3417 J1.4181
G2 X1.5914 Y2.1492 I13.9061 J7.3901
G3 X1.6647 Y2.1905 I0.0184 J0.0532
G2 X1.6934 Y2.3149 I4.8175 J-1.044
G1 Y2.315
G2 X1.7242 Y2.4329 I3.5429 J-0.8622
G3 X1.7244 Y2.4338 I-0.0542 J0.0151
G2 X1.7543 Y2.5392 I2.5932 J-0.6787
G3 X1.7544 Y2.5395 I-0.0538 J0.0165
G2 X1.7825 Y2.6253 I1.7227 J-0.5168
G3 X1.7827 Y2.6259 I-0.053 J0.0188
G2 X1.796 Y2.6605 I0.4786 J-0.1645
G3 X1.7963 Y2.6611 I-0.0517 J0.0221
G2 X1.8078 Y2.6833 I0.1357 J-0.0561
G2 X1.8203 Y2.6795 I-0.0176 J-0.0806
G3 X1.8232 Y2.6785 I0.0206 J0.0524
G2 X1.8775 Y2.658 I-0.2237 J-0.6765
G2 X1.8959 Y2.65 I-0.6928 J-1.6085
G3 X1.8824 Y2.6377 I0.0554 J-0.0741
G3 X1.8726 Y2.626 I0.119 J-0.1098
G0 Z0.125
G0 X1.3941 Y2.6523
G1 F10.0 Z-0.015
G3 F30.0 X1.3839 Y2.6328 I0.1018 J-0.0651
G2 X1.3754 Y2.6573 I0.3936 J0.1511
G2 X1.3818 Y2.6557 I-0.0249 J-0.1175
G3 X1.3823 Y2.6556 I0.0212 J0.0784
G2 X1.3941 Y2.6523 I-0.1229 J-0.4685
G1 F10.0 X1.4151 Y2.6389
G3 F30.0 X1.4002 Y2.5809 I0.0807 J-0.0516
G3 X1.4003 Y2.5799 I0.0561 J0.0037
G3 X1.4153 Y2.5094 I0.2883 J0.0244
G3 X1.4317 Y2.4626 I1.2233 J0.403
G2 X1.4158 Y2.4963 I4.7032 J2.2451
G3 X1.4155 Y2.497 I-0.0509 J-0.0239
G2 X1.3609 Y2.6231 I1.4794 J0.7151
G1 X1.3608 Y2.6232
G2 X1.349 Y2.6581 I0.4167 J0.1607
G3 X1.3487 Y2.6591 I-0.054 J-0.0158
G2 X1.3441 Y2.6839 I0.101 J0.0318
G2 X1.3556 Y2.6848 I0.0121 J-0.0791
G2 X1.3883 Y2.6799 I-0.0051 J-0.145
G3 X1.3887 Y2.6798 I0.0147 J0.0543
G2 X1.4391 Y2.6637 I-0.1293 J-0.4927
G3 X1.4312 Y2.6577 I0.0575 J-0.085
G3 X1.4261 Y2.653 I0.0359 J-0.0433
G3 X1.4151 Y2.6389 I0.0697 J-0.0657
G0 Z0.125
G0 X2.0036 Y1.7267
G1 F10.0 Z-0.015
G3 F30.0 X2.0256 Y1.7362 I-0.0852 J0.2275
G3 X2.0556 Y1.7521 I-0.1463 J0.3134
G2 X2.0606 Y1.7451 I-0.2854 J-0.2122
G3 X2.062 Y1.7432 I0.0664 J0.0469
G2 X2.0662 Y1.7375 I-0.263 J-0.1971
G2 X2.0479 Y1.7323 I-0.0605 J0.1792
G3 X2.0452 Y1.7316 I0.0181 J-0.0792
G2 X2.0072 Y1.7267 I-0.038 J0.1437
G3 X2.0069 I0.0 J-0.0812
G2 X2.0036 I-0.0007 J0.1729
G1 F10.0 X1.9948 Y1.7501
G3 F30.0 X2.0148 Y1.7588 I-0.0764 J0.2041
G3 X2.0611 Y1.7853 I-0.1355 J0.2908
G2 X2.081 Y1.7595 I-0.291 J-0.2454
G3 X2.082 Y1.7582 I0.0459 J0.0325
G2 X2.1034 Y1.7261 I-0.283 J-0.2121
G2 X2.0948 Y1.7219 I-0.0646 J0.1207
G3 X2.0945 Y1.7218 I0.023 J-0.0513
G2 X2.0534 Y1.7079 I-0.0888 J0.1948
G3 X2.0516 Y1.7075 I0.0125 J-0.0548
G2 X2.0072 Y1.7017 I-0.0444 J0.1679
G3 X2.007 I0.0 J-0.0562
G2 X1.909 Y1.7272 I-0.0008 J0.1979
G2 X1.8841 Y1.7426 I0.1865 J0.3303
G3 X1.9245 Y1.7365 I0.0434 J0.1505
G3 X1.9281 I0.0011 J0.0562
G3 X1.9948 Y1.7501 I-0.0097 J0.2177
G1 F10.0 X1.986 Y1.7735
G3 F30.0 X2.0039 Y1.7813 I-0.0677 J0.1807
G3 X2.0646 Y1.819 I-0.1247 J0.2683
G2 X2.0681 Y1.8152 I-0.0664 J-0.0633
G3 X2.0689 Y1.8143 I0.0238 J0.0203
G2 X2.1015 Y1.7739 I-0.2988 J-0.2744
G3 X2.102 Y1.7732 I0.0255 J0.018
G2 X2.1295 Y1.7309 I-0.303 J-0.2271
G3 X2.1307 Y1.7288 I0.0273 J0.0152
G2 X2.1364 Y1.7177 I-0.0427 J-0.0285
G2 X2.1363 Y1.7176 I-0.0218 J0.028
G2 X2.105 Y1.6991 I-0.0975 J0.1293
G3 X2.1049 I0.0128 J-0.0285
G2 X2.059 Y1.6835 I-0.0992 J0.2176
G3 X2.058 Y1.6833 I0.007 J-0.0305
G2 X2.0072 Y1.6767 I-0.0508 J0.1921
G3 X2.0071 I0.0 J-0.0312
G2 X1.8967 Y1.7055 I-0.0009 J0.2229
G2 X1.7926 Y1.7897 I0.1988 J0.352
G3 X1.7923 Y1.79 I-0.0234 J-0.0207
G2 X1.6905 Y1.9258 I0.6856 J0.6203
G3 X1.6903 Y1.9261 I-0.0266 J-0.0164
G2 X1.587 Y2.1041 I2.3358 J1.475
G2 X1.4781 Y2.3128 I13.9282 J7.4018
G2 X1.3931 Y2.4857 I4.6569 J2.3949
G3 X1.393 Y2.4861 I-0.0283 J-0.0133
G2 X1.3375 Y2.6141 I1.5019 J0.726
G1 Y2.6142
G2 X1.325 Y2.651 I0.44 J0.1697
G3 X1.3249 Y2.6516 I-0.03 J-0.0088
G2 X1.319 Y2.6844 I0.1249 J0.0393
G2 X1.3222 Y2.7004 I0.035 J0.0013
G3 X1.3224 Y2.7009 I-0.0283 J0.0131
G2 X1.3256 Y2.7045 I0.0078 J-0.0035
G2 X1.3349 Y2.7077 I0.012 J-0.02
G3 X1.337 Y2.708 I-0.0036 J0.031
G2 X1.3559 Y2.7098 I0.0192 J-0.1032
G2 X1.3948 Y2.704 I-0.0054 J-0.17
G3 X1.395 Y2.7039 I0.0081 J0.0302
G2 X1.449 Y2.6867 I-0.1356 J-0.5169
G2 X1.5075 Y2.6611 I-0.2673 J-0.6905
G3 X1.5081 Y2.6608 I0.0137 J0.0281
G2 X1.5198 Y2.6553 I-0.2821 J-0.6117
G3 X1.4952 Y2.6563 I-0.0163 J-0.0954
G3 X1.4471 Y2.6384 I0.0015 J-0.0777
G3 X1.4443 Y2.6358 I0.0199 J-0.0241
G3 X1.4252 Y2.5826 I0.0515 J-0.0486
G3 Y2.582 I0.0312 J0.0021
G3 X1.439 Y2.5174 I0.2633 J0.0223
G3 X1.4733 Y2.4255 I1.1996 J0.395
G3 X1.5226 Y2.3121 I2.3237 J0.9443
G3 X1.5818 Y2.1884 I3.4807 J1.5887
G3 X1.6403 Y2.1958 I0.0279 J0.014
G2 X1.6691 Y2.3209 I4.8419 J-1.0492
G2 X1.7001 Y2.4397 I3.5672 J-0.8681
G3 X1.7002 Y2.4401 I-0.0301 J0.0084
G2 X1.7304 Y2.5465 I2.6174 J-0.6851
G3 Y2.5467 I-0.0299 J0.0091
G2 X1.7589 Y2.6337 I1.7467 J-0.524
G3 X1.7591 Y2.634 I-0.0294 J0.0105
G2 X1.773 Y2.6703 I0.5023 J-0.1726
G3 X1.7732 Y2.6707 I-0.0287 J0.0123
G2 X1.7897 Y2.7014 I0.1589 J-0.0656
G3 X1.7905 Y2.7026 I-0.0259 J0.0175
G2 X1.8011 Y2.7097 I0.0129 J-0.0079
G2 X1.8295 Y2.7028 I-0.0109 J-0.107
G3 X1.8311 Y2.7022 I0.0114 J0.0291
G2 X1.8874 Y2.681 I-0.2316 J-0.7003
G2 X1.9548 Y2.6503 I-0.7026 J-1.6315
G3 X1.9553 Y2.6501 I0.0135 J0.0282
G2 X1.9795 Y2.6388 I-1.3253 J-2.8921
G3 X1.9759 Y2.6396 I-0.05 J-0.2397
G3 X1.9508 Y2.6433 I-0.0317 J-0.1264
G3 X1.9475 I-0.0016 J-0.0312
G3 X1.9009 Y2.6209 I0.0037 J-0.0674
G3 X1.8796 Y2.5904 I0.1006 J-0.093
G3 X1.8658 Y2.5622 I0.3649 J-0.1969
G3 X1.8656 Y2.562 I0.0285 J-0.0127
G3 X1.8403 Y2.4963 I0.7629 J-0.3319
G3 X1.8116 Y2.4056 I1.5527 J-0.5409
G3 X1.7824 Y2.2988 I3.2635 J-0.9496
G3 X1.7533 Y2.1846 I3.9673 J-1.0726
G3 X1.7279 Y2.0723 I3.3674 J-0.8201
G3 X1.7079 Y1.9724 I4.2206 J-0.896
G3 X1.712 Y1.9503 I0.0307 J-0.0058
G3 X1.7586 Y1.881 I0.8695 J0.5336
G3 X1.8141 Y1.8157 I0.4496 J0.3264
G3 X1.8608 Y1.7796 I0.1593 J0.1577
G3 X1.925 Y1.7615 I0.0667 J0.1134
G3 X1.927 I0.0006 J0.0312
G3 X1.986 Y1.7735 I-0.0086 J0.1927
G0 Z0.125
G0 X1.7697 Y0.8478
G1 F10.0 Z-0.015
G2 F30.0 X1.7733 Y0.8469 I-0.0332 J-0.142
G2 X1.7821 Y0.8441 I-0.0553 J-0.1904
G3 X1.7519 Y0.8041 I0.0662 J-0.0814
G3 X1.7385 Y0.7559 I0.1389 J-0.0645
G3 X1.7366 Y0.721 I0.2761 J-0.033
G3 Y0.7199 I0.0812 J0.0006
G3 X1.7426 Y0.646 I0.6001 J0.0117
G3 X1.7543 Y0.5604 I2.5224 J0.3009
G3 Y0.5602 I0.0803 J0.0124
G3 X1.7708 Y0.4662 I2.5464 J0.3969
G2 X1.7857 Y0.3801 I-6.7235 J-1.2134
G3 X1.798 Y0.3075 I10.8835 J1.7956
G2 X1.8014 Y0.2748 I-0.2779 J-0.0459
G2 Y0.2742 I-0.0613 J0.0004
G3 X1.7984 Y0.2753 I-0.0286 J-0.076
G2 X1.7511 Y0.2934 I0.1714 J0.517
G3 X1.7705 Y0.345 I-0.0973 J0.066
G3 X1.7724 Y0.3744 I-0.1973 J0.0275
G3 Y0.375 I-0.0812 J-0.0008
G3 X1.7669 Y0.4384 I-0.4625 J-0.008
G3 X1.7551 Y0.5104 I-1.857 J-0.2693
G3 X1.7405 Y0.5892 I-23.4009 J-4.276
G3 X1.7403 Y0.5905 I-0.0799 J-0.0149
G2 X1.7255 Y0.6689 I2.6081 J0.5327
G2 X1.7146 Y0.7424 I1.6829 J0.2874
G3 X1.7145 Y0.7426 I-0.0806 J-0.0102
G2 X1.7106 Y0.7993 I0.4725 J0.0611
G3 Y0.8003 I-0.0812 J-0.0007
G2 X1.7156 Y0.837 I0.1186 J0.0026
G3 Y0.8372 I-0.0778 J0.0234
G2 X1.7215 Y0.8484 I0.032 J-0.0095
G3 X1.724 Y0.8493 I-0.0266 J0.0768
G2 X1.7365 Y0.8516 I0.0124 J-0.0324
G3 X1.7368 I0.0004 J0.0812
G2 X1.7697 Y0.8478 I-0.0002 J-0.1458
G1 F10.0 X1.7754 Y0.8721
G2 F30.0 X1.78 Y0.871 I-0.0389 J-0.1663
G2 X1.8275 Y0.8511 I-0.0619 J-0.2145
G2 X1.8421 Y0.8424 I-0.2044 J-0.3605
G3 X1.7747 Y0.7939 I0.0062 J-0.0797
G3 X1.7634 Y0.7531 I0.1161 J-0.0543
G3 X1.7616 Y0.7211 I0.2512 J-0.0302
G3 Y0.7204 I0.0562 J0.0004
G3 X1.7674 Y0.6493 I0.5751 J0.0112
G3 X1.779 Y0.5642 I2.4976 J0.2976
G3 Y0.5641 I0.0556 J0.0086
G3 X1.7953 Y0.4708 I2.5217 J0.3931
G2 X1.8104 Y0.3842 I-6.7481 J-1.218
G3 X1.8226 Y0.3116 I10.8588 J1.7915
G2 X1.8264 Y0.2753 I-0.3025 J-0.05
G2 X1.824 Y0.2551 I-0.0863 J-0.0001
G2 X1.8185 Y0.2445 I-0.0407 J0.0145
G3 X1.8184 Y0.2443 I0.0458 J-0.0326
G2 X1.7929 Y0.2507 I0.0132 J0.1079
G3 X1.7905 Y0.2515 I-0.0201 J-0.0525
G2 X1.7311 Y0.275 I0.1793 J0.5408
G2 X1.7079 Y0.2864 I0.5904 J1.2291
G3 X1.7246 Y0.3001 I-0.0438 J0.0703
G3 X1.7295 Y0.3062 I-0.0411 J0.0384
G3 X1.7457 Y0.3483 I-0.0757 J0.0533
G3 X1.7474 Y0.3742 I-0.1725 J0.0242
G3 Y0.3746 I-0.0562 J-0.0005
G3 X1.7422 Y0.4347 I-0.4375 J-0.0076
G3 X1.7305 Y0.5059 I-1.8323 J-0.2656
G3 X1.7159 Y0.5846 I-23.3763 J-4.2715
G3 X1.7158 Y0.5855 I-0.0553 J-0.0103
G2 X1.7008 Y0.6647 I2.6326 J0.5377
G2 X1.6897 Y0.7393 I1.7075 J0.2917
G3 Y0.7394 I-0.0558 J-0.007
G2 X1.6856 Y0.7991 I0.4973 J0.0643
G3 Y0.7998 I-0.0562 J-0.0005
G2 X1.6916 Y0.8442 I0.1436 J0.0031
G3 X1.6917 Y0.8443 I-0.0539 J0.0162
G2 X1.703 Y0.8653 I0.056 J-0.0167
G2 X1.7134 Y0.8721 I0.0188 J-0.0173
G3 X1.7151 Y0.8727 I-0.0184 J0.0532
G2 X1.7366 Y0.8766 I0.0213 J-0.0557
G3 X1.7368 I0.0003 J0.0562
G2 X1.7754 Y0.8721 I-0.0003 J-0.1708
G0 Z0.125
G0 X2.1118 Y0.8236
G1 F10.0 Z-0.015
G2 F30.0 X2.1123 Y0.8265 I0.1033 J-0.0181
G2 X2.1134 I-0.0054 J-0.1665
G3 X2.1118 Y0.8236 I0.1151 J-0.0671
G1 F10.0 X2.0872 Y0.8279
G2 F30.0 X2.0885 Y0.8346 I0.1279 J-0.0224
G3 X2.0888 Y0.8359 I-0.0792 J0.0182
G2 X2.0934 Y0.8463 I0.027 J-0.0057
G3 X2.0942 Y0.8473 I-0.0658 J0.0477
G2 X2.0969 Y0.85 I0.0078 J-0.0054
G2 X2.1055 Y0.8516 I0.008 J-0.0179
G3 X2.1075 I0.0023 J0.0812
G2 X2.1513 Y0.8464 I-0.0005 J-0.1916
G2 X2.1606 Y0.8437 I-0.0508 J-0.1925
G3 X2.1301 Y0.8045 I0.0679 J-0.0843
G3 X2.116 Y0.7532 I0.1409 J-0.0663
G3 X2.1142 Y0.7179 I0.3001 J-0.0332
G3 Y0.7163 I0.0812 J0.0005
G3 X2.1218 Y0.627 I0.7873 J0.0214
G3 X2.1397 Y0.5038 I2.4744 J0.2975
G3 X2.166 Y0.3568 I4.1413 J0.6652
G3 X2.1751 Y0.309 I5.5573 J1.0352
G1 X2.1524 Y0.3189
G3 X2.1514 Y0.337 I-0.6836 J-0.0267
G3 X2.1513 Y0.3383 I-0.0811 J-0.0053
G3 X2.1377 Y0.4558 I-1.7958 J-0.1482
G3 X2.1376 Y0.4564 I-0.0804 J-0.012
G3 X2.1244 Y0.5358 I-4.1605 J-0.6526
G3 X2.1241 Y0.5372 I-0.08 J-0.0141
G3 X2.107 Y0.6068 I-0.717 J-0.1402
G3 X2.0853 Y0.6656 I-0.4869 J-0.1463
G3 X2.0583 Y0.7162 I-0.328 J-0.1423
G3 X2.0864 Y0.7853 I-0.0528 J0.0618
G2 X2.086 Y0.7941 I0.1102 J0.0099
G3 X2.0853 Y0.8037 I-0.0812 J-0.0008
G2 X2.0852 Y0.8051 I0.0114 J0.0015
G2 X2.0872 Y0.8279 I0.1298 J0.0005
G1 F10.0 X2.0625 Y0.8322
G2 F30.0 X2.0641 Y0.8402 I0.1525 J-0.0267
G3 X2.0643 Y0.8411 I-0.0548 J0.0126
G2 X2.0732 Y0.861 I0.0514 J-0.0109
G3 X2.0737 Y0.8617 I-0.0456 J0.033
G2 X2.0854 Y0.8722 I0.0282 J-0.0198
G2 X2.1062 Y0.8766 I0.0195 J-0.0401
G3 X2.1076 I0.0016 J0.0562
G2 X2.1574 Y0.8707 I-0.0006 J-0.2166
G2 X2.2099 Y0.8494 I-0.0569 J-0.2167
G3 X2.2108 Y0.849 I0.0275 J0.0491
G2 X2.2225 Y0.8424 I-0.1919 J-0.3567
G3 X2.1528 Y0.794 I0.006 J-0.083
G3 X2.1409 Y0.7506 I0.1182 J-0.0558
G3 X2.1392 Y0.7181 I0.2752 J-0.0306
G3 Y0.7169 I0.0562 J0.0004
G3 X2.1466 Y0.6303 I0.7623 J0.0208
G3 X2.1644 Y0.5078 I2.4497 J0.2943
G3 X2.1906 Y0.3615 I4.1166 J0.6611
G3 X2.209 Y0.2668 I5.5328 J1.0305
G2 X2.1825 Y0.2785 I1.3126 J3.021
G3 X2.182 Y0.2787 I-0.0229 J-0.0514
G1 X2.1297 Y0.3015
G2 X2.1278 Y0.3023 I0.527 J1.1698
G3 X2.1265 Y0.3354 I-0.659 J-0.0102
G3 X2.1264 Y0.3363 I-0.0561 J-0.0037
G3 X2.113 Y0.4521 I-1.7708 J-0.1461
G3 X2.1129 Y0.4525 I-0.0556 J-0.0083
G3 X2.0998 Y0.5314 I-4.1358 J-0.6488
G3 X2.0996 Y0.5324 I-0.0554 J-0.0098
G3 X2.083 Y0.5996 I-0.6925 J-0.1354
G3 X2.0624 Y0.6556 I-0.463 J-0.1391
G3 X2.0344 Y0.7071 I-0.3051 J-0.1323
G3 X2.0227 Y0.7244 I-0.3085 J-0.1959
G3 X2.0615 Y0.783 I-0.0172 J0.0536
G2 X2.061 Y0.7938 I0.1351 J0.0122
G3 X2.0605 Y0.8004 I-0.0562 J-0.0006
G2 X2.0602 Y0.8049 I0.0362 J0.0047
G2 X2.0625 Y0.8322 I0.1548 J0.0006
G0 Z0.125
G0 X2.4445 Y0.7056
G1 F10.0 Z-0.015
G3 F30.0 X2.4761 Y0.7796 I-0.0491 J0.0647
G2 X2.4726 Y0.8173 I0.8638 J0.099
G3 X2.4722 Y0.821 I-0.081 J-0.0057
G2 X2.4707 Y0.8391 I0.2632 J0.0308
G2 X2.5113 Y0.8251 I-0.2959 J-0.922
G3 X2.5016 Y0.7947 I0.1068 J-0.051
G3 X2.498 Y0.7511 I0.2106 J-0.0392
G3 Y0.751 I0.0812 J0.0017
G3 X2.5054 Y0.6524 I0.9348 J0.0207
G3 X2.5233 Y0.5199 I2.714 J0.2999
G3 X2.5488 Y0.3647 I5.6311 J0.8451
G3 X2.5589 Y0.3091 I8.1605 J1.4476
G3 X2.5367 Y0.3189 I-4.044 J-9.1431
G3 X2.5349 Y0.34 I-0.5489 J-0.0362
G3 X2.519 Y0.4571 I-1.7136 J-0.1734
G3 X2.5048 Y0.5366 I-2.1313 J-0.339
G3 X2.4878 Y0.6063 I-0.7759 J-0.1524
G3 X2.4875 Y0.6075 I-0.078 J-0.0228
G3 X2.4639 Y0.6692 I-0.4881 J-0.1513
G3 X2.4637 Y0.6695 I-0.0739 J-0.0339
G3 X2.4445 Y0.7056 I-0.3381 J-0.157
G1 F10.0 X2.4231 Y0.6927
G3 F30.0 X2.4121 Y0.7097 I-0.2975 J-0.1801
G3 X2.4081 Y0.7156 I-0.3147 J-0.2122
G3 X2.4512 Y0.7768 I-0.0127 J0.0548
G2 X2.4477 Y0.8155 I0.8887 J0.1018
G3 X2.4474 Y0.8181 I-0.0561 J-0.004
G2 X2.4455 Y0.846 I0.288 J0.0338
G2 X2.4465 Y0.8729 I0.2866 J0.0029
G2 X2.456 Y0.8699 I-0.0344 J-0.1271
G3 X2.4586 Y0.869 I0.0187 J0.053
G2 X2.5251 Y0.8467 I-0.2838 J-0.9519
G3 X2.5258 Y0.8464 I0.0198 J0.0526
G2 X2.5494 Y0.8377 I-0.6845 J-1.8949
G3 X2.5414 Y0.8273 I0.0534 J-0.0494
G3 X2.5262 Y0.7903 I0.0767 J-0.0532
G3 X2.523 Y0.7516 I0.186 J-0.0347
G3 X2.5302 Y0.6553 I0.9098 J0.0201
G3 X2.5481 Y0.5237 I2.6892 J0.2969
G3 X2.5734 Y0.3691 I5.6064 J0.8412
G3 X2.5922 Y0.267 I8.1359 J1.4432
G2 X2.5662 Y0.2785 I3.8855 J8.8076
G3 X2.5142 Y0.3015 I-4.0514 J-9.1125
G2 X2.5125 Y0.3022 I0.275 J0.6162
G3 X2.5101 Y0.3374 I-0.5247 J-0.0195
G3 X2.4943 Y0.453 I-1.6888 J-0.1708
G3 X2.4803 Y0.5317 I-2.1066 J-0.335
G3 X2.4638 Y0.5992 I-0.7513 J-0.1475
G3 X2.4636 Y0.6001 I-0.054 J-0.0158
G3 X2.4411 Y0.6588 I-0.4642 J-0.1439
G3 X2.441 Y0.659 I-0.0511 J-0.0234
G3 X2.4231 Y0.6927 I-0.3155 J-0.1465
G1 F10.0 X2.4017 Y0.6797
G3 F30.0 X2.3914 Y0.6956 I-0.2761 J-0.1672
G3 X2.3432 Y0.7531 I-0.294 J-0.1981
G3 X2.2987 Y0.7899 I-0.2346 J-0.2375
G3 X2.2983 Y0.7902 I-0.0178 J-0.0257
G3 X2.2608 Y0.8099 I-0.1117 J-0.167
G3 X2.2326 Y0.8174 I-0.0398 J-0.0928
G3 X2.2296 Y0.8176 I-0.0036 J-0.031
G3 X2.1755 Y0.7835 I-0.0011 J-0.0582
G3 X2.1658 Y0.748 I0.0956 J-0.0452
G3 X2.1642 Y0.7183 I0.2503 J-0.0281
G3 Y0.7176 I0.0312 J0.0002
G3 X2.1713 Y0.6335 I0.7373 J0.0201
G3 X2.1891 Y0.5119 I2.4249 J0.291
G3 X2.2151 Y0.3662 I4.0919 J0.657
G3 X2.2429 Y0.227 I5.5082 J1.0258
G1 X2.241 Y0.2252
G3 X2.2253 Y0.2326 I-0.3847 J-0.7925
G3 X2.2245 Y0.233 I-0.0131 J-0.0284
G2 X2.1723 Y0.2557 I1.2972 J3.0548
G3 X2.1721 Y0.2558 I-0.0127 J-0.0286
G1 X2.1196 Y0.2786
G2 X2.1029 Y0.2863 I0.5371 J1.1926
G3 X2.1015 Y0.3337 I-0.6341 J0.0059
G3 Y0.3342 I-0.0312 J-0.002
G3 X2.0883 Y0.4484 I-1.7459 J-0.1441
G3 X2.0882 Y0.4487 I-0.0309 J-0.0046
G3 X2.0752 Y0.5271 I-4.1111 J-0.6449
G3 X2.0751 Y0.5276 I-0.0308 J-0.0054
G3 X2.0591 Y0.5924 I-0.6679 J-0.1306
G3 X2.0395 Y0.6455 I-0.4391 J-0.1319
G3 X2.0134 Y0.6935 I-0.2822 J-0.1222
G3 X1.9666 Y0.752 I-0.2875 J-0.1822
G3 X1.9664 Y0.7521 I-0.0221 J-0.0221
G3 X1.922 Y0.7891 I-0.2347 J-0.2374
G3 X1.8816 Y0.8102 I-0.0976 J-0.1371
G3 X1.8498 Y0.8175 I-0.0393 J-0.0982
G3 X1.8465 Y0.8176 I-0.0022 J-0.0312
G3 X1.7976 Y0.7837 I0.0018 J-0.0549
G3 X1.7882 Y0.7503 I0.0932 J-0.0442
G3 X1.7866 Y0.7213 I0.2264 J-0.0274
G3 Y0.7209 I0.0312 J0.0002
G3 X1.7922 Y0.6526 I0.5501 J0.0107
G3 X1.8037 Y0.568 I2.4729 J0.2943
G1 Y0.5679
G3 X1.8199 Y0.4754 I2.497 J0.3892
G2 X1.835 Y0.3883 I-6.7726 J-1.2226
G3 X1.8473 Y0.3158 I10.8342 J1.7874
G2 X1.8514 Y0.2759 I-0.3272 J-0.0542
G2 X1.8481 Y0.2481 I-0.1113 J-0.0007
G2 X1.8389 Y0.23 I-0.0648 J0.0215
G3 X1.8382 Y0.229 I0.0255 J-0.0181
G2 X1.8296 Y0.2202 I-0.0266 J0.0174
G2 X1.8244 Y0.2187 I-0.006 J0.0113
G2 X1.784 Y0.2273 I0.0073 J0.1335
G3 X1.7826 Y0.2278 I-0.0112 J-0.0292
G2 X1.7205 Y0.2524 I0.1871 J0.5645
G2 X1.6498 Y0.2888 I0.601 J1.2517
G3 X1.6495 Y0.289 I-0.0151 J-0.0274
G2 X1.6244 Y0.3027 I1.1131 J2.0634
G3 X1.6625 Y0.2989 I0.0373 J0.18
G3 X1.7064 Y0.3172 I0.0017 J0.0578
G3 X1.7091 Y0.3206 I-0.0228 J0.0213
G3 X1.7209 Y0.3515 I-0.0553 J0.0389
G3 X1.7224 Y0.3739 I-0.1477 J0.021
G3 Y0.3742 I-0.0312 J-0.0003
G3 X1.7175 Y0.4309 I-0.4125 J-0.0072
G3 X1.7059 Y0.5013 I-1.8076 J-0.2619
G3 X1.6914 Y0.58 I-23.3517 J-4.2669
G3 X1.6913 Y0.5805 I-0.0307 J-0.0057
G2 X1.6762 Y0.6604 I2.6571 J0.5427
G2 X1.6649 Y0.7361 I1.7321 J0.2959
G1 Y0.7362
G2 X1.6606 Y0.7989 I0.5221 J0.0675
G3 Y0.7993 I-0.0312 J-0.0003
G2 X1.6677 Y0.8514 I0.1686 J0.0037
G1 Y0.8515
G2 X1.6842 Y0.8818 I0.08 J-0.0238
G2 X1.7052 Y0.8957 I0.0376 J-0.0338
G3 X1.7061 Y0.896 I-0.0102 J0.0295
G2 X1.7368 Y0.9016 I0.0302 J-0.0791
G3 X1.7369 I0.0002 J0.0312
G2 X1.7866 Y0.8951 I-0.0003 J-0.1958
G2 X1.8398 Y0.8728 I-0.0685 J-0.2386
G2 X1.9046 Y0.828 I-0.2167 J-0.3822
G3 X1.9047 Y0.8279 I0.02 J0.024
G2 X1.9833 Y0.756 I-0.6745 J-0.816
G3 X2.0366 Y0.7808 I0.0222 J0.022
G2 X2.036 Y0.7936 I0.16 J0.0144
G3 X2.0357 Y0.7972 I-0.0312 J-0.0003
G2 X2.0352 Y0.8048 I0.061 J0.0079
G2 X2.0398 Y0.8458 I0.1798 J0.0007
G3 X2.0399 Y0.8463 I-0.0305 J0.007
G2 X2.0529 Y0.8756 I0.0759 J-0.0161
G3 X2.0532 Y0.876 I-0.0253 J0.0183
G2 X2.074 Y0.8944 I0.0487 J-0.0341
G2 X2.1069 Y0.9016 I0.031 J-0.0623
G3 X2.1076 I0.0009 J0.0312
G2 X2.1634 Y0.8949 I-0.0007 J-0.2416
G2 X2.2222 Y0.8713 I-0.063 J-0.241
G3 X2.2226 Y0.871 I0.0153 J0.0273
G2 X2.2916 Y0.8248 I-0.2038 J-0.3787
G2 X2.3726 Y0.749 I-0.5408 J-0.6586
G3 X2.4264 Y0.7739 I0.0228 J0.0214
G2 X2.4227 Y0.8138 I0.9135 J0.1047
G3 X2.4226 Y0.8152 I-0.0312 J-0.0022
G2 X2.4205 Y0.8456 I0.3128 J0.0367
G2 X2.4226 Y0.885 I0.3116 J0.0033
G3 X2.4227 Y0.887 I-0.031 J0.0036
G2 X2.4257 Y0.9013 I0.0481 J-0.0025
G2 X2.428 Y0.9016 I0.0026 J-0.0114
G2 X2.4643 Y0.8935 I-0.0159 J-0.1559
G3 X2.4658 Y0.893 I0.0104 J0.0295
G2 X2.5339 Y0.87 I-0.2909 J-0.9759
G3 X2.5343 Y0.8699 I0.011 J0.0292
G2 X2.6123 Y0.8399 I-0.693 J-1.9184
G2 X2.6228 Y0.8355 I-2.8232 J-6.8057
G3 X2.6102 Y0.8367 I-0.0173 J-0.1184
G3 X2.6092 I-0.0012 J-0.0312
G3 X2.5891 Y0.834 I-0.0005 J-0.0728
G3 X2.5876 Y0.8335 I0.0084 J-0.0301
G3 X2.5622 Y0.8135 I0.0152 J-0.0452
G3 X2.5508 Y0.7858 I0.0559 J-0.0394
G3 X2.548 Y0.7522 I0.1614 J-0.0303
G1 Y0.7521
G3 X2.5551 Y0.6583 I0.8848 J0.0196
G3 X2.5728 Y0.5275 I2.6644 J0.294
G3 X2.598 Y0.3735 I5.5817 J0.8374
G3 X2.6253 Y0.2273 I8.1113 J1.4388
G1 X2.6234 Y0.2255
G3 X2.6082 Y0.2327 I-0.2515 J-0.5097
G3 X2.6078 Y0.2329 I-0.013 J-0.0284
G2 X2.5561 Y0.2557 I3.8699 J8.8417
G3 X2.5041 Y0.2786 I-4.0412 J-9.0896
G2 X2.4879 Y0.2861 I0.2851 J0.639
G3 X2.4852 Y0.3349 I-0.5001 J-0.0034
G3 X2.4697 Y0.4489 I-1.6639 J-0.1682
G3 X2.4558 Y0.5269 I-2.082 J-0.3309
G3 X2.4398 Y0.5922 I-0.7268 J-0.1427
G3 X2.4397 Y0.5927 I-0.03 J-0.0088
G3 X2.4184 Y0.6483 I-0.4404 J-0.1365
G3 Y0.6485 I-0.0284 J-0.013
G3 X2.4017 Y0.6797 I-0.2928 J-0.1359
G0 Z0.125
G0 X2.9713 Y0.8739
G1 F10.0 Z-0.015
G3 F30.0 X2.9784 Y0.9217 I-0.0732 J0.0353
G1 X2.9716 Y0.9659
G3 X2.9715 Y0.966 I-0.0803 J-0.0125
G3 X2.9696 Y0.9782 I-1.6212 J-0.2537
G1 X2.9762 Y0.975
G2 X2.9822 Y0.9703 I-0.6406 J-0.8226
G2 X2.9842 Y0.9644 I-0.0548 J-0.0223
G2 X2.9916 Y0.925 I-0.4044 J-0.0955
G3 X2.992 Y0.9222 I0.0805 J0.011
G1 X2.9966 Y0.8955
G3 X3.018 Y0.853 I0.0801 J0.0137
G3 X3.0109 Y0.8049 I0.0732 J-0.0353
G1 X3.0658 Y0.4593
G3 X3.0661 Y0.4576 I0.0802 J0.0128
G2 X3.0714 Y0.4242 I-0.7612 J-0.1374
G3 X3.0742 Y0.3938 I4.1226 J0.3595
G3 X3.0755 Y0.3676 I3.561 J0.1693
G1 Y0.3408
G3 Y0.34 I0.0812 J0.0
G2 X3.0698 Y0.3089 I-0.0819 J-0.0009
G1 X3.0697 Y0.3088
G2 X3.0555 Y0.2849 I-0.0803 J0.0317
G2 X3.0369 Y0.2714 I-0.0511 J0.0507
G2 X3.028 Y0.2688 I-0.0114 J0.0226
G2 X3.0046 Y0.2744 I0.0069 J0.0815
G3 X3.0008 Y0.2758 I-0.0301 J-0.0755
G2 X2.9818 Y0.2827 I0.1511 J0.4395
G3 X3.0199 Y0.3205 I-0.0667 J0.1051
G3 X3.0208 Y0.322 I-0.0683 J0.044
G3 X3.0434 Y0.3863 I-0.1383 J0.0849
G3 X3.0465 Y0.4319 I-0.3029 J0.0434
G1 Y0.4522
G3 X3.0464 Y0.4569 I-0.0812 J0.0
G2 X3.0449 Y0.484 I6.9963 J0.4023
G3 X3.0446 Y0.4879 I-0.0811 J-0.0043
G2 X3.0416 Y0.5185 I4.1071 J0.4162
G3 X3.0412 Y0.5218 I-0.0809 J-0.0076
G3 X3.0364 Y0.5549 I-1.4879 J-0.2009
G1 X2.9929 Y0.8303
G3 X2.9713 Y0.8739 I-0.0803 J-0.0127
G1 F10.0 X2.9532 Y0.8566
G3 F30.0 X2.9369 Y0.8684 I-0.0406 J-0.0389
G3 X2.9537 Y0.9178 I-0.0387 J0.0408
G1 X2.9469 Y0.9621
G1 X2.9468 Y0.9622
G3 X2.9362 Y1.0225 I-1.5965 J-0.2499
G1 X2.9896 Y0.9963
G2 X3.0011 Y0.9872 I-0.654 J-0.8439
G2 X3.0028 Y0.9853 I-0.0089 J-0.01
G2 X3.0084 Y0.9707 I-0.0755 J-0.0373
G2 X3.0163 Y0.9283 I-0.4286 J-0.1018
G3 X3.0166 Y0.9264 I0.0557 J0.0076
G1 X3.0212 Y0.8997
G3 X3.0524 Y0.8584 I0.0554 J0.0095
G3 X3.0356 Y0.8088 I0.0387 J-0.0408
G1 X3.0905 Y0.4632
G3 X3.0907 Y0.4621 I0.0556 J0.0088
G2 X3.0963 Y0.427 I-0.7858 J-0.1419
G3 X3.0991 Y0.3956 I4.0977 J0.3567
G3 X3.1005 Y0.3683 I3.5361 J0.1675
G1 Y0.3408
G3 Y0.3402 I0.0562 J0.0
G2 X3.093 Y0.2997 I-0.1069 J-0.0011
G2 X3.074 Y0.2681 I-0.1036 J0.0409
G2 X3.0482 Y0.2491 I-0.0696 J0.0675
G2 X3.0279 Y0.2438 I-0.0227 J0.0449
G2 X2.9953 Y0.2511 I0.007 J0.1065
G3 X2.9927 Y0.2521 I-0.0209 J-0.0522
G2 X2.9299 Y0.2787 I0.1592 J0.4632
G2 X2.9115 Y0.2885 I0.3737 J0.7254
G3 X2.9139 Y0.2884 I0.0108 J0.2693
G3 X2.9163 I0.0018 J0.0562
G3 X2.9988 Y0.334 I-0.0012 J0.0995
G3 X2.9995 Y0.3351 I-0.0473 J0.0305
G3 X3.0187 Y0.3896 I-0.117 J0.0718
G3 X3.0215 Y0.4318 I-0.2781 J0.04
G1 Y0.4522
G3 X3.0214 Y0.4554 I-0.0562 J0.0
G2 X3.0199 Y0.4827 I7.0212 J0.4037
G3 X3.0197 Y0.4853 I-0.0562 J-0.003
G2 X3.0167 Y0.5162 I4.132 J0.4187
G3 X3.0164 Y0.5185 I-0.056 J-0.0053
G3 X3.0117 Y0.551 I-1.4632 J-0.1975
G1 X2.9682 Y0.8264
G3 X2.9532 Y0.8566 I-0.0556 J-0.0088
G1 F10.0 X2.9352 Y0.8393
G3 F30.0 X2.9126 Y0.8489 I-0.0226 J-0.0216
G1 X2.9099
G3 X2.8283 Y0.8415 I-0.0082 J-0.3638
G3 X2.7935 Y0.8262 I0.0134 J-0.0778
G2 X2.7676 Y0.8489 I0.7126 J0.8373
G2 X2.7386 Y0.878 I0.5782 J0.6071
G1 X2.8981
G3 X2.929 Y0.914 I0.0 J0.0313
G1 X2.9221 Y0.9583
G3 X2.9081 Y1.0353 I-1.5718 J-0.246
G3 X2.908 Y1.036 I-0.0306 J-0.0063
G3 X2.8989 Y1.0687 I-0.3749 J-0.086
G1 X3.0029 Y1.0176
G2 X3.0171 Y1.0064 I-0.6673 J-0.8652
G2 X3.0244 Y0.9981 I-0.0249 J-0.0292
G2 X3.0327 Y0.977 I-0.097 J-0.0501
G2 X3.0411 Y0.9317 I-0.4528 J-0.1081
G3 X3.0413 Y0.9306 I0.031 J0.0042
G1 X3.0459 Y0.9039
G3 X3.0767 Y0.878 I0.0308 J0.0053
G1 X3.1106
G1 X3.1536 Y0.8489
G1 X3.0912
G3 X3.0603 Y0.8128 I0.0 J-0.0313
G1 X3.1152 Y0.4671
G3 X3.1153 Y0.4665 I0.0309 J0.0049
G2 X3.1211 Y0.4297 I-0.8104 J-0.1463
G3 X3.1241 Y0.3974 I4.0729 J0.3539
G3 X3.1255 Y0.3689 I3.5111 J0.1658
G1 Y0.3408
G3 Y0.3405 I0.0312 J0.0
G2 X3.1163 Y0.2905 I-0.1319 J-0.0014
G2 X3.0925 Y0.2512 I-0.1268 J0.0501
G2 X3.0595 Y0.2268 I-0.0881 J0.0844
G2 X3.0276 Y0.2187 I-0.034 J0.0672
G2 X2.986 Y0.2279 I0.0073 J0.1316
G3 X2.9846 Y0.2285 I-0.0116 J-0.029
G2 X2.9185 Y0.2565 I0.1673 J0.4868
G2 X2.8406 Y0.3021 I0.3851 J0.7477
G1 X2.8405
G2 X2.7766 Y0.3476 I0.5822 J0.8862
G1 X2.7779 Y0.3513
G3 X2.843 Y0.3265 I0.3751 J0.886
G3 X2.9147 Y0.3134 I0.0793 J0.2313
G3 X2.916 I0.001 J0.0312
G3 X2.9778 Y0.3476 I-0.0009 J0.0745
G3 X2.9782 Y0.3481 I-0.0263 J0.0169
G3 X2.9939 Y0.393 I-0.0957 J0.0587
G3 X2.9965 Y0.4317 I-0.2533 J0.0367
G1 Y0.4522
G3 Y0.454 I-0.0312 J0.0
G2 X2.995 Y0.4813 I7.0462 J0.4052
G3 X2.9948 Y0.4828 I-0.0312 J-0.0017
G2 X2.9918 Y0.5139 I4.1568 J0.4212
G3 X2.9917 Y0.5151 I-0.0311 J-0.0029
G3 X2.987 Y0.5471 I-1.4384 J-0.1942
G1 X2.9435 Y0.8225
G3 X2.9352 Y0.8393 I-0.0309 J-0.0049
G0 Z0.125
G0 X3.3359 Y0.8381
G1 F10.0 Z-0.015
G2 F30.0 X3.3619 Y0.8498 I0.2973 J-0.626
G3 X3.3636 Y0.8506 I-0.022 J0.0518
G2 X3.4135 Y0.8699 I0.172 J-0.3702
G2 X3.4233 Y0.8725 I0.0523 J-0.178
G3 X3.3796 Y0.8347 I0.1956 J-0.2704
G3 X3.3585 Y0.8137 I0.5157 J-0.5389
G2 X3.3488 Y0.8241 I0.2552 J0.2495
G3 X3.3478 Y0.8252 I-0.0417 J-0.0377
G2 X3.3359 Y0.8381 I0.316 J0.3011
G0 Z0.125
G0 X3.4897 Y0.5622
G1 F10.0 Z-0.015
G2 F30.0 X3.5088 Y0.5725 I0.3146 J-0.5645
G3 X3.6157 Y0.6392 I-0.2526 J0.5238
G3 X3.6766 Y0.7441 I-0.0991 J0.1277
G2 X3.6821 Y0.7174 I-0.0613 J-0.0264
G3 Y0.7169 I0.0812 J-0.0004
G2 X3.679 Y0.6912 I-0.1103 J-0.0001
G2 X3.6697 Y0.6721 I-0.0756 J0.0254
G2 X3.6431 Y0.6458 I-0.1268 J0.1013
G2 X3.5892 Y0.6128 I-0.211 J0.2842
G3 X3.5881 Y0.6122 I0.0361 J-0.0728
G3 X3.528 Y0.5785 I0.4314 J-0.8395
G3 X3.4669 Y0.5338 I0.1792 J-0.3084
G3 X3.4159 Y0.4734 I0.1601 J-0.1871
G3 X3.4156 Y0.4729 I0.0697 J-0.0418
G3 X3.3928 Y0.406 I0.1504 J-0.0888
G1 X3.3927
G2 X3.3853 Y0.4393 I0.0706 J0.0333
G3 Y0.4407 I-0.0812 J-0.0001
G2 X3.3925 Y0.4775 I0.0881 J0.0016
G2 X3.4148 Y0.5091 I0.101 J-0.0474
G3 X3.4156 Y0.5099 I-0.0574 J0.0575
G2 X3.4544 Y0.5411 I0.1468 J-0.1431
G3 X3.4555 Y0.5417 I-0.0428 J0.0691
G2 X3.4897 Y0.5622 I0.3489 J-0.544
G1 F10.0 X3.4775 Y0.5841
G2 F30.0 X3.4976 Y0.5949 I0.3268 J-0.5864
G3 X3.6003 Y0.6589 I-0.2414 J0.5015
G3 X3.6532 Y0.764 I-0.0837 J0.108
G3 X3.6443 Y0.8179 I-0.1333 J0.0055
G2 X3.6894 Y0.7719 I-0.1254 J-0.1681
G3 X3.6896 Y0.7716 I0.0457 J0.0328
G2 X3.7071 Y0.7173 I-0.0742 J-0.0539
G3 Y0.7169 I0.0562 J-0.0003
G2 X3.7031 Y0.6843 I-0.1353 J-0.0001
G2 X3.6898 Y0.6573 I-0.0997 J0.0322
G2 X3.6582 Y0.6259 I-0.147 J0.1161
G2 X3.6003 Y0.5904 I-0.2261 J0.3041
G3 X3.5995 Y0.59 I0.025 J-0.0504
G3 X3.5408 Y0.557 I0.42 J-0.8172
G3 X3.4835 Y0.515 I0.1664 J-0.2869
G3 X3.4374 Y0.4606 I0.1436 J-0.1683
G3 X3.4372 Y0.4602 I0.0482 J-0.029
G3 X3.4164 Y0.3843 I0.1288 J-0.0761
G3 X3.4271 Y0.3239 I0.1531 J-0.0041
G2 X3.4005 Y0.349 I0.1785 J0.2155
G2 X3.3704 Y0.3948 I0.1349 J0.1213
G3 X3.3701 Y0.3954 I-0.0511 J-0.0234
G2 X3.3603 Y0.4393 I0.0932 J0.044
G3 Y0.4403 I-0.0562 J0.0
G2 X3.3698 Y0.4878 I0.1131 J0.0021
G2 X3.3971 Y0.5268 I0.1238 J-0.0577
G3 X3.3977 Y0.5274 I-0.0397 J0.0398
G2 X3.4412 Y0.5623 I0.1647 J-0.1606
G3 X3.442 Y0.5628 I-0.0296 J0.0478
G2 X3.4775 Y0.5841 I0.3624 J-0.5651
G0 Z0.125
G0 X3.7758 Y0.3561
G1 F10.0 Z-0.015
G2 F30.0 X3.7975 Y0.3153 I-0.3156 J-0.194
G3 X3.7998 Y0.3109 I0.0512 J0.0233
G2 X3.8017 Y0.307 I-0.0347 J-0.0196
G2 X3.8005 Y0.3056 I-0.0335 J0.0262
G2 X3.7671 Y0.2785 I-0.1027 J0.0926
G2 X3.7062 Y0.2538 I-0.1402 J0.2587
G3 X3.706 I0.0152 J-0.0542
G2 X3.6631 Y0.2454 I-0.0729 J0.2579
G3 X3.7196 Y0.284 I-0.1083 J0.2189
G3 X3.7214 Y0.2857 I-0.038 J0.0415
G3 X3.7604 Y0.3321 I-0.2484 J0.2491
G3 X3.7618 Y0.334 I-0.046 J0.0324
G3 X3.7758 Y0.3561 I-1.6425 J1.0585
G1 F10.0 X3.7546 Y0.3694
G3 F30.0 X3.7656 Y0.3871 I-1.6354 J1.0231
G3 X3.7664 Y0.3886 I-0.0267 J0.0163
G2 X3.7744 Y0.403 I0.4946 J-0.2652
G2 X3.7966 Y0.3701 I-0.2401 J-0.186
G3 X3.797 Y0.3694 I0.027 J0.0158
G2 X3.8203 Y0.3256 I-0.3367 J-0.2074
G3 X3.8215 Y0.3232 I0.0285 J0.0129
G2 X3.8287 Y0.304 I-0.0565 J-0.0319
G2 X3.8274 Y0.3009 I-0.011 J0.0026
G3 X3.8272 Y0.3004 I0.027 J-0.0157
G2 X3.8192 Y0.289 I-0.059 J0.0328
G2 X3.7793 Y0.2567 I-0.1214 J0.1091
G2 X3.7129 Y0.2298 I-0.1524 J0.2805
G1 X3.7128 Y0.2297
G2 X3.6308 Y0.2187 I-0.0797 J0.282
G2 X3.5681 Y0.2269 I0.0027 J0.2655
G3 X3.5672 Y0.2271 I-0.0077 J-0.0303
G2 X3.5 Y0.2495 I0.0783 J0.3471
G2 X3.4356 Y0.2863 I0.1724 J0.3764
G3 X3.4352 Y0.2866 I-0.0179 J-0.0256
G2 X3.382 Y0.3322 I0.1704 J0.2528
G2 X3.3477 Y0.3844 I0.1533 J0.1382
G3 X3.3475 Y0.3847 I-0.0284 J-0.013
G2 X3.3353 Y0.4393 I0.1158 J0.0547
G3 Y0.4398 I-0.0312 J0.0
G2 X3.347 Y0.4981 I0.1381 J0.0025
G2 X3.3795 Y0.5445 I0.1466 J-0.068
G3 X3.3798 Y0.5448 I-0.0221 J0.0221
G2 X3.4281 Y0.5836 I0.1826 J-0.178
G3 X3.4285 Y0.5838 I-0.0165 J0.0266
G2 X3.4865 Y0.6172 I0.3759 J-0.5861
G3 X3.5849 Y0.6786 I-0.2303 J0.4791
G3 X3.6282 Y0.7648 I-0.0683 J0.0883
G3 X3.5971 Y0.8457 I-0.1083 J0.0048
G3 X3.5967 Y0.8461 I-0.0223 J-0.0219
G3 X3.5532 Y0.8714 I-0.0715 J-0.073
G3 X3.5099 Y0.8771 I-0.0415 J-0.1459
G3 X3.4423 Y0.8553 I-0.0006 J-0.1138
G3 X3.3972 Y0.8169 I0.1766 J-0.2532
G3 X3.3626 Y0.7815 I0.4981 J-0.5212
G3 X3.3617 Y0.7806 I0.0231 J-0.0211
G2 X3.3593 Y0.7784 I-0.0098 J0.0083
G2 X3.3587 Y0.779 I0.0079 J0.0094
G3 X3.3578 Y0.7798 I-0.0218 J-0.0224
G2 X3.3303 Y0.8073 I0.256 J0.2835
G3 X3.3297 Y0.8079 I-0.0232 J-0.0209
G2 X3.299 Y0.8437 I0.3341 J0.3184
G3 X3.2984 Y0.8443 I-0.0247 J-0.0191
G2 X3.2965 Y0.8467 I0.7752 J0.6344
G3 X3.3052 Y0.8508 I-0.087 J0.1931
G3 X3.3053 Y0.8509 I-0.0141 J0.0279
G2 X3.3521 Y0.8728 I0.3279 J-0.6387
G3 X3.353 Y0.8732 I-0.0122 J0.0288
G2 X3.4062 Y0.8938 I0.1826 J-0.3928
G2 X3.4691 Y0.9024 I0.0595 J-0.2019
G3 X3.4692 I0.0005 J0.0312
G2 X3.5592 Y0.8878 I-0.0032 J-0.3056
G3 X3.5596 Y0.8877 I0.0095 J0.0298
G2 X3.6468 Y0.8466 I-0.0974 J-0.3193
G3 X3.6471 Y0.8464 I0.0173 J0.026
G2 X3.7097 Y0.7865 I-0.1282 J-0.1967
G3 X3.7098 Y0.7863 I0.0254 J0.0182
G2 X3.7321 Y0.7171 I-0.0944 J-0.0686
G3 Y0.7169 I0.0312 J-0.0002
G2 X3.7271 Y0.6774 I-0.1603 J-0.0001
G2 X3.7099 Y0.6425 I-0.1237 J0.0391
G2 X3.6734 Y0.606 I-0.1671 J0.131
G2 X3.6113 Y0.568 I-0.2413 J0.3239
G3 X3.6109 Y0.5677 I0.0139 J-0.028
G3 X3.5536 Y0.5355 I0.4085 J-0.795
G3 X3.5 Y0.4963 I0.1536 J-0.2654
G3 X3.4588 Y0.4477 I0.127 J-0.1496
G3 X3.4587 Y0.4475 I0.0268 J-0.0161
G3 X3.4414 Y0.384 I0.1073 J-0.0634
G3 X3.4797 Y0.2888 I0.1281 J-0.0038
G3 X3.4802 Y0.2883 I0.0219 J0.0223
G3 X3.5294 Y0.2597 I0.0862 J0.0917
G3 X3.5296 I0.0092 J0.0299
G3 X3.5809 Y0.2523 I0.0496 J0.1641
G3 X3.6514 Y0.2675 I0.0023 J0.1611
G3 X3.652 Y0.2678 I-0.0132 J0.0283
G3 X3.7028 Y0.3025 I-0.0972 J0.1965
G3 X3.7037 Y0.3034 I-0.0211 J0.0231
G3 X3.74 Y0.3465 I-0.2307 J0.2314
G3 X3.7407 Y0.3475 I-0.0255 J0.018
G3 X3.7546 Y0.3694 I-1.6215 J1.045
G0 Z0.125
G0 X4.0605 Y0.2915
G1 F10.0 Z-0.015
G3 F30.0 X4.0678 Y0.3043 I-0.083 J0.0559
G3 X4.0719 Y0.3147 I-0.0733 J0.035
G3 X4.0803 Y0.3763 I-0.1724 J0.0547
G3 X4.0741 Y0.4462 I-0.5781 J-0.0154
G3 X4.06 Y0.5358 I-2.2064 J-0.3026
G3 X4.0424 Y0.6352 I-19.6907 J-3.4326
G3 X4.0422 Y0.6361 I-0.08 J-0.0144
G2 X4.0241 Y0.7342 I7.6996 J1.4722
G2 X4.0109 Y0.8182 I2.309 J0.4076
G3 X4.0108 Y0.8188 I-0.0805 J-0.0112
G2 X4.0081 Y0.8403 I0.4303 J0.0634
G2 X4.0537 Y0.8247 I-0.2922 J-0.9232
G3 X4.0442 Y0.7946 I0.108 J-0.0505
G3 X4.0407 Y0.7511 I0.2106 J-0.039
G3 Y0.7502 I0.0812 J0.0017
G3 X4.047 Y0.6853 I0.5038 J0.0159
G3 X4.0601 Y0.6028 I4.8974 J0.7361
G3 Y0.6026 I0.0801 J0.0134
G3 X4.077 Y0.5063 I8.3369 J1.4177
G1 X4.0771
G2 X4.0936 Y0.4108 I-5.3797 J-0.9811
G1 Y0.4107
G2 X4.1063 Y0.3274 I-3.1965 J-0.5278
G3 X4.1064 Y0.3265 I0.0805 J0.0111
G2 X4.1109 Y0.2748 I-0.4106 J-0.0615
G3 Y0.2726 I0.0812 J0.0019
G2 Y0.2724 I-0.0271 J-0.0014
G2 X4.1067 Y0.2738 I0.0256 J0.084
G3 X4.1047 Y0.2745 I-0.0276 J-0.0764
G2 X4.0605 Y0.2915 I0.1556 J0.4697
G1 F10.0 X4.0504 Y0.2687
G2 F30.0 X4.0385 Y0.2741 I0.2099 J0.4756
G2 X4.018 Y0.2842 I0.5902 J1.2292
G3 X4.0452 Y0.3151 I-0.0405 J0.0632
G3 X4.0481 Y0.3223 I-0.0508 J0.0242
G3 X4.0553 Y0.3755 I-0.1486 J0.0471
G3 X4.0494 Y0.4426 I-0.5531 J-0.0146
G3 X4.0354 Y0.5314 I-2.1816 J-0.2991
G3 X4.0178 Y0.6308 I-19.6661 J-3.4282
G3 X4.0177 Y0.6314 I-0.0554 J-0.0099
G2 X3.9995 Y0.7298 I7.7242 J1.4769
G2 X3.9861 Y0.8147 I2.3336 J0.412
G3 X3.986 Y0.8152 I-0.0557 J-0.0078
G2 X3.9813 Y0.8698 I0.455 J0.0671
G2 X3.9814 Y0.8744 I0.0821 J0.0005
G2 X3.9971 Y0.8699 I-0.0275 J-0.1269
G3 X3.9998 Y0.869 I0.0187 J0.053
G2 X4.0661 Y0.8467 I-0.2838 J-0.9519
G2 X4.0916 Y0.8368 I-0.9866 J-2.5902
G3 X4.0839 Y0.8274 I0.0526 J-0.0509
G3 X4.0838 Y0.8272 I0.0464 J-0.0318
G3 X4.0688 Y0.7901 I0.0778 J-0.0531
G3 X4.0656 Y0.7516 I0.186 J-0.0346
G3 X4.0657 Y0.751 I0.0562 J0.0012
G3 X4.0717 Y0.6892 I0.4788 J0.0151
G3 X4.0847 Y0.6069 I4.8727 J0.7322
G3 Y0.6068 I0.0555 J0.0093
G3 X4.1016 Y0.5108 I8.3122 J1.4135
G2 X4.1183 Y0.4149 I-5.4043 J-0.9856
G1 Y0.4148
G2 X4.131 Y0.3308 I-3.2212 J-0.5319
G3 X4.1311 Y0.3302 I0.0557 J0.0077
G2 X4.1358 Y0.2754 I-0.4353 J-0.0652
G3 X4.1359 Y0.2739 I0.0562 J0.0013
G2 X4.1282 Y0.2439 I-0.0521 J-0.0026
G2 X4.0983 Y0.2503 I0.0083 J0.1126
G3 X4.0968 Y0.2508 I-0.0191 J-0.0529
G2 X4.0504 Y0.2687 I0.1634 J0.4935
G1 F10.0 X4.0403 Y0.2458
G2 F30.0 X4.0277 Y0.2515 I0.22 J0.4984
G2 X3.957 Y0.2881 I0.6009 J1.2518
G1 X3.9569
G2 X3.9295 Y0.3034 I1.1882 J2.1578
G3 X3.9503 Y0.2992 I0.0481 J0.1853
G3 X3.9754 Y0.2974 I0.0252 J0.1704
G3 X4.0227 Y0.3258 I0.0021 J0.05
G3 X4.0243 Y0.3298 I-0.0282 J0.0135
G3 X4.0303 Y0.3747 I-0.1247 J0.0396
G3 X4.0246 Y0.4391 I-0.5281 J-0.0138
G3 X4.0108 Y0.5271 I-2.1569 J-0.2955
G3 X3.9932 Y0.6263 I-19.6414 J-3.4239
G3 X3.9931 Y0.6267 I-0.0308 J-0.0055
G2 X3.9749 Y0.7255 I7.7487 J1.4816
G2 X3.9613 Y0.8113 I2.3583 J0.4163
G3 Y0.8115 I-0.031 J-0.0043
G2 X3.9563 Y0.8693 I0.4797 J0.0707
G2 X3.958 Y0.8891 I0.1071 J0.0009
G3 X3.9581 Y0.8898 I-0.0308 J0.0055
G2 X3.9618 Y0.899 I0.0211 J-0.0032
G2 X3.968 Y0.9017 I0.0061 J-0.0055
G2 X4.0054 Y0.8935 I-0.0141 J-0.1542
G3 X4.0069 Y0.893 I0.0104 J0.0295
G2 X4.075 Y0.8701 I-0.2909 J-0.9759
G2 X4.1526 Y0.8392 I-0.9954 J-2.6136
G1 X4.1527 Y0.8391
G2 X4.1646 Y0.8342 I-0.9542 J-2.3094
G3 X4.1551 Y0.8351 I-0.0168 J-0.1188
G3 X4.1533 Y0.8352 I-0.0019 J-0.0312
G3 X4.1328 Y0.8328 I-0.0005 J-0.0847
G1 X4.1327 Y0.8327
G3 X4.1045 Y0.8132 I0.0115 J-0.0468
G1 Y0.8131
G3 X4.0934 Y0.7857 I0.0572 J-0.039
G3 X4.0906 Y0.7522 I0.1614 J-0.0302
G3 X4.0907 Y0.7518 I0.0312 J0.0006
G3 X4.0964 Y0.693 I0.4538 J0.0143
G3 X4.1094 Y0.6111 I4.848 J0.7283
G1 Y0.611
G3 X4.1262 Y0.5153 I8.2876 J1.4093
G2 X4.1429 Y0.4189 I-5.4289 J-0.9901
G2 X4.1558 Y0.3342 I-3.2458 J-0.536
G3 Y0.3339 I0.031 J0.0043
G2 X4.1608 Y0.276 I-0.46 J-0.0689
G3 X4.1609 Y0.2751 I0.0312 J0.0007
G2 X4.1484 Y0.229 I-0.0771 J-0.0039
G2 X4.1304 Y0.2187 I-0.0192 J0.0126
G2 X4.0898 Y0.2268 I0.0061 J0.1377
G3 X4.089 Y0.2271 I-0.0106 J-0.0294
G2 X4.0403 Y0.2458 I0.1713 J0.5172
G0 Z0.125
G0 X4.3644 Y0.8147
G1 F10.0 Z-0.015
G2 F30.0 X4.3638 Y0.8157 I0.3467 J0.2024
G3 X4.3624 Y0.8181 I-0.0703 J-0.0408
G2 X4.3503 Y0.8375 I2.4927 J1.5621
G3 X4.3505 Y0.8376 I-0.0423 J0.0694
G2 X4.3763 Y0.8514 I0.1275 J-0.208
G3 X4.3764 I-0.0339 J0.0739
G2 X4.3966 Y0.8475 I-0.0056 J-0.082
G2 X4.4102 Y0.8415 I-0.0286 J-0.0836
G3 X4.3697 Y0.8191 I0.0359 J-0.1126
G3 X4.3644 Y0.8147 I0.2275 J-0.2805
G1 F10.0 X4.3805 Y0.7956
G3 F30.0 X4.3605 Y0.7772 I0.2167 J-0.257
G2 X4.3592 Y0.7762 I-0.1643 J0.1902
G2 X4.3422 Y0.8032 I0.3519 J0.2409
G3 X4.3412 Y0.8048 I-0.0487 J-0.0282
G2 X4.3198 Y0.8395 I2.5139 J1.5754
G3 X4.3159 Y0.8461 I-1.02 J-0.5939
G2 X4.3364 Y0.8583 I0.6798 J-1.1188
G3 X4.3374 Y0.859 I-0.0283 J0.0486
G2 X4.3658 Y0.8741 I0.1405 J-0.2293
G3 X4.3679 Y0.8751 I-0.0235 J0.0511
G2 X4.3731 Y0.8766 I0.0064 J-0.0125
G2 X4.4045 Y0.8712 I-0.0023 J-0.1072
G2 X4.4401 Y0.8513 I-0.0366 J-0.1073
G3 X4.4409 Y0.8507 I0.0358 J0.0434
G2 X4.4778 Y0.8162 I-0.2006 J-0.2519
G3 X4.4496 Y0.8218 I-0.04 J-0.127
G3 X4.4423 Y0.822 I-0.005 J-0.056
G3 X4.3857 Y0.7998 I0.0038 J-0.0931
G3 X4.3805 Y0.7956 I0.2116 J-0.2613
G0 Z0.125
G0 X4.6748 Y0.825
G1 F10.0 Z-0.015
G2 F30.0 X4.6738 Y0.8375 I0.3504 J0.0351
G2 X4.7121 Y0.8243 I-0.3325 J-1.0272
G3 X4.7031 Y0.7972 I0.1017 J-0.0489
G3 X4.6983 Y0.751 I0.1771 J-0.0417
G3 X4.7049 Y0.6514 I1.0418 J0.0189
G3 X4.7229 Y0.519 I2.6167 J0.2885
G3 X4.7484 Y0.3646 I5.2786 J0.7919
G3 X4.7583 Y0.3107 I6.4777 J1.1616
G3 X4.7377 Y0.3197 I-0.8822 J-1.985
G3 X4.7293 Y0.4033 I-0.7165 J-0.0301
G3 X4.7292 Y0.4038 I-0.0802 J-0.0129
G3 X4.7007 Y0.5327 I-1.2321 J-0.2053
G3 X4.7005 Y0.5334 I-0.0783 J-0.0217
G3 X4.6578 Y0.6469 I-0.7312 J-0.2101
G3 X4.6479 Y0.6671 I-0.5646 J-0.2632
G3 X4.6851 Y0.7486 I-0.0431 J0.0689
G2 X4.6808 Y0.7785 I1.1364 J0.1776
G3 X4.6762 Y0.8134 I-3.5907 J-0.4609
G2 X4.6748 Y0.825 I0.3491 J0.0467
G1 F10.0 X4.6499 Y0.8225
G2 F30.0 X4.6488 Y0.8371 I0.3753 J0.0376
G3 X4.6485 Y0.8401 I-0.0561 J-0.0034
G2 X4.6473 Y0.8573 I0.1825 J0.021
G2 X4.6476 Y0.8719 I0.3243 J0.0024
G2 X4.6544 Y0.8698 I-0.0393 J-0.1357
G3 X4.6567 Y0.869 I0.0183 J0.0532
G2 X4.7241 Y0.8466 I-0.3154 J-1.0587
G2 X4.7505 Y0.8365 I-0.9784 J-2.6214
G3 X4.7447 Y0.8296 I0.0529 J-0.0506
G3 X4.7275 Y0.7919 I0.0691 J-0.0542
G3 X4.7233 Y0.7516 I0.1526 J-0.0364
G3 X4.7297 Y0.6542 I1.0168 J0.0184
G3 X4.7476 Y0.5229 I2.5919 J0.2858
G3 X4.773 Y0.369 I5.2539 J0.788
G3 X4.7919 Y0.268 I6.4531 J1.1572
G2 X4.7694 Y0.2783 I3.8237 J8.4055
G3 X4.7168 Y0.3015 I-0.8932 J-1.9525
G3 X4.7132 Y0.3031 I-1.438 J-3.1539
G3 X4.7046 Y0.3993 I-0.692 J-0.0135
G3 Y0.3997 I-0.0555 J-0.0089
G3 X4.6766 Y0.526 I-1.2074 J-0.2012
G3 X4.6764 Y0.5265 I-0.0542 J-0.0151
G3 X4.6352 Y0.6363 I-0.7072 J-0.2032
G3 X4.6124 Y0.6803 I-0.542 J-0.2526
G3 X4.6604 Y0.7447 I-0.0076 J0.0557
G2 X4.656 Y0.7753 I1.1611 J0.1815
G3 X4.6514 Y0.81 I-3.5659 J-0.4577
G2 X4.6499 Y0.8225 I0.3738 J0.0501
G1 F10.0 X4.6251 Y0.82
G2 F30.0 X4.6238 Y0.8356 I0.4002 J0.0401
G3 X4.6237 Y0.8372 I-0.0312 J-0.0019
G2 X4.6223 Y0.857 I0.2073 J0.0238
G2 X4.6237 Y0.8911 I0.3493 J0.0028
G3 X4.6238 Y0.8917 I-0.0311 J0.0028
G2 X4.6261 Y0.9015 I0.032 J-0.0023
G2 X4.6625 Y0.8934 I-0.0178 J-0.1653
G3 X4.6638 Y0.893 I0.0102 J0.0295
G2 X4.7328 Y0.87 I-0.3225 J-1.0826
G2 X4.812 Y0.8391 I-0.9871 J-2.6448
G1 X4.8121 Y0.839
G2 X4.8243 Y0.834 I-0.7864 J-1.9412
G3 X4.812 Y0.8352 I-0.0169 J-0.1185
G3 X4.811 I-0.0012 J-0.0312
G3 X4.7914 Y0.8326 I-0.0005 J-0.0728
G3 X4.7646 Y0.8145 I0.012 J-0.0467
G3 X4.752 Y0.7867 I0.0493 J-0.0391
G3 X4.7483 Y0.7521 I0.1282 J-0.0312
G3 X4.7546 Y0.657 I0.9918 J0.0178
G3 X4.7723 Y0.5267 I2.567 J0.283
G3 X4.7976 Y0.3734 I5.2292 J0.7842
G3 X4.8256 Y0.2272 I6.4285 J1.1528
G1 X4.8239 Y0.2256
G3 X4.8097 Y0.2325 I-0.289 J-0.5729
G3 X4.8092 Y0.2327 I-0.0134 J-0.0282
G2 X4.759 Y0.2556 I3.8064 J8.4407
G3 X4.7067 Y0.2786 I-0.8828 J-1.9298
G3 X4.6884 Y0.2869 I-1.428 J-3.131
G3 X4.6799 Y0.3954 I-0.6671 J0.0027
G3 Y0.3955 I-0.0309 J-0.005
G3 X4.6525 Y0.5193 I-1.1828 J-0.1971
G3 X4.6524 Y0.5196 I-0.0301 J-0.0084
G3 X4.6125 Y0.6257 I-0.6831 J-0.1963
G3 X4.5634 Y0.711 I-0.5193 J-0.242
G3 X4.5091 Y0.7705 I-0.238 J-0.1628
G3 X4.4474 Y0.7969 I-0.0713 J-0.0814
G3 X4.4433 Y0.797 I-0.0028 J-0.0311
G3 X4.4017 Y0.7806 I0.0028 J-0.0682
G3 X4.3775 Y0.7589 I0.1956 J-0.242
G2 X4.3556 Y0.7417 I-0.1813 J0.2085
G3 X4.3551 Y0.7413 I0.018 J-0.0255
G2 X4.3538 Y0.7405 I-0.0093 J0.0126
G2 X4.3413 Y0.7582 I0.1775 J0.1391
G3 X4.3406 Y0.7592 I-0.0263 J-0.0168
G2 X4.3206 Y0.7906 I0.3706 J0.2579
G3 X4.32 Y0.7915 I-0.027 J-0.0157
G2 X4.2983 Y0.8268 I2.5351 J1.5887
G3 X4.2816 Y0.8546 I-0.9985 J-0.5811
G3 X4.2873 Y0.8579 I-0.1538 J0.2737
G3 X4.288 Y0.8583 I-0.0159 J0.0269
G2 X4.3238 Y0.8799 I0.7077 J-1.1309
G3 X4.3244 Y0.8803 I-0.0157 J0.027
G2 X4.3554 Y0.8968 I0.1536 J-0.2506
G3 X4.3566 Y0.8974 I-0.013 J0.0284
G2 X4.3725 Y0.9016 I0.0177 J-0.0348
G2 X4.4125 Y0.8949 I-0.0018 J-0.1322
G2 X4.456 Y0.8706 I-0.0445 J-0.131
G3 X4.4564 Y0.8703 I0.0199 J0.0241
G2 X4.5117 Y0.815 I-0.2162 J-0.2715
G3 X4.5119 Y0.8147 I0.0244 J0.0195
G2 X4.578 Y0.7201 I-0.6086 J-0.495
G3 X4.6357 Y0.7408 I0.0269 J0.0159
G2 X4.6312 Y0.7721 I1.1858 J0.1853
G3 X4.6266 Y0.8066 I-3.5411 J-0.4545
G2 X4.6251 Y0.82 I0.3986 J0.0535
G0 Z0.125
G0 X5.1123 Y0.8159
G1 F10.0 Z-0.015
G2 F30.0 X5.1129 Y0.8263 I0.1189 J-0.001
G2 X5.1189 Y0.8259 I-0.0107 J-0.1848
G3 X5.1135 Y0.8149 I0.1135 J-0.0636
G3 X5.1124 Y0.8124 I0.1761 J-0.0781
G2 X5.1123 Y0.8159 I0.1189 J0.0025
G1 F10.0 X5.0873 Y0.8161
G2 F30.0 X5.0918 Y0.8503 I0.1439 J-0.0012
G3 X5.0919 Y0.8508 I-0.0788 J0.02
G2 X5.1034 Y0.8516 I0.0106 J-0.0689
G3 X5.1039 I0.0011 J0.0812
G2 X5.1585 Y0.8439 I-0.0017 J-0.2101
G3 X5.1586 I0.0218 J0.0783
G2 X5.1643 Y0.8423 I-0.0938 J-0.3395
G3 X5.1363 Y0.8048 I0.0682 J-0.0801
G3 X5.1231 Y0.7566 I0.1533 J-0.068
G3 X5.1202 Y0.706 I0.363 J-0.0461
G3 Y0.7044 I0.0812 J0.001
G3 X5.1255 Y0.644 I0.5543 J0.0183
G3 X5.1372 Y0.5638 I3.1001 J0.4107
G1 Y0.5637
G3 X5.1518 Y0.4736 I50.142 J8.0275
G3 X5.1663 Y0.3841 I33.7395 J5.4332
G2 X5.1775 Y0.3111 I-3.1433 J-0.5184
G3 X5.1776 Y0.3098 I0.0805 J0.0114
G2 X5.1813 Y0.2745 I-0.3184 J-0.0503
G3 X5.1784 Y0.2755 I-0.0279 J-0.0763
G2 X5.1306 Y0.2933 I0.1725 J0.5338
G3 X5.1325 Y0.2964 I-0.068 J0.0444
G3 X5.149 Y0.3458 I-0.1066 J0.0631
G3 X5.1507 Y0.3743 I-0.2128 J0.0268
G3 Y0.3752 I-0.0812 J-0.0006
G3 X5.1453 Y0.4394 I-0.4974 J-0.0094
G3 X5.1335 Y0.515 I-2.1227 J-0.2932
G3 X5.1332 Y0.5164 I-0.08 J-0.014
G2 X5.1182 Y0.5977 I6.0097 J1.155
G3 X5.1179 Y0.5989 I-0.08 J-0.0143
G2 X5.1031 Y0.6815 I3.2116 J0.6213
G3 X5.1028 Y0.6828 I-0.0801 J-0.0134
G2 X5.0913 Y0.757 I1.3435 J0.2467
G3 Y0.7574 I-0.0806 J-0.0103
G2 X5.0874 Y0.811 I0.4421 J0.0589
G3 Y0.8118 I-0.0812 J-0.001
G2 X5.0873 Y0.8161 I0.1439 J0.0031
G1 F10.0 X5.0623 Y0.8163
G2 F30.0 X5.0675 Y0.8565 I0.1689 J-0.0014
G3 X5.068 Y0.8585 I-0.0545 J0.0138
G2 X5.0738 Y0.8715 I0.0333 J-0.0071
G2 X5.0769 Y0.8731 I0.005 J-0.0058
G3 X5.0774 Y0.8733 I-0.0143 J0.0544
G2 X5.1038 Y0.8766 I0.025 J-0.0914
G3 X5.1041 I0.0008 J0.0562
G2 X5.1652 Y0.868 I-0.0019 J-0.2351
G2 X5.2275 Y0.8448 I-0.1004 J-0.3636
G2 X5.2296 Y0.8437 I-0.1853 J-0.3849
G3 X5.1984 Y0.8348 I0.009 J-0.0902
G3 X5.1592 Y0.7947 I0.034 J-0.0726
G3 X5.1479 Y0.7535 I0.1304 J-0.0579
G3 X5.1452 Y0.7063 I0.3382 J-0.043
G3 Y0.7052 I0.0562 J0.0007
G3 X5.1503 Y0.6475 I0.5293 J0.0175
G3 X5.1619 Y0.5677 I3.0753 J0.4073
G3 X5.1764 Y0.4776 I50.1173 J8.0235
G3 X5.1909 Y0.3882 I33.7148 J5.4292
G1 X5.191 Y0.3881
G2 X5.2022 Y0.3146 I-3.168 J-0.5225
G3 X5.2023 Y0.3137 I0.0557 J0.0079
G2 X5.2063 Y0.2743 I-0.3431 J-0.0542
G3 Y0.2739 I0.0562 J0.0024
G2 X5.1989 Y0.2444 I-0.0521 J-0.0026
G2 X5.1734 Y0.2507 I0.0134 J0.1086
G3 X5.1707 Y0.2517 I-0.02 J-0.0526
G2 X5.1096 Y0.2753 I0.1802 J0.5576
G2 X5.0878 Y0.2856 I0.5137 J1.1163
G3 X5.1067 Y0.3029 I-0.0442 J0.0673
G3 X5.111 Y0.3091 I-0.0441 J0.0349
G3 X5.1242 Y0.3487 I-0.0851 J0.0504
G3 X5.1257 Y0.3741 I-0.188 J0.0239
G3 Y0.3747 I-0.0562 J-0.0004
G3 X5.1206 Y0.4358 I-0.4724 J-0.009
G3 X5.1088 Y0.5107 I-2.098 J-0.2896
G3 X5.1087 Y0.5117 I-0.0554 J-0.0097
G2 X5.0936 Y0.5933 I6.0343 J1.1597
G3 X5.0934 Y0.5941 I-0.0554 J-0.0099
G2 X5.0784 Y0.6774 I3.2362 J0.6261
G3 X5.0782 Y0.6783 I-0.0555 J-0.0093
G2 X5.0665 Y0.7538 I1.3681 J0.2512
G3 Y0.7541 I-0.0558 J-0.0071
G2 X5.0624 Y0.8107 I0.4668 J0.0622
G3 Y0.8112 I-0.0562 J-0.0007
G2 X5.0623 Y0.8163 I0.1689 J0.0037
G0 Z0.125
G0 X5.4704 Y0.7069
G1 F10.0 Z-0.015
G3 F30.0 X5.4998 Y0.7835 I-0.0508 J0.0634
G2 X5.4886 Y0.8555 I4.6064 J0.7566
G3 X5.4884 Y0.8567 I-0.0804 J-0.0119
G2 X5.4725 Y0.9568 I13.4043 J2.1838
G3 X5.4723 Y0.9576 I-0.0803 J-0.0125
G2 X5.455 Y1.0688 I5.1676 J0.86
G1 Y1.0689
G2 X5.4399 Y1.1772 I11.0316 J1.5981
G3 X5.4397 Y1.1784 I-0.0805 J-0.0109
G2 X5.4288 Y1.266 I1.7894 J0.2682
G3 X5.4285 Y1.2681 I-0.0808 J-0.0081
G2 X5.4264 Y1.2881 I0.5216 J0.0664
G2 X5.4734 Y1.2727 I-0.2828 J-0.9421
G3 X5.4637 Y1.2443 I0.1011 J-0.0502
G3 X5.459 Y1.198 I0.1771 J-0.0417
G3 X5.464 Y1.1204 I0.906 J0.0195
G3 X5.4772 Y1.0114 I3.0274 J0.3121
G3 X5.4956 Y0.8778 I5.8354 J0.7369
G3 X5.5179 Y0.7288 I7.1601 J0.9942
G3 X5.5416 Y0.5767 I19.0056 J2.8829
G3 X5.5653 Y0.4307 I40.9305 J6.5682
G3 Y0.4305 I0.0802 J0.0132
G3 X5.5859 Y0.3076 I32.5194 J5.3867
G3 X5.5613 Y0.3185 I-4.0476 J-9.1415
G3 X5.5602 Y0.334 I-1.8254 J-0.1219
G3 X5.5601 Y0.3343 I-0.081 J-0.0061
G3 X5.5543 Y0.3883 I-0.984 J-0.0786
G3 X5.5434 Y0.4611 I-2.4353 J-0.3291
G3 X5.5167 Y0.5912 I-1.2534 J-0.1892
G3 X5.4732 Y0.7021 I-0.4414 J-0.1092
G3 X5.4728 Y0.7028 I-0.0711 J-0.0393
G3 X5.4704 Y0.7069 I-0.3153 J-0.1782
G1 F10.0 X5.4548 Y0.7264
G3 F30.0 X5.4752 Y0.7795 I-0.0352 J0.0439
G2 X5.4638 Y0.8518 I4.6311 J0.7607
G3 X5.4637 Y0.8526 I-0.0556 J-0.0082
G2 X5.4478 Y0.9529 I13.429 J2.1878
G3 X5.4477 Y0.9535 I-0.0556 J-0.0086
G2 X5.4303 Y1.0653 I5.1922 J0.8641
G2 X5.4151 Y1.1738 I11.0564 J1.6017
G3 X5.415 Y1.1747 I-0.0557 J-0.0075
G2 X5.4039 Y1.2635 I1.8141 J0.2719
G3 X5.4037 Y1.265 I-0.056 J-0.0056
G2 X5.3996 Y1.317 I0.5464 J0.0696
G2 X5.3997 Y1.321 I0.0588 J0.0004
G2 X5.4231 Y1.3152 I-0.0241 J-0.1469
G3 X5.4253 Y1.3145 I0.0179 J0.0533
G2 X5.4931 Y1.2921 I-0.2817 J-0.9685
G2 X5.5124 Y1.2849 I-0.9784 J-2.6214
G3 X5.5053 Y1.2767 I0.0517 J-0.0518
G3 X5.4882 Y1.239 I0.0691 J-0.0542
G3 X5.484 Y1.1985 I0.1526 J-0.0364
G3 X5.4888 Y1.123 I0.881 J0.0189
G3 X5.502 Y1.0147 I3.0026 J0.3095
G3 X5.5204 Y0.8813 I5.8106 J0.7336
G3 X5.5426 Y0.7327 I7.1354 J0.9907
G3 X5.5663 Y0.5807 I18.9809 J2.8791
G1 Y0.5806
G3 X5.59 Y0.4347 I40.9058 J6.5643
G1 Y0.4346
G3 X5.6114 Y0.307 I32.4948 J5.3826
G2 X5.6183 Y0.2659 I-27.3884 J-4.6509
G2 X5.5897 Y0.2785 I3.8829 J8.8087
G3 X5.5381 Y0.3013 I-4.0514 J-9.1125
G2 X5.5373 Y0.3017 I0.3423 J0.7395
G3 X5.5352 Y0.3321 I-1.8014 J-0.1052
G3 Y0.3323 I-0.0561 J-0.0042
G3 X5.5296 Y0.385 I-0.959 J-0.0766
G3 X5.5187 Y0.4572 I-2.4106 J-0.3258
G3 X5.4925 Y0.5851 I-1.2287 J-0.1853
G3 X5.4513 Y0.69 I-0.4172 J-0.1031
G3 X5.4511 Y0.6905 I-0.0492 J-0.0272
G3 X5.4349 Y0.7162 I-0.2935 J-0.1659
G3 X5.4548 Y0.7264 I-0.0153 J0.0541
G1 F10.0 X5.4392 Y0.746
G3 F30.0 X5.4505 Y0.7754 I-0.0195 J0.0244
G2 X5.4391 Y0.8482 I4.6558 J0.7647
G3 X5.439 Y0.8486 I-0.0309 J-0.0046
G2 X5.4231 Y0.9491 I13.4536 J2.1919
G3 X5.423 Y0.9494 I-0.0309 J-0.0048
G2 X5.4056 Y1.0617 I5.2169 J0.8682
G2 X5.3903 Y1.1705 I11.0811 J1.6053
G3 Y1.171 I-0.031 J-0.0042
G2 X5.379 Y1.261 I1.8389 J0.2756
G3 X5.3789 Y1.2618 I-0.0311 J-0.0031
G2 X5.3746 Y1.3165 I0.5712 J0.0728
G2 X5.3765 Y1.3351 I0.0838 J0.0009
G3 X5.3766 Y1.3358 I-0.0305 J0.0066
G2 X5.3799 Y1.3425 I0.014 J-0.0027
G2 X5.3921 Y1.3472 I0.0125 J-0.0142
G2 X5.431 Y1.3389 I-0.0165 J-0.1731
G3 X5.4323 Y1.3385 I0.01 J0.0296
G2 X5.5018 Y1.3156 I-0.2887 J-0.9925
G2 X5.581 Y1.2846 I-0.9871 J-2.6448
G3 X5.5816 Y1.2844 I0.0118 J0.0289
G2 X5.5961 Y1.2787 I-0.5293 J-1.3712
G3 X5.5732 Y1.2822 I-0.0297 J-0.1177
G3 X5.5717 Y1.2823 I-0.0017 J-0.0312
G3 X5.552 Y1.2797 I-0.0005 J-0.0728
G3 X5.5252 Y1.2615 I0.012 J-0.0467
G3 X5.5126 Y1.2338 I0.0493 J-0.0391
G3 X5.509 Y1.1991 I0.1282 J-0.0312
G3 X5.5137 Y1.1257 I0.856 J0.0183
G3 X5.5268 Y1.018 I2.9777 J0.3069
G3 X5.5451 Y0.8849 I5.7859 J0.7303
G3 X5.5673 Y0.7365 I7.1106 J0.9871
G3 X5.591 Y0.5846 I18.9562 J2.8752
G3 X5.6146 Y0.4388 I40.8811 J6.5603
G1 Y0.4387
G3 X5.636 Y0.3112 I32.4701 J5.3785
G2 X5.65 Y0.2279 I-27.4131 J-4.655
G1 X5.6472 Y0.2253
G3 X5.6318 Y0.2327 I-0.2517 J-0.5096
G3 X5.6313 Y0.2329 I-0.013 J-0.0284
G2 X5.5796 Y0.2557 I3.8699 J8.8417
G3 X5.5278 Y0.2785 I-4.0412 J-9.0896
G2 X5.5127 Y0.2857 I0.3525 J0.7623
G3 Y0.2928 I-0.4499 J0.0063
G3 X5.5126 Y0.2945 I-0.0312 J0.0
G3 X5.5103 Y0.3302 I-1.7768 J-0.0979
G3 Y0.3303 I-0.0312 J-0.0023
G3 X5.5048 Y0.3816 I-0.9341 J-0.0746
G3 X5.494 Y0.4533 I-2.3858 J-0.3224
G3 X5.4683 Y0.5789 I-1.2041 J-0.1814
G3 X5.4294 Y0.6779 I-0.3929 J-0.0969
G3 X5.4293 Y0.6782 I-0.0273 J-0.0151
G3 X5.3784 Y0.7451 I-0.2717 J-0.1536
G1 Y0.7452
G3 X5.3261 Y0.7874 I-0.2274 J-0.2284
G3 X5.2785 Y0.8112 I-0.1249 J-0.1903
G3 X5.2418 Y0.8191 I-0.0463 J-0.1256
G3 X5.2405 I-0.0022 J-0.0312
G3 X5.2093 Y0.8123 I-0.0019 J-0.0656
G3 X5.182 Y0.7845 I0.0232 J-0.05
G3 X5.1727 Y0.7505 I0.1076 J-0.0477
G3 X5.1702 Y0.7066 I0.3134 J-0.04
G3 Y0.706 I0.0312 J0.0004
G3 X5.1751 Y0.6509 I0.5044 J0.0166
G3 X5.1866 Y0.5717 I3.0506 J0.4039
G1 Y0.5716
G3 X5.2011 Y0.4816 I50.0926 J8.0195
G3 X5.2156 Y0.3922 I33.6901 J5.4252
G2 X5.227 Y0.3181 I-3.1927 J-0.5266
G3 Y0.3176 I0.0309 J0.0044
G2 X5.2313 Y0.2754 I-0.3678 J-0.0581
G3 Y0.2751 I0.0312 J0.0013
G2 X5.2188 Y0.229 I-0.0771 J-0.0039
G3 X5.2181 Y0.2278 I0.0262 J-0.0171
G2 X5.2045 Y0.2188 I-0.0162 J0.0096
G2 X5.1645 Y0.2274 I0.0078 J0.1342
G3 X5.163 Y0.2279 I-0.0111 J-0.0292
G2 X5.0992 Y0.2525 I0.1879 J0.5814
G2 X5.0264 Y0.289 I0.5241 J1.1391
G1 X5.0263
G2 X5.0009 Y0.3029 I1.1131 J2.0634
G3 X5.0414 Y0.2974 I0.0394 J0.1373
G3 X5.0871 Y0.3184 I0.0022 J0.0554
G3 X5.0895 Y0.3218 I-0.0245 J0.0194
G3 X5.0994 Y0.3516 I-0.0636 J0.0377
G3 X5.1007 Y0.3739 I-0.1632 J0.0209
G3 Y0.3742 I-0.0312 J-0.0002
G3 X5.0958 Y0.4323 I-0.4474 J-0.0085
G3 X5.0842 Y0.5064 I-2.0732 J-0.2861
G3 X5.0841 Y0.5069 I-0.0308 J-0.0054
G2 X5.0689 Y0.5889 I6.0588 J1.1644
G3 Y0.5894 I-0.0308 J-0.0055
G2 X5.0537 Y0.6733 I3.2607 J0.6308
G3 Y0.6738 I-0.0308 J-0.0051
G2 X5.0417 Y0.7507 I1.3927 J0.2557
G3 Y0.7508 I-0.031 J-0.0039
G2 X5.0374 Y0.8104 I0.4916 J0.0655
G3 Y0.8107 I-0.0312 J-0.0004
G2 X5.0433 Y0.8626 I0.1939 J0.0042
G3 X5.0436 Y0.8638 I-0.0303 J0.0077
G2 X5.055 Y0.8881 I0.0577 J-0.0124
G2 X5.0705 Y0.8973 I0.0238 J-0.0223
G3 X5.0708 Y0.8974 I-0.0079 J0.0302
G2 X5.1041 Y0.9016 I0.0316 J-0.1155
G3 X5.1043 I0.0004 J0.0312
G2 X5.1719 Y0.8921 I-0.0021 J-0.2601
G2 X5.2383 Y0.8673 I-0.1071 J-0.3877
G2 X5.3216 Y0.8153 I-0.1961 J-0.4074
G3 X5.3217 I0.0193 J0.0246
G2 X5.3975 Y0.7483 I-0.5015 J-0.6439
G3 X5.4392 Y0.746 I0.0221 J0.0221
G0 Z0.125
G0 X5.8219 Y1.0809
G1 F10.0 Z-0.015
G2 F30.0 X5.8171 Y1.0892 I0.4786 J0.2786
G3 X5.8157 Y1.0916 I-0.0709 J-0.0396
G2 X5.8138 Y1.0949 I0.5293 J0.3196
G2 X5.8348 Y1.1021 I0.0913 J-0.2312
G3 X5.8372 Y1.1029 I-0.023 J0.0779
G2 X5.8417 Y1.1043 I0.1161 J-0.3527
G3 X5.8219 Y1.0809 I0.1875 J-0.1787
G1 F10.0 X5.8419 Y1.0659
G3 F30.0 X5.832 Y1.0516 I0.1873 J-0.1403
G3 X5.8214 Y1.0351 I0.2758 J-0.1891
G2 X5.8151 Y1.0441 I0.7971 J0.5558
G2 X5.7953 Y1.077 I0.4853 J0.3153
G3 X5.7943 Y1.0787 I-0.0491 J-0.0274
G2 X5.7786 Y1.1063 I0.5507 J0.3325
G3 X5.779 Y1.1065 I-0.0256 J0.0501
G2 X5.8277 Y1.1261 I0.126 J-0.2428
G3 X5.8294 Y1.1266 I-0.0159 J0.054
G2 X5.8895 Y1.1413 I0.1239 J-0.3764
G3 X5.8897 Y1.1414 I-0.009 J0.0555
G2 X5.9544 Y1.1467 I0.0646 J-0.3877
G2 X5.9557 I-0.0013 J-0.3616
G3 X5.9393 Y1.1409 I0.0585 J-0.1911
G3 X5.8772 Y1.1036 I0.0728 J-0.1913
G3 X5.8419 Y1.0659 I0.152 J-0.178
G0 Z0.125
G0 X6.3636 Y0.7913
G1 F10.0 Z-0.015
G2 F30.0 X6.3898 Y0.6984 I-0.6069 J-0.222
G3 X6.3899 Y0.698 I0.0796 J0.0162
G2 X6.4035 Y0.5687 I-0.6259 J-0.1309
G3 Y0.5677 I0.0812 J0.0002
G2 X6.3828 Y0.4377 I-0.3821 J-0.0059
G2 X6.3306 Y0.3496 I-0.2484 J0.0875
G2 X6.2576 Y0.2973 I-0.1596 J0.146
G2 X6.2446 Y0.2924 I-0.0903 J0.2181
G3 X6.2851 Y0.3277 I-0.1625 J0.2272
G3 X6.2863 Y0.3291 I-0.059 J0.0558
G3 X6.356 Y0.4455 I-0.2585 J0.2337
G3 X6.3564 Y0.4466 I-0.0765 J0.0273
G3 X6.3821 Y0.6138 I-0.4577 J0.1559
G3 X6.3738 Y0.7321 I-0.9773 J-0.0092
G3 X6.3737 Y0.7326 I-0.0806 J-0.0106
G3 X6.3636 Y0.7913 I-0.8434 J-0.1157
G1 F10.0 X6.3391 Y0.7861
G3 F30.0 X6.3195 Y0.8618 I-0.8088 J-0.1693
G3 X6.3194 Y0.8621 I-0.0537 J-0.0167
G3 X6.2629 Y0.9917 I-0.645 J-0.2039
G3 X6.2372 Y1.0315 I-0.3224 J-0.1798
G2 X6.2999 Y0.9604 I-0.3838 J-0.4015
G3 X6.3001 Y0.9602 I0.0452 J0.0335
G2 X6.3722 Y0.837 I-0.5045 J-0.378
G2 X6.4143 Y0.7034 I-0.6155 J-0.2677
G3 X6.4144 Y0.7031 I0.0551 J0.0112
G2 X6.4285 Y0.5688 I-0.6504 J-0.136
G3 Y0.5681 I0.0562 J0.0001
G2 X6.4064 Y0.4295 I-0.4071 J-0.0062
G2 X6.3492 Y0.3328 I-0.272 J0.0957
G2 X6.2674 Y0.2743 I-0.1781 J0.1627
G2 X6.1655 Y0.2544 I-0.1001 J0.2411
G2 X6.0997 Y0.2622 I0.0034 J0.3118
G2 X6.0885 Y0.2649 I0.0869 J0.3824
G3 X6.1759 Y0.2832 I-0.0092 J0.261
G3 X6.2669 Y0.3449 I-0.0938 J0.2364
G3 X6.2678 Y0.3458 I-0.0409 J0.0386
G3 X6.3324 Y0.4539 I-0.24 J0.2169
G3 X6.3327 Y0.4547 I-0.053 J0.0189
G3 X6.3571 Y0.6134 I-0.4341 J0.1478
G3 X6.349 Y0.7289 I-0.9523 J-0.0088
G3 X6.3489 Y0.7292 I-0.0558 J-0.0073
G3 X6.3391 Y0.7861 I-0.8187 J-0.1123
G1 F10.0 X6.3146 Y0.781
G3 F30.0 X6.2956 Y0.8544 I-0.7843 J-0.1642
G3 X6.2955 Y0.8545 I-0.0298 J-0.0093
G3 X6.2411 Y0.9795 I-0.6212 J-0.1964
G3 X6.1533 Y1.0824 I-0.3006 J-0.1676
G3 X6.0848 Y1.1197 I-0.1357 J-0.1676
G3 X6.0846 Y1.1198 I-0.0097 J-0.0297
G3 X6.0164 Y1.1304 I-0.0678 J-0.2098
G3 X5.9484 Y1.1176 I-0.0023 J-0.1748
G3 X5.8936 Y1.0847 I0.0636 J-0.168
G3 X5.8529 Y1.0378 I0.1356 J-0.1591
G3 X5.831 Y1.0008 I0.255 J-0.1753
G1 X5.8176 Y0.9974
G2 X5.8163 Y0.9993 I0.0574 J0.0418
G3 X5.8156 Y1.0002 I-0.0258 J-0.0176
G2 X5.7943 Y1.0303 I0.8029 J0.5906
G2 X5.7735 Y1.0648 I0.5061 J0.3292
G3 X5.7729 Y1.0657 I-0.0273 J-0.0152
G2 X5.7541 Y1.0991 I0.5721 J0.3455
G2 X5.7462 Y1.1157 I0.3245 J0.1646
G2 X5.7673 Y1.1286 I0.0943 J-0.1304
G3 X5.7675 Y1.1287 I-0.0142 J0.0278
G2 X5.8206 Y1.1501 I0.1376 J-0.2649
G3 X5.8216 Y1.1504 I-0.0088 J0.03
G2 X5.8855 Y1.166 I0.1317 J-0.4002
G3 X5.8856 I-0.005 J0.0308
G2 X5.9544 Y1.1717 I0.0687 J-0.4124
G2 X6.0228 Y1.1653 I-0.0014 J-0.3866
G3 X6.0234 Y1.1652 I0.0056 J0.0307
G2 X6.0925 Y1.1482 I-0.072 J-0.4394
G2 X6.1584 Y1.1202 I-0.1605 J-0.4703
G2 X6.2144 Y1.0845 I-0.1715 J-0.331
G2 X6.32 Y0.9753 I-0.361 J-0.4545
G3 X6.3201 Y0.9752 I0.0251 J0.0186
G2 X6.3951 Y0.8471 I-0.5245 J-0.393
G2 X6.4388 Y0.7084 I-0.6384 J-0.2778
G3 X6.4389 Y0.7083 I0.0306 J0.0062
G2 X6.4535 Y0.5689 I-0.6748 J-0.1411
G3 Y0.5685 I0.0312 J0.0001
G2 X6.43 Y0.4213 I-0.4321 J-0.0066
G2 X6.3677 Y0.316 I-0.2956 J0.1039
G2 X6.2772 Y0.2513 I-0.1966 J0.1795
G2 X6.1653 Y0.2294 I-0.1098 J0.2641
G2 X6.0942 Y0.2378 I0.0036 J0.3368
G1 X6.0941
G2 X6.0126 Y0.2654 I0.0924 J0.4068
G2 X5.9214 Y0.3183 I0.2579 J0.5504
G2 X5.8401 Y0.3852 I0.4258 J0.5998
G3 X5.8985 Y0.3488 I0.5175 J0.7647
G3 X5.8986 Y0.3487 I0.0155 J0.0271
G3 X5.9712 Y0.3128 I0.3481 J0.6125
G3 X5.9715 Y0.3127 I0.0122 J0.0288
G3 X6.0331 Y0.2941 I0.1246 J0.3019
G3 X6.0341 Y0.294 I0.006 J0.0307
G3 X6.0823 Y0.2897 I0.0519 J0.3144
G3 X6.0831 I0.0004 J0.0312
G3 X6.1667 Y0.3064 I-0.0038 J0.2362
G3 X6.2488 Y0.3621 I-0.0845 J0.2132
G3 X6.2493 Y0.3626 I-0.0227 J0.0215
G3 X6.3089 Y0.4623 I-0.2214 J0.2002
G3 X6.3091 Y0.4627 I-0.0294 J0.0105
G3 X6.3321 Y0.6129 I-0.4104 J0.1398
G3 X6.3242 Y0.7256 I-0.9273 J-0.0084
G3 Y0.7258 I-0.031 J-0.0041
G3 X6.3146 Y0.781 I-0.7939 J-0.1089
G0 Z0.125
G0 X3.9779 Y1.1326
G1 F10.0 Z-0.015
G2 F30.0 X3.9637 Y1.1364 I0.0046 J0.0455
G2 X3.9466 Y1.1496 I0.0278 J0.0535
G3 X3.9455 Y1.1508 I-0.0605 J-0.0542
G2 X3.9364 Y1.1656 I0.0323 J0.0302
G1 X3.9363 Y1.1657
G2 X3.9499 Y1.1619 I-0.0046 J-0.0419
G2 X3.9681 Y1.1475 I-0.032 J-0.059
G2 X3.9779 Y1.1326 I-0.0472 J-0.0418
G1 F10.0 X4.0005 Y1.1432
G2 F30.0 X4.0024 Y1.1389 I-0.0796 J-0.0376
G2 X4.0069 Y1.1155 I-0.0661 J-0.0249
G2 X4.0051 Y1.1102 I-0.0092 J0.0001
G2 X4.0035 Y1.1095 I-0.0029 J0.0045
G3 X4.0031 Y1.1094 I0.0134 J-0.0546
G2 X3.9861 Y1.1074 I-0.0161 J0.0632
G3 X3.9841 I-0.0008 J-0.0562
G2 X3.9527 Y1.1139 I-0.0016 J0.0708
G2 X3.928 Y1.1329 I0.0388 J0.0759
G3 X3.9272 Y1.1338 I-0.0419 J-0.0376
G2 X3.9129 Y1.1569 I0.0506 J0.0473
G3 X3.9121 Y1.159 I-0.0527 J-0.0196
G2 X3.9073 Y1.1819 I0.0581 J0.0242
G2 X3.9096 Y1.1873 I0.0079 J-0.0002
G3 X3.9099 Y1.1876 I-0.0395 J0.04
G2 X3.912 Y1.1888 I0.0033 J-0.0033
G3 X3.9124 Y1.1889 I-0.0142 J0.0544
G2 X3.9288 Y1.1909 I0.0156 J-0.0585
G3 X3.9306 Y1.191 I0.0008 J0.0562
G2 X3.9612 Y1.1841 I0.0012 J-0.0671
G2 X3.9867 Y1.1641 I-0.0433 J-0.0813
G2 X4.0005 Y1.1432 I-0.0659 J-0.0584
G1 F10.0 X4.0231 Y1.1539
G2 F30.0 X4.0257 Y1.148 I-0.1023 J-0.0482
G2 X4.0319 Y1.1157 I-0.0893 J-0.034
G2 X4.0228 Y1.0923 I-0.0342 J0.0
G2 X4.0095 Y1.0852 I-0.0205 J0.0223
G3 X4.0092 Y1.0851 I0.0075 J-0.0303
G2 X3.9857 Y1.0824 I-0.0222 J0.0875
G3 X3.9846 I-0.0004 J-0.0312
G2 X3.9418 Y1.0914 I-0.0021 J0.0958
G2 X3.9094 Y1.1162 I0.0497 J0.0984
G3 X3.909 Y1.1167 I-0.0233 J-0.0209
G2 X3.8895 Y1.1482 I0.0689 J0.0644
G3 X3.889 Y1.1493 I-0.0293 J-0.0109
G2 X3.8823 Y1.1818 I0.0812 J0.0338
G2 X3.8921 Y1.2051 I0.0329 J-0.0001
G3 X3.8922 Y1.2053 I-0.022 J0.0222
G2 X3.9057 Y1.213 I0.021 J-0.0209
G3 X3.9059 Y1.2131 I-0.0079 J0.0302
G2 X3.9292 Y1.2159 I0.022 J-0.0827
G3 X3.9302 I0.0004 J0.0312
G2 X3.9726 Y1.2064 I0.0016 J-0.0921
G2 X4.0054 Y1.1807 I-0.0547 J-0.1036
G2 X4.0231 Y1.1539 I-0.0846 J-0.075
G0 Z0.125
G0 X1.4039 Y0.5376
G1 F10.0 Z-0.015
G2 F30.0 X1.4138 Y0.4516 I-0.3629 J-0.0854
G3 X1.4139 Y0.4498 I0.0812 J-0.0001
G2 X1.4009 Y0.354 I-0.3119 J-0.0065
G2 X1.3713 Y0.2975 I-0.1958 J0.0664
G2 X1.3428 Y0.2746 I-0.0674 J0.055
G3 X1.3426 Y0.2745 I0.0363 J-0.0727
G2 X1.3208 Y0.2688 I-0.0247 J0.049
G2 X1.3063 Y0.2714 I0.0024 J0.0538
G3 X1.3283 Y0.2862 I-0.0596 J0.1121
G3 X1.3301 Y0.2877 I-0.0522 J0.0622
G3 X1.3729 Y0.3444 I-0.1204 J0.1356
G3 X1.3742 Y0.3473 I-0.0731 J0.0353
G3 X1.3958 Y0.4192 I-0.2886 J0.1258
G3 X1.4031 Y0.5086 I-0.4813 J0.0843
G3 X1.4013 Y0.548 I-0.5048 J-0.0029
G2 X1.4039 Y0.5376 I-0.3603 J-0.0958
G1 F10.0 X1.4283 Y0.5433
G2 F30.0 X1.4388 Y0.4515 I-0.3872 J-0.0911
G3 Y0.4503 I0.0562 J-0.0001
G2 X1.4247 Y0.3464 I-0.3369 J-0.007
G2 X1.3911 Y0.2821 I-0.2196 J0.074
G2 X1.354 Y0.2523 I-0.0872 J0.0703
G3 X1.3538 Y0.2522 I0.0252 J-0.0503
G2 X1.3209 Y0.2437 I-0.0359 J0.0713
G2 X1.2859 Y0.2531 I0.0023 J0.0789
G3 X1.2839 Y0.2541 I-0.0266 J-0.0496
G2 X1.2405 Y0.282 I0.0946 J0.1951
G3 X1.2452 Y0.2816 I0.0097 J0.1028
G3 X1.2493 I0.0027 J0.0561
G3 X1.3122 Y0.3054 I-0.0026 J0.102
G3 X1.3134 Y0.3064 I-0.0361 J0.0431
G3 X1.3504 Y0.3553 I-0.1038 J0.1169
G3 X1.3513 Y0.3573 I-0.0506 J0.0245
G3 X1.3712 Y0.4235 I-0.2657 J0.1158
G3 X1.3781 Y0.5084 I-0.4566 J0.0801
G3 X1.3721 Y0.5815 I-0.4798 J-0.0027
G3 X1.3554 Y0.6583 I-0.6265 J-0.0961
G3 X1.3551 Y0.6592 I-0.0541 J-0.0153
G3 X1.3251 Y0.7348 I-0.4648 J-0.1409
G3 X1.3217 Y0.7415 I-0.3185 J-0.1534
G2 X1.3229 Y0.7402 I-0.3452 J-0.315
G3 X1.3232 Y0.7399 I0.0417 J0.0378
G2 X1.3863 Y0.6524 I-0.3325 J-0.3062
G2 X1.4254 Y0.5546 I-0.3741 J-0.2063
G3 X1.4255 Y0.5545 I0.0544 J0.0143
G2 X1.4283 Y0.5433 I-0.3844 J-0.1023
G0 Z0.125
G0 X1.0331 Y0.4307
G1 F10.0 Z-0.015
G3 F30.0 X1.0058 Y0.3742 I0.0538 J-0.0609
G2 X0.9941 Y0.3055 I-0.3023 J0.0162
G2 X0.9787 Y0.2722 I-0.1587 J0.053
G3 X0.9785 I-0.0299 J-0.0756
G2 X0.9494 Y0.2855 I0.1126 J0.2866
G3 X0.9595 Y0.2999 I-0.0812 J0.0672
G3 X0.9766 Y0.3374 I-0.1476 J0.0902
G3 X0.9772 Y0.3393 I-0.0774 J0.0248
G3 X0.9919 Y0.451 I-0.3508 J0.103
G3 X0.9885 Y0.5068 I-0.6958 J-0.0148
G3 X0.9789 Y0.586 I-1.6645 J-0.1617
G3 X0.9787 Y0.587 I-0.0804 J-0.0117
G3 X0.9624 Y0.6832 I-4.7717 J-0.7586
G3 X0.9415 Y0.7919 I-3.6062 J-0.6389
G3 X0.9383 Y0.8067 I-0.6772 J-0.1353
G3 X0.9697 Y0.8182 I-0.0116 J0.0804
G2 X0.9699 Y0.8183 I0.2317 J-0.3709
G3 X0.9568 Y0.7567 I0.0666 J-0.0464
G2 X0.9663 Y0.7025 I-1.89 J-0.36
G3 X0.9664 Y0.7022 I0.0802 J0.0129
G3 X0.9778 Y0.6346 I11.9734 J1.9828
G3 X0.9891 Y0.5632 I4.9719 J0.7568
G2 X0.9989 Y0.4958 I-12.6041 J-1.8546
G3 X1.0113 Y0.4628 I0.0804 J0.0114
G3 X1.0331 Y0.4307 I0.7896 J0.5146
G1 F10.0 X1.0535 Y0.4452
G3 F30.0 X1.0696 Y0.4233 I0.7474 J0.5322
G3 X1.0307 Y0.3728 I0.0173 J-0.0535
G2 X1.0179 Y0.2981 I-0.3273 J0.0175
G2 X0.9982 Y0.2561 I-0.1826 J0.0605
G2 X0.9862 Y0.2449 I-0.0339 J0.0244
G2 X0.9837 Y0.2441 I-0.0057 J0.0118
G2 X0.9729 Y0.2475 I0.0068 J0.0406
G3 X0.9694 Y0.249 I-0.0241 J-0.0508
G2 X0.9273 Y0.269 I0.1218 J0.3099
G2 X0.906 Y0.2817 I0.9221 J1.5739
G3 X0.938 Y0.3127 I-0.0378 J0.071
G3 X0.9528 Y0.345 I-0.1261 J0.0774
G3 X0.9532 Y0.3463 I-0.0536 J0.0172
G3 X0.9669 Y0.4504 I-0.3268 J0.096
G3 X0.9636 Y0.5043 I-0.6709 J-0.0142
G3 X0.9541 Y0.5824 I-1.6396 J-0.1592
G3 X0.954 Y0.5831 I-0.0557 J-0.0081
G3 X0.9378 Y0.6788 I-4.747 J-0.7547
G3 X0.917 Y0.7869 I-3.5816 J-0.6345
G3 X0.9062 Y0.8324 I-0.6527 J-0.1303
G3 X0.9055 Y0.835 I-0.1729 J-0.0467
G3 X0.9565 Y0.8394 I0.0212 J0.0521
G2 X1.0082 Y0.8673 I0.2449 J-0.3921
G3 X1.0092 Y0.8678 I-0.0235 J0.0511
G2 X1.0474 Y0.8766 I0.0385 J-0.0793
G2 X1.0886 Y0.8735 I0.0 J-0.2737
G3 X1.0515 Y0.855 I0.0452 J-0.1369
G3 X0.9982 Y0.813 I0.2242 J-0.3392
G3 X0.9814 Y0.7614 I0.0384 J-0.0411
G2 X0.991 Y0.7065 I-1.9146 J-0.3646
G3 Y0.7062 I0.0555 J0.0089
G3 X1.0024 Y0.6385 I11.9487 J1.9788
G3 X1.0138 Y0.5671 I4.9472 J0.7528
G2 X1.0236 Y0.4993 I-12.6288 J-1.8585
G3 X1.0322 Y0.4765 I0.0556 J0.0079
G3 X1.0535 Y0.4452 I0.7687 J0.501
G0 Z0.125
G0 X1.0743 Y0.3984
G1 F10.0 Z-0.015
G3 F30.0 X1.0557 Y0.3715 I0.0127 J-0.0286
G2 X1.0418 Y0.2906 I-0.3523 J0.0189
G2 X1.0189 Y0.2422 I-0.2065 J0.0679
G2 X0.9983 Y0.2231 I-0.0546 J0.0383
G2 X0.9841 Y0.2188 I-0.0179 J0.0337
G2 X0.9622 Y0.2249 I0.0064 J0.0658
G3 X0.9602 Y0.2257 I-0.0134 J-0.0282
G2 X0.9148 Y0.2474 I0.1309 J0.3332
G2 X0.8573 Y0.2825 I0.9346 J1.5956
G2 X0.8259 Y0.3032 I0.8438 J1.3109
G3 X0.829 Y0.3023 I0.1099 J0.3798
G3 X0.8305 Y0.3019 I0.0084 J0.0301
G3 X0.8699 Y0.2974 I0.0411 J0.1821
G3 X0.8729 Y0.2975 I0.0003 J0.0312
G3 X0.9164 Y0.3254 I-0.0047 J0.0552
G3 X0.929 Y0.3527 I-0.1046 J0.0647
G3 X0.9292 Y0.3534 I-0.0298 J0.0095
G3 X0.9419 Y0.4499 I-0.3028 J0.0889
G3 X0.9387 Y0.5018 I-0.6459 J-0.0136
G3 X0.9294 Y0.5788 I-1.6147 J-0.1567
G3 X0.9293 Y0.5792 I-0.0309 J-0.0045
G3 X0.9132 Y0.6744 I-4.7223 J-0.7508
G3 X0.8925 Y0.7819 I-3.557 J-0.6302
G3 X0.8821 Y0.8259 I-0.6282 J-0.1253
G3 X0.8687 Y0.8593 I-0.1488 J-0.0402
G3 X0.8682 Y0.8602 I-0.0275 J-0.0149
G3 X0.8482 Y0.8861 I-0.1151 J-0.0679
G3 X0.8479 Y0.8865 I-0.0223 J-0.0219
G3 X0.8437 Y0.8905 I-0.2384 J-0.2434
G3 X0.8623 Y0.8821 I0.3646 J0.7819
G3 X0.8629 Y0.8818 I0.0125 J0.0286
G2 X0.9127 Y0.8591 I-0.2861 J-0.6935
G3 X0.9433 Y0.8606 I0.014 J0.0279
G2 X0.9977 Y0.89 I0.2581 J-0.4133
G3 X0.9983 Y0.8903 I-0.0131 J0.0284
G2 X1.0473 Y0.9016 I0.0494 J-0.1018
G2 X1.1045 Y0.8961 I0.0001 J-0.2987
G2 X1.159 Y0.8812 I-0.0783 J-0.3944
G2 X1.2085 Y0.86 I-0.1288 J-0.3689
G2 X1.2512 Y0.8351 I-0.2012 J-0.3941
G2 X1.3415 Y0.757 I-0.2746 J-0.4086
G3 X1.3416 Y0.7568 I0.0232 J0.021
G2 X1.4082 Y0.6645 I-0.3509 J-0.3231
G2 X1.4496 Y0.561 I-0.396 J-0.2184
G1 Y0.5609
G2 X1.4638 Y0.4515 I-0.4086 J-0.1087
G3 Y0.4508 I0.0312 J-0.0001
G2 X1.4485 Y0.3388 I-0.3619 J-0.0075
G2 X1.4108 Y0.2668 I-0.2435 J0.0815
G2 X1.3651 Y0.2299 I-0.107 J0.0856
G2 X1.321 Y0.2187 I-0.0471 J0.0937
G2 X1.2741 Y0.231 I0.0022 J0.1039
G3 X1.273 Y0.2316 I-0.0148 J-0.0275
G2 X1.2182 Y0.2681 I0.1055 J0.2176
G3 X1.2178 Y0.2684 I-0.0207 J-0.0234
G2 X1.1636 Y0.3234 I0.2969 J0.3473
G3 X1.1632 Y0.3238 I-0.024 J-0.02
G2 X1.1122 Y0.3882 I0.7604 J0.6555
G3 X1.0743 Y0.3984 I-0.0253 J-0.0184
G1 F10.0 X1.1028 Y0.4212
G3 F30.0 X1.1567 Y0.3596 I0.698 J0.5563
G3 X1.2124 Y0.3162 I0.177 J0.1696
G3 X1.2131 Y0.3158 I0.0155 J0.0272
G3 X1.2464 Y0.3066 I0.0371 J0.0689
G3 X1.2487 Y0.3065 I0.0015 J0.0312
G3 X1.2962 Y0.3245 I-0.002 J0.077
G3 X1.2969 Y0.3251 I-0.0201 J0.0239
G3 X1.3279 Y0.3661 I-0.0873 J0.0982
G3 X1.3284 Y0.3672 I-0.0281 J0.0136
G3 X1.3466 Y0.4278 I-0.2428 J0.1058
G3 X1.3531 Y0.5082 I-0.4321 J0.0758
G3 X1.3474 Y0.5776 I-0.4548 J-0.0025
G3 X1.3314 Y0.6515 I-0.6019 J-0.0922
G3 X1.3312 Y0.652 I-0.0301 J-0.0085
G3 X1.3027 Y0.7238 I-0.4409 J-0.1337
G3 X1.2623 Y0.7877 I-0.2961 J-0.1424
G3 X1.262 Y0.7881 I-0.0243 J-0.0196
G3 X1.2056 Y0.8356 I-0.1623 J-0.1357
G3 X1.2054 Y0.8357 I-0.0156 J-0.0271
G3 X1.1316 Y0.8558 I-0.076 J-0.1335
G3 X1.1302 I-0.0005 J-0.0312
G3 X1.0655 Y0.8343 I0.0035 J-0.1191
G3 X1.0152 Y0.7947 I0.2102 J-0.3185
G3 X1.0059 Y0.766 I0.0213 J-0.0228
G2 X1.0156 Y0.7105 I-1.9391 J-0.3693
G3 Y0.7103 I0.0309 J0.005
G3 X1.0271 Y0.6425 I11.9241 J1.9747
G3 X1.0385 Y0.571 I4.9226 J0.7488
G2 X1.0483 Y0.5028 I-12.6534 J-1.8624
G3 X1.0531 Y0.4901 I0.0309 J0.0044
G3 X1.1028 Y0.4212 I0.7478 J0.4873
G0 Z0.125
G0 X0.7278 Y0.307
G1 F10.0 Z-0.015
G2 F30.0 X0.7266 Y0.3056 I-0.0335 J0.0262
G2 X0.6932 Y0.2785 I-0.1027 J0.0926
G2 X0.6323 Y0.2538 I-0.1402 J0.2587
G3 X0.6322 I0.0152 J-0.0542
G2 X0.5892 Y0.2454 I-0.0729 J0.2579
G3 X0.6457 Y0.284 I-0.1083 J0.2189
G3 X0.6475 Y0.2857 I-0.038 J0.0415
G3 X0.6866 Y0.3321 I-0.2484 J0.2491
G3 X0.6879 Y0.334 I-0.046 J0.0324
G3 X0.7019 Y0.3561 I-1.6425 J1.0585
G2 X0.7237 Y0.3153 I-0.3156 J-0.194
G3 X0.7259 Y0.3109 I0.0512 J0.0233
G2 X0.7278 Y0.307 I-0.0347 J-0.0196
G0 Z0.125
G0 X0.5388 Y0.6255
G1 F10.0 Z-0.015
G2 F30.0 X0.5153 Y0.6128 I-0.1806 J0.3044
G3 X0.5142 Y0.6122 I0.0361 J-0.0728
G3 X0.4541 Y0.5785 I0.4314 J-0.8395
G3 X0.3931 Y0.5338 I0.1792 J-0.3084
G3 X0.3421 Y0.4734 I0.1601 J-0.1871
G3 X0.3418 Y0.4729 I0.0697 J-0.0418
G3 X0.3189 Y0.406 I0.1504 J-0.0888
G2 X0.3114 Y0.4393 I0.0706 J0.0333
G3 Y0.4407 I-0.0812 J-0.0001
G2 X0.3187 Y0.4775 I0.0881 J0.0016
G2 X0.3409 Y0.5091 I0.101 J-0.0474
G3 X0.3417 Y0.5099 I-0.0574 J0.0575
G2 X0.3805 Y0.5411 I0.1468 J-0.1431
G3 X0.3816 Y0.5417 I-0.0428 J0.0691
G2 X0.4349 Y0.5725 I0.3489 J-0.544
G3 X0.5418 Y0.6392 I-0.2526 J0.5238
G3 X0.6027 Y0.7441 I-0.0991 J0.1277
G2 X0.6082 Y0.7174 I-0.0613 J-0.0264
G3 Y0.7169 I0.0812 J-0.0004
G2 X0.6051 Y0.6912 I-0.1103 J-0.0001
G2 X0.5958 Y0.6721 I-0.0756 J0.0254
G2 X0.5692 Y0.6458 I-0.1268 J0.1013
G2 X0.5388 Y0.6255 I-0.211 J0.2842
G1 F10.0 X0.5516 Y0.604
G2 F30.0 X0.5264 Y0.5904 I-0.1934 J0.3259
G3 X0.5256 Y0.59 I0.025 J-0.0504
G3 X0.4669 Y0.557 I0.42 J-0.8172
G3 X0.4096 Y0.515 I0.1664 J-0.2869
G3 X0.3635 Y0.4606 I0.1436 J-0.1683
G3 X0.3633 Y0.4602 I0.0482 J-0.029
G3 X0.3425 Y0.3843 I0.1288 J-0.0761
G3 X0.3532 Y0.3239 I0.1531 J-0.0041
G2 X0.3266 Y0.349 I0.1785 J0.2155
G2 X0.2965 Y0.3948 I0.1349 J0.1213
G3 X0.2963 Y0.3954 I-0.0511 J-0.0234
G2 X0.2864 Y0.4393 I0.0932 J0.044
G3 Y0.4403 I-0.0562 J0.0
G2 X0.2959 Y0.4878 I0.1131 J0.0021
G2 X0.3233 Y0.5268 I0.1238 J-0.0577
G3 X0.3238 Y0.5274 I-0.0397 J0.0398
G2 X0.3673 Y0.5623 I0.1647 J-0.1606
G3 X0.3681 Y0.5628 I-0.0296 J0.0478
G2 X0.4238 Y0.5949 I0.3624 J-0.5651
G3 X0.5264 Y0.6589 I-0.2414 J0.5015
G3 X0.5793 Y0.764 I-0.0837 J0.108
G3 X0.5704 Y0.8179 I-0.1333 J0.0055
G2 X0.6155 Y0.7719 I-0.1254 J-0.1681
G3 X0.6157 Y0.7716 I0.0457 J0.0328
G2 X0.6332 Y0.7173 I-0.0742 J-0.0539
G3 Y0.7169 I0.0562 J-0.0003
G2 X0.6292 Y0.6843 I-0.1353 J-0.0001
G2 X0.6159 Y0.6573 I-0.0997 J0.0322
G2 X0.5844 Y0.6259 I-0.147 J0.1161
G2 X0.5516 Y0.604 I-0.2261 J0.3041
G0 Z0.125
G0 X0.3494 Y0.8725
G1 F10.0 Z-0.015
G3 F30.0 X0.3057 Y0.8347 I0.1956 J-0.2704
G3 X0.2846 Y0.8137 I0.5157 J-0.5389
G2 X0.2749 Y0.8241 I0.2552 J0.2495
G3 X0.2739 Y0.8252 I-0.0417 J-0.0377
G2 X0.262 Y0.8381 I0.316 J0.3011
G2 X0.288 Y0.8498 I0.2973 J-0.626
G3 X0.2897 Y0.8506 I-0.022 J0.0518
G2 X0.3396 Y0.8699 I0.172 J-0.3702
G2 X0.3494 Y0.8725 I0.0523 J-0.178
G1 F10.0 X0.3437 Y0.8968
G2 F30.0 X0.3952 Y0.9024 I0.0482 J-0.2049
G3 X0.3954 I0.0005 J0.0312
G2 X0.4853 Y0.8878 I-0.0032 J-0.3056
G3 X0.4858 Y0.8877 I0.0095 J0.0298
G2 X0.573 Y0.8466 I-0.0974 J-0.3193
G3 X0.5732 Y0.8464 I0.0173 J0.026
G2 X0.6358 Y0.7865 I-0.1282 J-0.1967
G3 X0.6359 Y0.7863 I0.0254 J0.0182
G2 X0.6582 Y0.7171 I-0.0944 J-0.0686
G3 Y0.7169 I0.0312 J-0.0002
G2 X0.6533 Y0.6774 I-0.1603 J-0.0001
G2 X0.6361 Y0.6425 I-0.1237 J0.0391
G2 X0.5995 Y0.606 I-0.1671 J0.131
G2 X0.5375 Y0.568 I-0.2413 J0.3239
G3 X0.537 Y0.5677 I0.0139 J-0.028
G3 X0.4797 Y0.5355 I0.4085 J-0.795
G3 X0.4261 Y0.4963 I0.1536 J-0.2654
G3 X0.3849 Y0.4477 I0.127 J-0.1496
G3 X0.3848 Y0.4475 I0.0268 J-0.0161
G3 X0.3675 Y0.384 I0.1073 J-0.0634
G3 X0.4059 Y0.2888 I0.1281 J-0.0038
G3 X0.4063 Y0.2883 I0.0219 J0.0223
G3 X0.4555 Y0.2597 I0.0862 J0.0917
G3 X0.4557 I0.0092 J0.0299
G3 X0.507 Y0.2523 I0.0496 J0.1641
G3 X0.5775 Y0.2675 I0.0023 J0.1611
G3 X0.5782 Y0.2678 I-0.0132 J0.0283
G3 X0.6289 Y0.3025 I-0.0972 J0.1965
G3 X0.6299 Y0.3034 I-0.0211 J0.0231
G3 X0.6661 Y0.3465 I-0.2307 J0.2314
G3 X0.6669 Y0.3475 I-0.0255 J0.018
G3 X0.6917 Y0.3871 I-1.6215 J1.045
G3 X0.6926 Y0.3886 I-0.0267 J0.0163
G2 X0.7005 Y0.403 I0.4946 J-0.2652
G2 X0.7227 Y0.3701 I-0.2401 J-0.186
G3 X0.7231 Y0.3694 I0.027 J0.0158
G2 X0.7464 Y0.3256 I-0.3367 J-0.2074
G3 X0.7477 Y0.3232 I0.0285 J0.0129
G2 X0.7548 Y0.304 I-0.0565 J-0.0319
G2 X0.7536 Y0.3009 I-0.011 J0.0026
G3 X0.7533 Y0.3004 I0.027 J-0.0157
G2 X0.7453 Y0.289 I-0.059 J0.0328
G2 X0.7054 Y0.2567 I-0.1214 J0.1091
G2 X0.639 Y0.2298 I-0.1524 J0.2805
G1 Y0.2297
G2 X0.557 Y0.2187 I-0.0797 J0.282
G2 X0.4942 Y0.2269 I0.0027 J0.2655
G3 X0.4934 Y0.2271 I-0.0077 J-0.0303
G2 X0.4261 Y0.2495 I0.0783 J0.3471
G2 X0.3617 Y0.2863 I0.1724 J0.3764
G3 X0.3613 Y0.2866 I-0.0179 J-0.0256
G2 X0.3081 Y0.3322 I0.1704 J0.2528
G2 X0.2738 Y0.3844 I0.1533 J0.1382
G3 X0.2736 Y0.3847 I-0.0284 J-0.013
G2 X0.2614 Y0.4393 I0.1158 J0.0547
G3 Y0.4398 I-0.0312 J0.0
G2 X0.2731 Y0.4981 I0.1381 J0.0025
G2 X0.3056 Y0.5445 I0.1466 J-0.068
G3 X0.3059 Y0.5448 I-0.0221 J0.0221
G2 X0.3542 Y0.5836 I0.1826 J-0.178
G3 X0.3546 Y0.5838 I-0.0165 J0.0266
G2 X0.4126 Y0.6172 I0.3759 J-0.5861
G3 X0.511 Y0.6786 I-0.2303 J0.4791
G3 X0.5543 Y0.7648 I-0.0683 J0.0883
G3 X0.5232 Y0.8457 I-0.1083 J0.0048
G3 X0.5228 Y0.8461 I-0.0223 J-0.0219
G3 X0.4793 Y0.8714 I-0.0715 J-0.073
G3 X0.436 Y0.8771 I-0.0415 J-0.1459
G3 X0.3684 Y0.8553 I-0.0006 J-0.1138
G3 X0.3233 Y0.8169 I0.1766 J-0.2532
G3 X0.2887 Y0.7815 I0.4981 J-0.5212
G3 X0.2879 Y0.7806 I0.0231 J-0.0211
G2 X0.2855 Y0.7784 I-0.0098 J0.0083
G2 X0.2848 Y0.779 I0.0079 J0.0094
G3 X0.2839 Y0.7798 I-0.0218 J-0.0224
G2 X0.2564 Y0.8073 I0.256 J0.2835
G3 X0.2558 Y0.8079 I-0.0232 J-0.0209
G2 X0.2251 Y0.8437 I0.3341 J0.3184
G3 X0.2246 Y0.8443 I-0.0247 J-0.0191
G2 X0.2226 Y0.8467 I0.7752 J0.6344
G3 X0.2313 Y0.8508 I-0.087 J0.1931
G3 X0.2314 Y0.8509 I-0.0141 J0.0279
G2 X0.2782 Y0.8728 I0.3279 J-0.6387
G3 X0.2792 Y0.8732 I-0.0122 J0.0288
G2 X0.3323 Y0.8938 I0.1826 J-0.3928
G2 X0.3437 Y0.8968 I0.0595 J-0.2019
( Profile1 )
G0 Z0.125
( T3 : 0.125 )
T3 M6
M3 S1000
G0 X0.0 Y-0.0625
G1 F10.0 Z-0.0313
G1 F30.0 X6.6563
G3 X6.7188 Y0.0 I0.0 J0.0625
G1 Y3.1563
G3 X6.6563 Y3.2188 I-0.0625 J0.0
G1 X0.0
G3 X-0.0625 Y3.1563 I0.0 J-0.0625
G1 Y0.0
G3 X0.0 Y-0.0625 I0.0625 J0.0
G1 F10.0 Z-0.0625
G1 F30.0 X6.6563
G3 X6.7188 Y0.0 I0.0 J0.0625
G1 Y3.1563
G3 X6.6563 Y3.2188 I-0.0625 J0.0
G1 X0.0
G3 X-0.0625 Y3.1563 I0.0 J-0.0625
G1 Y0.0
G3 X0.0 Y-0.0625 I0.0625 J0.0
G1 F10.0 Z-0.0938
G1 F30.0 X6.6563
G3 X6.7188 Y0.0 I0.0 J0.0625
G1 Y3.1563
G3 X6.6563 Y3.2188 I-0.0625 J0.0
G1 X0.0
G3 X-0.0625 Y3.1563 I0.0 J-0.0625
G1 Y0.0
G3 X0.0 Y-0.0625 I0.0625 J0.0
G1 F10.0 Z-0.125
G1 F30.0 X6.6563
G3 X6.7188 Y0.0 I0.0 J0.0625
G1 Y3.1563
G3 X6.6563 Y3.2188 I-0.0625 J0.0
G1 X0.0
G3 X-0.0625 Y3.1563 I0.0 J-0.0625
G1 Y0.0
G3 X0.0 Y-0.0625 I0.0625 J0.0
G1 F10.0 Z-0.1563
G1 F30.0 X6.6563
G3 X6.7188 Y0.0 I0.0 J0.0625
G1 Y3.1563
G3 X6.6563 Y3.2188 I-0.0625 J0.0
G1 X0.0
G3 X-0.0625 Y3.1563 I0.0 J-0.0625
G1 Y0.0
G3 X0.0 Y-0.0625 I0.0625 J0.0
G1 F10.0 Z-0.1875
G1 F30.0 X6.6563
G3 X6.7188 Y0.0 I0.0 J0.0625
G1 Y3.1563
G3 X6.6563 Y3.2188 I-0.0625 J0.0
G1 X0.0
G3 X-0.0625 Y3.1563 I0.0 J-0.0625
G1 Y0.0
G3 X0.0 Y-0.0625 I0.0625 J0.0
G1 F10.0 Z-0.2188
G1 F30.0 X6.6563
G3 X6.7188 Y0.0 I0.0 J0.0625
G1 Y3.1563
G3 X6.6563 Y3.2188 I-0.0625 J0.0
G1 X0.0
G3 X-0.0625 Y3.1563 I0.0 J-0.0625
G1 Y0.0
G3 X0.0 Y-0.0625 I0.0625 J0.0
G1 F10.0 Z-0.25
G1 F30.0 X6.6563
G3 X6.7188 Y0.0 I0.0 J0.0625
G1 Y3.1563
G3 X6.6563 Y3.2188 I-0.0625 J0.0
G1 X0.0
G3 X-0.0625 Y3.1563 I0.0 J-0.0625
G1 Y0.0
G3 X0.0 Y-0.0625 I0.0625 J0.0
G0 Z0.125
M5
M30
